/* XPM */
static char *NSLLogo_Off[]={
"92 55 3 1",
". c None",
"# c #000000",
"a c #a0a0a0",
"............................................................................................",
"............................................................................................",
"............................................................................................",
"............................................................................................",
"............................................................................................",
"............................................................................................",
"...................############........................##########.......##########..........",
"................##################....................###########a......##########a.........",
"...............####################.................#############aa.....##########aa........",
"..............######################................#############aaa....##########aaa.......",
".............########################..............##############aaaa...##########aaaa......",
".............########################a............###############aaaa...##########aaaa......",
"............##########################a...........###############aaaa...##########aaaa......",
"............##########################aa.........################aaaa...##########aaaa......",
"...........############################aa........################aaaa...##########aaaa......",
"...........############################aa.......#################aaaa...##########aaaa......",
"...........############################aaa......#################aaaa...##########aaaa......",
"...........############################aaa......#################aaaa...##########aaaa......",
"...........#############aaa############aaaa.....#############aaaaaaaa...##########aaaa......",
"...........############aaaaa###########aaaa.....#############aaaaaaaa...##########aaaa......",
"...........############aaaaa###########aaaa.....############aaaaaaaaa...##########aaaa......",
"...........############aaaaa###########aaaa.....############aaaaaaaaa...##########aaaa......",
"...........############aaaaa###########aaaa.....############aaaaa.......##########aaaa......",
"...........############aaaa.###########aaaa.....#############aaaa.......##########aaaa......",
"...........############aaaa.###########aaaa.....##############aa........##########aaaa......",
"...........############aaaa.###########aaaa.....##############aa........##########aaaa......",
"...........############aaaa.###########aaaa.....###############a........##########aaaa......",
"...........############aaaa.###########aaaa......##############aa.......##########aaaa......",
"...........############aaaa.###########aaaa.......#############aaa......##########aaaa......",
"...........############aaaa.###########aaaa.......##############aa......##########aaaa......",
"...........############aaaa.###########aaaa........#############aaa.....##########aaaa......",
"...........############aaaa.###########aaaa........#############aaa.....##########aaaa......",
"...........############aaaa.###########aaaa.........############aaa.....###########aaa......",
"...........############aaaa.###########aaaa.........############aaaa....###########aaa......",
"...........############aaaa.###########aaaa........#############aaaa....############aa......",
"...........############aaaa.###########aaaa.......##############aaaa....################....",
"...........############aaaa.###########aaaa...##################aaaa....################a...",
"...........############aaaa.###########aaaa...##################aaaa....################aa..",
"...........############aaaa.###########aaaa...##################aaaa.....###############aaa.",
"...........############aaaa.###########aaaa...##################aaaa.....###############aaaa",
"...........############aaaa.###########aaaa...#################aaaaa.....###############aaaa",
"...........############aaaa.###########aaaa...#################aaaaa......##############aaaa",
"...........############aaaa.###########aaaa...################aaaaaa.......#############aaaa",
"...........############aaaa.###########aaaa...###############aaaaaaa.......#############aaaa",
"...........############aaaa.###########aaaa...##############aaaaaaa..........###########aaaa",
"...........############aaaa.###########aaaa...#############aaaaaaaa...........##########aaaa",
"...........############aaaa.###########aaaa...###########aaaaaaaaa.............aa#######aaaa",
"............aaaaaaaaaaaaaaa..aaaaaaaaaaaaaa....aaaaaaaaaaaaaaaaaa..............aaaaaaaaaaaaa",
".............aaaaaaaaaaaaaa...aaaaaaaaaaaaa.....aaaaaaaaaaaaaaaa.................aaaaaaaaaaa",
"..............aaaaaaaaaaaaa....aaaaaaaaaaaa......aaaaaaaaaaaaaa...................aaaaaaaaaa",
"...............aaaaaaaaaaaa.....aaaaaaaaaaa.......aaaaaaaaaaa........................aaaaaaa",
"............................................................................................",
"............................................................................................",
"............................................................................................",
"............................................................................................"};
