/* XPM */
static char * NSLLogo_On_xpm[] = {
"92 55 2 1",
" 	g None",
"@	g #000000",
"                                                                                            ",
"                                                                                            ",
"                                                                                            ",
"                                                                                            ",
"                                                                                            ",
"                                                                                            ",
"                                                                                            ",
"                                                                                            ",
"                                                                                            ",
"                                                                                            ",
"                       @@@@@@@@@@@@                        @@@@@@@@@@       @@@@@@@@@@      ",
"                    @@@@@@@@@@@@@@@@@@                    @@@@@@@@@@@       @@@@@@@@@@      ",
"                   @@@@@@@@@@@@@@@@@@@@                 @@@@@@@@@@@@@       @@@@@@@@@@      ",
"                  @@@@@@@@@@@@@@@@@@@@@@                @@@@@@@@@@@@@       @@@@@@@@@@      ",
"                 @@@@@@@@@@@@@@@@@@@@@@@@              @@@@@@@@@@@@@@       @@@@@@@@@@      ",
"                 @@@@@@@@@@@@@@@@@@@@@@@@             @@@@@@@@@@@@@@@       @@@@@@@@@@      ",
"                @@@@@@@@@@@@@@@@@@@@@@@@@@            @@@@@@@@@@@@@@@       @@@@@@@@@@      ",
"                @@@@@@@@@@@@@@@@@@@@@@@@@@           @@@@@@@@@@@@@@@@       @@@@@@@@@@      ",
"               @@@@@@@@@@@@@@@@@@@@@@@@@@@@          @@@@@@@@@@@@@@@@       @@@@@@@@@@      ",
"               @@@@@@@@@@@@@@@@@@@@@@@@@@@@         @@@@@@@@@@@@@@@@@       @@@@@@@@@@      ",
"               @@@@@@@@@@@@@@@@@@@@@@@@@@@@         @@@@@@@@@@@@@@@@@       @@@@@@@@@@      ",
"               @@@@@@@@@@@@@@@@@@@@@@@@@@@@         @@@@@@@@@@@@@@@@@       @@@@@@@@@@      ",
"               @@@@@@@@@@@@@   @@@@@@@@@@@@         @@@@@@@@@@@@@           @@@@@@@@@@      ",
"               @@@@@@@@@@@@     @@@@@@@@@@@         @@@@@@@@@@@@@           @@@@@@@@@@      ",
"               @@@@@@@@@@@@     @@@@@@@@@@@         @@@@@@@@@@@@            @@@@@@@@@@      ",
"               @@@@@@@@@@@@     @@@@@@@@@@@         @@@@@@@@@@@@            @@@@@@@@@@      ",
"               @@@@@@@@@@@@     @@@@@@@@@@@         @@@@@@@@@@@@            @@@@@@@@@@      ",
"               @@@@@@@@@@@@     @@@@@@@@@@@         @@@@@@@@@@@@@           @@@@@@@@@@      ",
"               @@@@@@@@@@@@     @@@@@@@@@@@         @@@@@@@@@@@@@@          @@@@@@@@@@      ",
"               @@@@@@@@@@@@     @@@@@@@@@@@         @@@@@@@@@@@@@@          @@@@@@@@@@      ",
"               @@@@@@@@@@@@     @@@@@@@@@@@         @@@@@@@@@@@@@@@         @@@@@@@@@@      ",
"               @@@@@@@@@@@@     @@@@@@@@@@@          @@@@@@@@@@@@@@         @@@@@@@@@@      ",
"               @@@@@@@@@@@@     @@@@@@@@@@@           @@@@@@@@@@@@@         @@@@@@@@@@      ",
"               @@@@@@@@@@@@     @@@@@@@@@@@           @@@@@@@@@@@@@@        @@@@@@@@@@      ",
"               @@@@@@@@@@@@     @@@@@@@@@@@            @@@@@@@@@@@@@        @@@@@@@@@@      ",
"               @@@@@@@@@@@@     @@@@@@@@@@@            @@@@@@@@@@@@@        @@@@@@@@@@      ",
"               @@@@@@@@@@@@     @@@@@@@@@@@             @@@@@@@@@@@@        @@@@@@@@@@@     ",
"               @@@@@@@@@@@@     @@@@@@@@@@@             @@@@@@@@@@@@        @@@@@@@@@@@     ",
"               @@@@@@@@@@@@     @@@@@@@@@@@            @@@@@@@@@@@@@        @@@@@@@@@@@@    ",
"               @@@@@@@@@@@@     @@@@@@@@@@@           @@@@@@@@@@@@@@        @@@@@@@@@@@@@@@@",
"               @@@@@@@@@@@@     @@@@@@@@@@@       @@@@@@@@@@@@@@@@@@        @@@@@@@@@@@@@@@@",
"               @@@@@@@@@@@@     @@@@@@@@@@@       @@@@@@@@@@@@@@@@@@        @@@@@@@@@@@@@@@@",
"               @@@@@@@@@@@@     @@@@@@@@@@@       @@@@@@@@@@@@@@@@@@         @@@@@@@@@@@@@@@",
"               @@@@@@@@@@@@     @@@@@@@@@@@       @@@@@@@@@@@@@@@@@@         @@@@@@@@@@@@@@@",
"               @@@@@@@@@@@@     @@@@@@@@@@@       @@@@@@@@@@@@@@@@@          @@@@@@@@@@@@@@@",
"               @@@@@@@@@@@@     @@@@@@@@@@@       @@@@@@@@@@@@@@@@@           @@@@@@@@@@@@@@",
"               @@@@@@@@@@@@     @@@@@@@@@@@       @@@@@@@@@@@@@@@@             @@@@@@@@@@@@@",
"               @@@@@@@@@@@@     @@@@@@@@@@@       @@@@@@@@@@@@@@@              @@@@@@@@@@@@@",
"               @@@@@@@@@@@@     @@@@@@@@@@@       @@@@@@@@@@@@@@                 @@@@@@@@@@@",
"               @@@@@@@@@@@@     @@@@@@@@@@@       @@@@@@@@@@@@@                   @@@@@@@@@@",
"               @@@@@@@@@@@@     @@@@@@@@@@@       @@@@@@@@@@@                        @@@@@@@",
"                                                                                            ",
"                                                                                            ",
"                                                                                            ",
"                                                                                            "};
