/* XPM */
static char * AppShell_xpm[] = {
"32 32 8 1",
" 	c Tan",
".	c Black",
"+	c #CD853F",
"@	c #A0522D",
"#	c #FFFACD",
"$	c #D2B48C",
"%	c #FFFFFF",
"&	c #FF0000",
"..  .                           ",
".+..@..   .@.                   ",
".++.@++...@#+.                  ",
".#.@$+@+@.%##@......            ",
"..@@#++@.@@+%#@.+@+@...         ",
".@@#$+@.@%%%+%#+.&&&@+@..       ",
" .##@$@.$$$$%%%#+.@@&&&@+..     ",
" .#@$$.++$$$.#%#+.@@@&&&&@+.    ",
" .#@$.$$++$.$##%#.@@@@&&&&@.    ",
"  .@..@$++@.$$#%%#.@@@&&&&&+.   ",
"  ..$@@@@+.$$$.$%%.@@&&&&&&&.   ",
"   .$$@++@.+$$.$$%#.&&++&++&+.  ",
"  .@@@@@+.++@.+$$%%.&++++++&@.  ",
"  .$@+@+@.+++.++$.%%.+$+++$+@.  ",
"  .$$@+@+.++@.++@.$%%.$$$$$$@.  ",
"   .@@@+.@+++.+++.+$%%.$$$$$@.  ",
"    .@@@.@@+.+++.++$.$%.$$$$@.  ",
"     ..@.@@@.+++.+++.$$%.$$@.   ",
"       ..@@@.@@.@+++.+$$%..@.   ",
"         ....@@.@@+@.@@+++@.    ",
"             .........@@@++@..  ",
"                      .....@@@. ",
"                           .....",
"                                ",
"    ...  ....  ....  ..   ..    ",
"   ..... ..... ..... ..   ..    ",
"   .. .. .. .. .. .. ..   ..    ",
"   .. .. ..... ..... ..   ..    ",
"   ..... ....  ....  ..   ..    ",
"   ..... ..    ..    ..   ..    ",
"   .. .. ..    ..    .... ..    ",
"   .. .. ..    ..    .... ..    "};
