/* XPM */
static char * buttonbox_bm_xpm[] = {
"32 32 37 1",
" 	c None",
".	c #D2B48C",
"+	c #FFFACD",
"@	c #000000",
"#	c #CF9E68",
"$	c #CFB18A",
"%	c #AF9675",
"&	c #B59B79",
"*	c #C4A883",
"=	c #C7AB85",
"-	c #CE8F4F",
";	c #312A20",
">	c #453B2E",
",	c #9C8568",
"'	c #090706",
")	c #88755B",
"!	c #816F56",
"~	c #393026",
"{	c #352D23",
"]	c #C1A681",
"^	c #5D503E",
"/	c #6F5F4A",
"(	c #42392C",
"_	c #13100C",
":	c #685945",
"<	c #241F18",
"[	c #B39977",
"}	c #C1A580",
"|	c #0E0C09",
"1	c #2F291F",
"2	c #87735A",
"3	c #8F7A5F",
"4	c #D1B085",
"5	c #D0A97A",
"6	c #CD8C4B",
"7	c #261E14",
"8	c #26180B",
"................................",
"................................",
"................................",
"................................",
".......+++++++++++++++++@.......",
".......+...............#@.......",
".......+..$%%&..%*.%=..-@.......",
".......+..;>,').@!~{]..-@.......",
".......+..@^.@/.@@(....-@.......",
".......+..@^.@/.@@_....-@.......",
".......+..@^.@/.@!:<[..-@.......",
".......+..}||1..|2.3|..-@.......",
".......+...............-@.......",
".......+4555555555555556@.......",
".......+7888888888888888@.......",
"................................",
"................................",
".......+++++++++++++++++@.......",
".......+...............#@.......",
".......+..$%%&..%*.%=..-@.......",
".......+..;>,').@!~{]..-@.......",
".......+..@^.@/.@@(....-@.......",
".......+..@^.@/.@@_....-@.......",
".......+..@^.@/.@!:<[..-@.......",
".......+..}||1..|2.3|..-@.......",
".......+...............-@.......",
".......+4555555555555556@.......",
".......+7888888888888888@.......",
"................................",
"................................",
"................................",
"................................"};
