/* XPM */
static char */tmp/tmp[] = {
/* width height ncolors chars_per_pixel */
"32 32 3 1",
/* colors */
"  c #000000",
". c #D2B48C",
"X c #FFFFFF",
/* pixels */
"XXXXXXXXXXXXXXXXXXXXXXXXXXXXXXXX",
"X                             XX",
"X ........................... XX",
"X ........................... XX",
"X ...... .............. ..... XX",
"X .....   ............   .... XX",
"X ....     ..........     ... XX",
"X .....   ............   .... XX",
"X ...... .............. ..... XX",
"X ........................... XX",
"X .. ... .... .... ... ...... XX",
"X ..  .  .... ..... . ....... XX",
"X .. . . ... . .... . ....... XX",
"X .. ... ...   ..... ........ XX",
"X .. ... ... . ..... ........ XX",
"X .. ... .. ... .... ........ XX",
"X .. ... .. ... .... ........ XX",
"X ........................... XX",
"X ........................... XX",
"X ......      ...      ...... XX",
"X ........... ... .... ...... XX",
"X ........... ... .... ...... XX",
"X .......... .... .... ...... XX",
"X ......... ..... .... ...... XX",
"X .......... .... .... ...... XX",
"X ........... ... .... ...... XX",
"X ........... ... .... ...... XX",
"X ......      ...      ...... XX",
"X ........................... XX",
"X                             XX",
"XXXXXXXXXXXXXXXXXXXXXXXXXXXXXXXX",
"XXXXXXXXXXXXXXXXXXXXXXXXXXXXXXXX"
};
