/* XPM */
static char * column_bm_xpm[] = {
"32 32 51 1",
" 	c None",
".	c #000000",
"+	c #D2B48C",
"@	c #FFFFFF",
"#	c #747474",
"$	c #5C5C5C",
"%	c #E3D0B8",
"&	c #5F523F",
"*	c #F6F1E9",
"=	c #D7BD9B",
"-	c #4C4132",
";	c #EEE8E1",
">	c #D0B796",
",	c #CAAD87",
"'	c #493F31",
")	c #0A0907",
"!	c #D5BA95",
"~	c #C8AC88",
"{	c #C0A480",
"]	c #FEFDFC",
"^	c #FBF8F4",
"/	c #FAF7F3",
"(	c #5A5958",
"_	c #D5D0CA",
":	c #BAA486",
"<	c #B59B79",
"[	c #41382B",
"}	c #1F1B15",
"|	c #DAC1A1",
"1	c #BCA383",
"2	c #AB9272",
"3	c #FDFCFA",
"4	c #F7F1EA",
"5	c #F5EFE7",
"6	c #595754",
"7	c #BCB8B2",
"8	c #A59176",
"9	c #A0896B",
"0	c #3A3126",
"a	c #342D23",
"b	c #DEC9AC",
"c	c #B09B7E",
"d	c #968064",
"e	c #FCFAF8",
"f	c #F3EBE0",
"g	c #F1E8DC",
"h	c #57544F",
"i	c #A3A09B",
"j	c #8F7E67",
"k	c #8B775C",
"l	c #322B21",
"................................",
".++++++++++++++++++++++++++++++.",
".++++++++++++++++++++++++++++++.",
".++++++++++++++++++++++++++++++.",
".+++@@@@@@@@@#..++@@@@@@@@$.+++.",
".+++@%+++++++&..++*=++++++-.+++.",
".+++@%+++++++&..++;>,,,,,,'.+++.",
".+++............++))))))))))+++.",
".++++++++++++++++++++++++++++++.",
".+++++++++++++++++!!!!!!!!~{+++.",
".+++@@@@@@@@@#..++]^//////(.+++.",
".+++@%+++++++&..++*=++++++-.+++.",
".+++@%+++++++&..++_:<<<<<<[.+++.",
".+++............++}}}}}}}}}}+++.",
".++++++++++++++++++++++++++++++.",
".+++++++++++++++++||||||||12+++.",
".+++@@@@@@@@@#..++345555556.+++.",
".+++@%+++++++&..++*=++++++-.+++.",
".+++@%+++++++&..++789999990.+++.",
".+++............++aaaaaaaaaa+++.",
".++++++++++++++++++++++++++++++.",
".+++++++++++++++++bbbbbbbbcd+++.",
".+++@@@@@@@@@#..++efggggggh.+++.",
".+++@%+++++++&..++*=++++++-.+++.",
".+++@%+++++++&..++ijkkkkkkl.+++.",
".+++............++..........+++.",
".++++++++++++++++++++++++++++++.",
".++++++++++++++++++++++++++++++.",
".++++++++++++++++++++++++++++++.",
".++++++++++++++++++++++++++++++.",
".++++++++++++++++++++++++++++++.",
"................................"};
