/* XPM */
static char */tmp/tmp[] = {
/* width height ncolors chars_per_pixel */
"32 32 5 1",
/* colors */
"  c #000000",
". c #D2B48C",
"X c #A0522D",
"o c #FFFFFF",
"O c #FFFACD",
/* pixels */
"                                ",
" .............................. ",
" .............................. ",
" .............................. ",
" .............................. ",
" .............................. ",
" .XXXXXXXXXXXXXXXX............. ",
" .XXXXXXXXXXXXXXXO.           . ",
" .XX............OO.           . ",
" .XX............OO..         .. ",
" .XX........ooooOO..         .. ",
" .XX..........o.OO...       ... ",
" .XX.    ....o..OO...       ... ",
" .XX ...  ....o.OO...       ... ",
" .XX..    ...o..OO....     .... ",
" .XX  ..  ....o.OO....     .... ",
" .XX  ..  ...o..OO....     .... ",
" .XX.    .  ..o.OO.....   ..... ",
" .XX.........o..OO.....   ..... ",
" .XX........ooooOO...... ...... ",
" .XX............OO...... ...... ",
" .XOOOOOOOOOOOOOOO............. ",
" .OOOOOOOOOOOOOOOO............. ",
" .............................. ",
" .............................. ",
" .............................. ",
" .............................. ",
" .............................. ",
" .............................. ",
" .............................. ",
" .............................. ",
"                                "
};
