/* XPM */
static char *magick[] = {
/* columns rows colors chars-per-pixel */
"50 24 10 1",
"  c Gray0",
". c Yellow",
"X c Gray80",
"o c #006400",
"O c peru",
"+ c Blue",
"@ c #d2b48c",
"# c Gray60",
"$ c seashell",
"% c Red",
/* pixels */
"$$$$$$       $$$$$$$$$ OO $$$$$                   ",
"$$$$  @@@@@@@  $$$$$$$$ OO $$$$ +++++++++++++++++ ",
"$$$ @@@@@@@@@@@ $$$$$$$$ OO $$$ +++++++++++++++++ ",
"$$ @@@@@@@@@@@@@ $$$$$$$$ OO $$                   ",
"$$ @@@@@@   @@@@@ $$$$$$$$ OO $ XXXXXXXXXXXXXXXXX ",
"$$$ @@@@ $$$ @@@@@ $$$$$$$$ OO  X       XXXXXXXXX ",
"$$$$  @@ $$$ @+++@ $$$$$$$$$ OO X @@@@@ XXXXXXXXX ",
"$$$$$$ @ $$$ @+++@@ $$$$$$$$$ OO  @@@@@ XX      X ",
"$$$$$$ @@   @@+++@@ $$$$$$$$$$ OO @@@@@ XX @@@@ X ",
"$$$$  @@@@@@@+@+++@ $$$$$$$$%$$ OO @@@@ XX @@@@ X ",
"$$  @@@@@@@@@@@@@@@ $$$$$$%%%$$  O  @@@ XX @@@@ X ",
"$ @@@@@oo@@@@@@@@@@ $$$$%%%%$$$ X %% @@ XX @@@@ X ",
"$ @@@@@ooo@@@@@@@@@ $$%%%%%%$$$ X %% @@ XX @@@@ X ",
" @@@@@@oooo@@...O@@ %%%  %%$$%% XX      XX @@@@ X ",
" @@@@@@oooo@@....O@    $ %%%%%  XXXXXXXXXX      X ",
" @@@@@@ooo@@@...O@@ $$$ %%%%  $ XXXXXXXXXXXXXXXXX ",
" @@@@@@@@@@@@@..O@@ $$$ %%  $$$ XXXXXXXXXXXXXXXXX ",
" @++++@@@@@%@@@@@@ $$$ %  $$$$$ X X X X X X X X X ",
" @@+++@@@%%%%@@@@@ $$ % $$$$$$$ XXXXXXXXXXXXXXXXX ",
"$ @+++++@@%%%%@@@ $$$  $$$$$$$$ XX    XXXXXX    X ",
"$ @@++@@@@%%%%@@ $$$$ $$$$$$$$$ XX ## XXXXXX ## X ",
"$$ @@@@@@@@@@@@ $$$$$$$$$$$$$$$ XX    XXXXXX    X ",
"$$$  @@@@@@@@  $$$$$$$$$$$$$$$$ XXXXXXXXXXXXXXXXX ",
"$$$$$        $$$$$$$$$$$$$$$$$$                   "
};
