/* XPM */
static char *magick[] = {
/* columns rows colors chars-per-pixel */
"20 20 3 1",
"  c Gray0",
". c #d2b48c",
"X c LemonChiffon",
/* pixels */
"....................",
".       ............",
". ..... ............",
".       ............",
". ..... ............",
". ..... ............",
". ..... ............",
".       ............",
". ..... ............",
".       ....       .",
"............ XXXXX .",
"... ........       .",
".   ........ XXXXX .",
".    .. .... XXXXX .",
"..    .  ... XXXXX .",
"...        .       .",
".....      . XXXXX .",
".......  ...       .",
"....... ............",
"...................."
};
