/* XPM */
static char *magick[] = {
/* columns rows colors chars-per-pixel */
"20 20 4 1",
"  c Gray0",
". c #d2b48c",
"X c peru",
"o c Gray100",
/* pixels */
"....................",
"....................",
"....................",
"...    .............",
".. oooo ......   ...",
".. o  o ....  ooo ..",
".. o  o ..  ooo  ...",
".. oooooX  oo  .....",
"...   XX ooo .......",
"......  oo  ........",
"...   ooo X  .......",
".. oooo   XXX  .....",
".. o  o ..  ooo  ...",
".. o  o ....  ooo ..",
".. oooo ......   ...",
"...    .............",
"....................",
"....................",
"....................",
"...................."
};
