/* XPM */
static char * dataF_bm_xpm[] = {
"32 32 6 1",
" 	c None",
".	c #000000",
"+	c #D2B48C",
"@	c #A0522D",
"#	c #FFFACD",
"$	c #FFFFFF",
"................................",
".++++++++++++++++++++++++++++++.",
".++++++++++++++++++++++++++++++.",
".++@@@@@@@@@@@@@@@@@@@@@@@@@+++.",
".++@@@@@@@@@@@@@@@@@@@@@@@##+++.",
".++@@+++++++++++++++++++++##+++.",
".++@@+++++++++++++++++++++##+++.",
".++@@+++++++++++++++++++++##+++.",
".++@@+++++++++++++++++++++##+++.",
".++@@+++++++++++++++++++++##+++.",
".++@@+++++++++++++++++++++##+++.",
".++@@+++++++++++++++++$$$$##+++.",
".++@@+++++++++++++++++++$+##+++.",
".++@@.+++..+++.+++.+++.$++##+++.",
".++@@+.+.++.+.+++++.+.++$+##+++.",
".++@@++.++++.+++++++.++$++##+++.",
".++@@++.++++.+++..++.+++$+##+++.",
".++@@+.+.++.+.+++++.+.+$++##+++.",
".++@@.+++..+++.+++.+++.+$+##+++.",
".++@@++++++++++++++++++$++##+++.",
".++@@+++++++++++++++++$$$$##+++.",
".++@@+++++++++++++++++++++##+++.",
".++@@+++++++++++++++++++++##+++.",
".++@@+++++++++++++++++++++##+++.",
".++@@+++++++++++++++++++++##+++.",
".++@@+++++++++++++++++++++##+++.",
".++@########################+++.",
".++#########################+++.",
".++++++++++++++++++++++++++++++.",
".++++++++++++++++++++++++++++++.",
".++++++++++++++++++++++++++++++.",
"................................"};
