/* XPM */
static char */tmp/tmp[] = {
/* width height ncolors chars_per_pixel */
"32 32 4 1",
/* colors */
"  c #000000",
". c #D2B48C",
"X c #A0522D",
"o c #FFFACD",
/* pixels */
"                                ",
" .............................. ",
" .............................. ",
" ..XXXXXXXXXXXXXXXXXXXXXXXXX... ",
" ..XXXXXXXXXXXXXXXXXXXXXXXXo... ",
" ..XX.....................oo... ",
" ..XX.....................oo... ",
" ..XX.....................oo... ",
" ..XX.....................oo... ",
" ..XX.....................oo... ",
" ..XX.....................oo... ",
" ..XX.....................oo... ",
" ..XX.....................oo... ",
" ..XX.   .   .   ..   .   oo... ",
" ..XX. ... ... . .. . . ..oo... ",
" ..XX.   .   . . .. . .   oo... ",
" ..XX... . ...   ..   ... oo... ",
" ..XX... . ... ...... ... oo... ",
" ..XX.   .   . ...... .   oo... ",
" ..XX.....................oo... ",
" ..XX.....................oo... ",
" ..XX.....................oo... ",
" ..XX.....................oo... ",
" ..XX.....................oo... ",
" ..XX.....................oo... ",
" ..XX.....................oo... ",
" ..Xoooooooooooooooooooooooo... ",
" ..ooooooooooooooooooooooooo... ",
" .............................. ",
" .............................. ",
" .............................. ",
"                                "
};
