/* XPM */
static char *magick[] = {
/* columns rows colors chars-per-pixel */
"32 32 4 1",
"  c Gray0",
". c #d2b48c",
"X c peru",
"o c LemonChiffon",
/* pixels */
"......................... .o.ooo",
".................    .... o.o.o.",
"................ o.o.  . o o.X.X",
"...............    .o.o o.o X.X.",
"......       . XXXX  ooo o.X X.X",
"..... ooooooo  XXXX X o.o X.X   ",
".... ooooooooo XXX   X o.o X ...",
"... oo........ XX     X o.X ....",
".. oo        .       XXX X.X ...",
".. oo oo  .o o X      XXX X. ...",
".. ooooo  .oooo X X    XXX X. ..",
".. ooooo  .ooooo XXX    XX .X ..",
".. ooooo  .ooooo  XXX    XX . ..",
".. ooooo  .ooooo . XXX XXXX X ..",
".. ooooo  .ooooo .. XXXXXXX  ...",
"... oooo  ..ooo ....  XXXXX ....",
".... oo    ooo .......     .....",
"..... ooooooo ..................",
"......       ...................",
"................................",
"................................",
"................................",
"................................",
"................................",
"................................",
"................................",
"................................",
"................................",
"................................",
"................................",
"................................",
"................................"
};
