/* XPM */
static char *magick[] = {
/* columns rows colors chars-per-pixel */
"32 32 4 1",
"  c Gray0",
". c #d2b48c",
"X c peru",
"o c LemonChiffon",
/* pixels */
".........         ..............",
".....     ooooooo        .......",
"..... ... ooo ooo ...... .......",
"..... ... ooooooo ...... .......",
"..     ..         ..         ...",
".. ooo ............. ooooooo ...",
".. ooo ............. o     o ...",
"..     ..........    ooooooo ...",
"................. ..         ...",
"...          .... ..............",
"... oooooooo ..         ........",
"... ooo    o .. ooooooo ........",
"... oo ooX o .. o     o ........",
"... o    o o .. o ooo o ........",
"... o oo o o    o     o ........",
"... o oo  oo .. ooooooo ........",
"... o    ooo ..         ........",
"... oooooooo ...................",
"...          ...................",
"................................",
"................................",
"................................",
"................................",
"................................",
"................................",
"................................",
"................................",
"................................",
"................................",
"................................",
"................................",
"................................"
};
