/* XPM */
static char *magick[] = {
/* columns rows colors chars-per-pixel */
"32 32 4 1",
"  c Gray0",
". c #d2b48c",
"X c Red",
"o c LemonChiffon",
/* pixels */
"............  ..................",
"........... XX .....  ..........",
"........... XXX ... XX .........",
"............ XX .. XXX .........",
"..........   XX   XXX ..........",
"........  XX  X   X        .....",
"......  oo  X       oooooo .....",
"....   ooooo XXXXX     oo  .....",
".... oo      XX     XXX  o .....",
".... oooooo XX  oooo   X   .....",
".....   ooo XX o     o X o .....",
"..... oo    XX ooooo o X o .....",
"..... ooooo XX         X o .....",
"..... ooooo XXX oooo o X o .....",
"...... ooooo XX oooo o X   .....",
"...... ooooo XX oooo o X .......",
"......     o XX oooo o  ........",
"...........      ooo  ..........",
".................    ...........",
"................................",
"................................",
"................................",
"................................",
"................................",
"................................",
"................................",
"................................",
"................................",
"................................",
"................................",
"................................",
"................................"
};
