/* XPM */
static char *magick[] = {
/* columns rows colors chars-per-pixel */
"20 20 5 1",
"  c Gray0",
". c #d2b48c",
"X c peru",
"o c #a0522d",
"O c LemonChiffon",
/* pixels */
"....................",
".......      .......",
".....  O.O.X.  .....",
"...  OO.O.X.XXX  ...",
".. OOOOO    .Xo.o ..",
".. OOOO  .X  XXo. ..",
".. OOOOO.O.X.Xo.o ..",
"..   OO.O.X.XXX   ..",
"..     O.O.X.     ..",
"... O          o ...",
"... OOO      Xo. ...",
"... OOO O.X. oXo ...",
"... OOO .O.X Xo. ...",
"... OOO O.X. oXo ...",
".... OOO O. XXo ....",
".... OOO .X Xo. ....",
".... OOO O. XXo ....",
".....  O OX X  .....",
".......      .......",
"...................."
};
