/* XPM */
static char *magick[] = {
/* columns rows colors chars-per-pixel */
"50 24 8 1",
"  c Gray0",
". c Yellow",
"X c #006400",
"o c peru",
"O c Blue",
"+ c #d2b48c",
"@ c seashell",
"# c Red",
/* pixels */
"@@@@@@       @@@@@@@@@@@@@@@@@@@@@@@@@@@@@@@@@@@@@",
"@@@@  +++++++  @@@@@@@@@@@@@@@@@@@@@@@@@@@@@@@@@@@",
"@@@ +++++++++++ @@@@@@@@@@@@@@@@@@@@@@@@@@@@@@@@@@",
"@@ +++++++++++++ @@@@@@@@@@@@@@@@@@@@@@@@@@@@@@@@@",
"@@ ++++++   +++++ @@@@@@@@@@@@@@@@@@@@@@@@@@@@@@@@",
"@@@ ++++ @@@ +++++ @@@@@@@@@@@@@@@@@@@@@@@@@@@@@@ ",
"@@@@  ++ @@@ +OOO+ @@@@@@@@@@@@@@@@@@@@@@@@@@@@@ o",
"@@@@@@ + @@@ +OOO++ @@@@@@@@@@@@@@@@@@@@@@@@@@@ o.",
"@@@@@@ ++   ++OOO++ @@@@@@@@ @@@@@@@@@@@@@@@@@ o. ",
"@@@@  +++++++O+OOO+ @@@@@@@@ @@@@@@@@@@@@@@@@ o. @",
"@@  +++++++++++++++ @@@@@ @@@@@ @@@@@@@@@@@@ o. @@",
"@ +++++XX++++++++++ @@@@@@ @@@ @@@@@@@@@@@@ o. @@@",
"@ +++++XXX+++++++++ @    @@@@@@@         @ o. @@@@",
" ++++++XXXX++...o++ @@@@@@ @@@ @@@@@@@@@@ o. @@@@@",
" ++++++XXXX++....o+ @@@@@ @@@@@ @@@@@@@@ o. @@@@@@",
" ++++++XXX+++...o++ @@@@@@@@ @@@@@@@@@@ o. @@@@@@@",
" +++++++++++++..o++ @@@@@@@@ @@@@@@@@@ o. @@@@@@@@",
" +OOOO+++++#++++++ @@@@@@@@@@@@@@@@@@ o. @@@@@@@@@",
" ++OOO+++####+++++ @@@@@@@@@@@@@@@@   . @@@@@@@@@@",
"@ +OOOOO++####+++ @@@@@@@@@@@@@@@@ ### @@@@@@@@@@@",
"@ ++OO++++####++ @@@@@@@@@@@@@@ @ #### @@@@@@@@@@@",
"@@ ++++++++++++ @@@@@@@@@@@@@@@@  ##  @@@@@@@@@@@@",
"@@@  ++++++++  @@@@@@@@@@@@@@@@@@   @@@@@@@@@@@@@@",
"@@@@@        @@@@@@@@@@@@@@@@@@@@@@@@@@@@@@@@@@@@@"
};
