/* XPM */
static char *XmFontSelector[]={
"32 32 12 1",
"# c #000000",
"e c #0b0a07",
"h c #17140f",
"i c #1d1913",
"j c #bb8d51",
"b c #ccaf88",
"g c #cd853f",
". c #d2b48c",
"c c #fcf7ca",
"f c #fffacd",
"a c #ffffc0",
"d c #ffffff",
"...############..#####..#####...",
"...#..........ab.#...a..#...a...",
"...#..........abb#...a..#...a...",
"...#aaaaaaaaaaa..caaaa..aaaaa...",
"................................",
"................................",
"................................",
".#######################.######d",
".e.....................f.#gg#ggd",
".h.....................f.#gd.#gd",
".i.....................f.#d...#d",
".i.....................f.#d####d",
".i.####.###............f.#gggggd",
".i.....................f.#dddd#d",
".i.....................f.#djjj#d",
".i.....................f.#djjj#d",
".i.....................f.#djjj#d",
".i.#..######...........f.#djjj#d",
".i.....................f.#djjj#d",
".i.....................f.#djjj#d",
".i.....................f.#djjj#d",
".i.....................f.#djjj#d",
".i.#####.##............f.#djjj#d",
".i.....................f.#djjj#d",
".i.....................f.######d",
".i.....................f.#gggggd",
".i.....................f.#gggggd",
".i.....................f.#dddd#d",
".i.....................f.#d...#d",
".#.....................f.#gd.#gd",
".fffffffffffffffffffffff.#gg#ggd",
".fffffffffffffffffffffff.#dddddd"};
