/* XPM */
static char *magick[] = {
/* columns rows colors chars-per-pixel */
"32 32 4 1",
"  c Gray0",
". c #d2b48c",
"X c SkyBlue",
"o c Gray100",
/* pixels */
"ooooooooooooooooooooooooooooo XX",
"o...........................  XX",
"o.......... . .. ..... .....  XX",
"o............ .. .. .. .....  XX",
"o.......... .    . o . .  ..  XX",
"o............ .. .   . . o .  XX",
"o.......... . .. . ... . o .  XX",
"o............ .. .   . .  ..  XX",
"o.......... ............ ...  XX",
"o          oooooooooooooooooooo ",
"           ooooooooooooooooooo  ",
"XXXXXXXXXXXoo .. .............  ",
"XXXXXXXXXXXoo    .. ..  .. . .  ",
"XXXXXXXXXXXoo .. . o . . . . .  ",
"XXXXXXXXXXXoo .. .   . . . . .  ",
"XXXXXXXXXXXoo .. . ... . . . .  ",
"XXXXXXXXXXXoo .. .   . . ..  .  ",
"XXXXXXXXXXXoo.................  ",
"XXXXXXXXXXXoo                   ",
"XXXXXXXXXXXo..................  ",
"XXXXXXXXXXXo..................  ",
"XXXXXXXXXXXo..................  ",
"XXXXXXXXXXXo..................  ",
"XXXXXXXXXXXo..................  ",
"XXXXXXXXXXXo                    ",
"XXXXXXXXXXX                     ",
"XXXXXXXXXXXXXXXXXXXXXXXXXXXXXXXX",
"XXXXXXXXXXXXXXXXXXXXXXXXXXXXXXXX",
"XXXXXXXXXXXXXXXXXXXXXXXXXXXXXXXX",
"XXXXXXXXXXXXXXXXXXXXXXXXXXXXXXXX",
"XXXXXXXXXXXXXXXXXXXXXXXXXXXXXXXX",
"XXXXXXXXXXXXXXXXXXXXXXXXXXXXXXXX"
};
