/* XPM */
static char *magick[] = {
/* columns rows colors chars-per-pixel */
"80 112 2 1",
"  c Gray0",
". c Gray100",
/* pixels */
".................   ........................................   .................",
"................ ... ...................................... ... ................",
"................ ... ...................................... ... ................",
"................ ... ...................................... ... ................",
".......                                                                 ........",
".......                                                                 ........",
".......                                                                 ........",
".......                                                                 ........",
".......                                                                 ........",
".......                                                                 ........",
".......                                                                 ........",
".......                                                                 ........",
".......                                                                 ........",
"................    .. .................................. ..    ................",
"................    .. .................................. ..    ................",
"................    .. .................................. ..    ................",
"................    .. .................................. ..    ................",
"................    .. .................................. ..    ................",
"................    .. .................................. ..    ................",
"................    .. .................................. ..    ................",
"................    .. .................................. ..    ................",
"................    .. .................................. ..    ................",
"................    .. .................................. ..    ................",
"................    .. .................................. ..    ................",
"................    .. .................................. ..    ................",
"................    .. .................................. ..    ................",
"................    .. .................................. ..    ................",
"................    .. .................................. ..    ................",
"................    .. .................................. ..    ................",
"................    .. .................................. ..    ................",
"................    .. .................................. ..    ................",
"................    .. .................................. ..    ................",
"................    .. .................................. ..    ................",
"................    .. .................................. ..    ................",
"................    ... ................................ ...    ................",
"................    ... ................................ ...    ................",
"................    ... ................................ ...    ................",
"................    .... .............................. ....    ................",
"................    .... .............................. ....    ................",
"................    ..... ............................ .....    ................",
"................    ...... .......................... ......    ................",
"................    ....... ........................ .......    ................",
"................    ........ ...................... ........    ................",
"................    ......... .................... .........    ................",
"................    .......... .................. ..........    ................",
"................    ........... ................ ...........    ................",
"................    ............ .............. ............    ................",
"................    ............. ............ .............    ................",
"................    .............. .......... ..............    ................",
"................    ............... ........ ...............    ................",
"................    ................ ...... ................    ................",
"................    ................ ...... ................    ................",
"................    ................. .... .................    ................",
"................    ................. .... .................    ................",
"................    ................. .... .................    ................",
"................    ................. .... .................    ................",
"................    ................. .... .................    ................",
"................    ................. .... .................    ................",
"................    ................. .... .................    ................",
"................    ................. .... .................    ................",
"................    ................ ...... ................    ................",
"................    ................ ...... ................    ................",
"................    ............... ........ ...............    ................",
"................    .............. .......... ..............    ................",
"................    ............. ............ .............    ................",
"................    ............ .............. ............    ................",
"................    ........... ................ ...........    ................",
"................    .......... .................. ..........    ................",
"................    ......... .................... .........    ................",
"................    ........ ...................... ........    ................",
"................    ....... ........................ .......    ................",
"................    ...... .......................... ......    ................",
"................    ..... ............................ .....    ................",
"................    .... .............................. ....    ................",
"................    .... .............................. ....    ................",
"................    ... ................................ ...    ................",
"................    ... ................................ ...    ................",
"................    ... ................................ ...    ................",
"................    .. .................................. ..    ................",
"................    .. .................................. ..    ................",
"................    .. .................................. ..    ................",
"................    .. .................................. ..    ................",
"................    .. .................................. ..    ................",
"................    .. .................................. ..    ................",
"................    .. .................................. ..    ................",
"................    .. .................................. ..    ................",
"................    .. .................................. ..    ................",
"................    .. .................................. ..    ................",
"................    .. .................................. ..    ................",
"................    .. .................................. ..    ................",
"................    .. .................................. ..    ................",
"................    .. .................................. ..    ................",
"................    .. .................................. ..    ................",
"................    .. .................................. ..    ................",
"................    .. .................................. ..    ................",
"................    .. .................................. ..    ................",
"................    .. .................................. ..    ................",
"................    .. .................................. ..    ................",
"................    .. .................................. ..    ................",
".......                                                                  .......",
".......                                                                  .......",
".......                                                                  .......",
".......                                                                  .......",
".......                                                                  .......",
".......                                                                  .......",
".......                                                                  .......",
".......                                                                  .......",
".......                                                                  .......",
"................ ... ...................................... ... ................",
"................ ... ...................................... ... ................",
"................ ... ...................................... ... ................",
".................   ........................................   ................."
};
