/* XPM */
static char * Html_bm_xpm[] = {
"24 24 7 1",
" 	c #A5A52A2A2A2A",
".	c #D2D2B4B48C8C",
"X	c #000000000000",
"o	c #FFFFFFFFFFFF",
"O	c #FFFFFAFACDCD",
"+	c #00000000FFFF",
"@	c #FFFF00000000",
"                        ",
" .X.................... ",
" .Xo...XXXXXXXXXXXXXX.. ",
" .XXo..XOOOOOOOOOOOOX.. ",
" .X Xo.XOOOO+++++++OX.. ",
" .XXOXoXOOOO+++++++OX.. ",
" .XOXOXoOOOOOOOOOOOOX.. ",
" .XOXOOXoO+++++++++OX.. ",
" .XOXOOOXO+++++++++OX.. ",
" .XOOXOOXOOOOOOOOOOOX.. ",
" ..XOXOOXO+++++++++OX.. ",
" ..XO XOXO+++++++++OX.. ",
" ..XOO OXOOOOOOOOOOOX.. ",
" ...XX XoO+++++++++OX.. ",
" ..... XoO+++++++++OX.. ",
" ..... XoOOOOOOOOOOOX.. ",
" ...XXXXXXoO+++++++OX.. ",
" ....X@@XoOO+++++++OX.. ",
" ....X@@XoOOOOOOOOOOX.. ",
" ...Xo@@@XoOOOO++++OX.. ",
" ..Xo@@@@@XOOOOOOOOOX.. ",
" ..Xo@@@@@XXXXXXXXXXX.. ",
" ..XoXXXX@X............ ",
" ..XXXXXXXX             "};
