/* XPM */
static char * iconbox_bm_xpm[] = {
"32 32 133 2",
"  	c #FFFFFF",
". 	c #E8E8E7",
"+ 	c #C7C6C5",
"@ 	c #C5C4C3",
"# 	c #C2C1C1",
"$ 	c #BFBFBF",
"% 	c #C0C0C0",
"& 	c #C3C2C2",
"* 	c #C9C7C4",
"= 	c #D4CCC5",
"- 	c #B8B4AE",
"; 	c #564C3D",
"> 	c #54483B",
", 	c #2D2720",
"' 	c #110E0D",
") 	c #0C0B0B",
"! 	c #171512",
"~ 	c #3C342B",
"{ 	c #54493B",
"] 	c #594937",
"^ 	c #5E4125",
"/ 	c #DCD1C3",
"( 	c #B49875",
"_ 	c #A98D6D",
": 	c #553B2D",
"< 	c #1F0705",
"[ 	c #160000",
"} 	c #2C1410",
"| 	c #765B47",
"1 	c #AE9272",
"2 	c #A28563",
"3 	c #614122",
"4 	c #CEC5B9",
"5 	c #8F785D",
"6 	c #805D48",
"7 	c #582019",
"8 	c #450403",
"9 	c #430202",
"0 	c #430101",
"a 	c #4C0C09",
"b 	c #6A372B",
"c 	c #81654F",
"d 	c #7E664B",
"e 	c #5C3D20",
"f 	c #C8BFB5",
"g 	c #625240",
"h 	c #4C332B",
"i 	c #4E201E",
"j 	c #4E1818",
"k 	c #5A2323",
"l 	c #5F2828",
"m 	c #551E1E",
"n 	c #531C1B",
"o 	c #522624",
"p 	c #4A372D",
"q 	c #5D4B36",
"r 	c #593A1E",
"s 	c #867561",
"t 	c #4E4641",
"u 	c #392F2F",
"v 	c #312525",
"w 	c #493D3D",
"x 	c #4E4242",
"y 	c #413535",
"z 	c #352929",
"A 	c #362D2C",
"B 	c #4F473E",
"C 	c #7A644A",
"D 	c #5D3E20",
"E 	c #E3D7C7",
"F 	c #9B8971",
"G 	c #66615B",
"H 	c #626160",
"I 	c #656565",
"J 	c #797979",
"K 	c #696969",
"L 	c #6A6A6A",
"M 	c #5F5F5F",
"N 	c #4B4A49",
"O 	c #6E675B",
"P 	c #927A5C",
"Q 	c #604022",
"R 	c #A38C6E",
"S 	c #887B6B",
"T 	c #96918C",
"U 	c #B9B9B8",
"V 	c #ABABAA",
"W 	c #868685",
"X 	c #AFAFAF",
"Y 	c #B5B4B2",
"Z 	c #8E877D",
"` 	c #9E8E77",
" .	c #A68A69",
"..	c #624324",
"+.	c #E2D6C7",
"@.	c #BFA17D",
"#.	c #B39A79",
"$.	c #968A7A",
"%.	c #ACAAA6",
"&.	c #909072",
"*.	c #79794D",
"=.	c #A0A08F",
"-.	c #B5B0A8",
";.	c #B2A18A",
">.	c #C3A885",
",.	c #B0926D",
"'.	c #634324",
").	c #DDD1C1",
"!.	c #B69770",
"~.	c #BB9C74",
"{.	c #A48C6F",
"].	c #908274",
"^.	c #9C9458",
"/.	c #A29B49",
"(.	c #837A55",
"_.	c #92826E",
":.	c #AF9574",
"<.	c #BC9D76",
"[.	c #A78761",
"}.	c #6C4825",
"|.	c #D3C5B5",
"1.	c #98764F",
"2.	c #9C7850",
"3.	c #9B7951",
"4.	c #896B4A",
"5.	c #9E866A",
"6.	c #A58F74",
"7.	c #7C6349",
"8.	c #866846",
"9.	c #9A7851",
"0.	c #9D7A52",
"a.	c #946F46",
"b.	c #7F5329",
"                                                                ",
"                                                                ",
"                                                                ",
"    . + @ # $ $ $ $ % & @ * =     . + @ # $ $ $ $ % & @ * =     ",
"    - ; > , ' ) ) ) ! ~ { ] ^     - ; > , ' ) ) ) ! ~ { ] ^     ",
"    / ( _ : < [ [ [ } | 1 2 3     / ( _ : < [ [ [ } | 1 2 3     ",
"    4 5 6 7 8 9 9 0 a b c d e     4 5 6 7 8 9 9 0 a b c d e     ",
"    f g h i j k l m n o p q r     f g h i j k l m n o p q r     ",
"    / s t u v w x y z A B C D     / s t u v w x y z A B C D     ",
"    E F G H I J K L M N O P Q     E F G H I J K L M N O P Q     ",
"    E R S T U V W X Y Z `  ...    E R S T U V W X Y Z `  ...    ",
"    +.@.#.$.%.&.*.=.-.;.>.,.'.    +.@.#.$.%.&.*.=.-.;.>.,.'.    ",
"    ).!.~.{.].^./.(._.:.<.[.}.    ).!.~.{.].^./.(._.:.<.[.}.    ",
"    |.1.2.3.4.5.6.7.8.9.0.a.b.    |.1.2.3.4.5.6.7.8.9.0.a.b.    ",
"                                                                ",
"                                                                ",
"    . + @ # $ $ $ $ % & @ * =     . + @ # $ $ $ $ % & @ * =     ",
"    - ; > , ' ) ) ) ! ~ { ] ^     - ; > , ' ) ) ) ! ~ { ] ^     ",
"    / ( _ : < [ [ [ } | 1 2 3     / ( _ : < [ [ [ } | 1 2 3     ",
"    4 5 6 7 8 9 9 0 a b c d e     4 5 6 7 8 9 9 0 a b c d e     ",
"    f g h i j k l m n o p q r     f g h i j k l m n o p q r     ",
"    / s t u v w x y z A B C D     / s t u v w x y z A B C D     ",
"    E F G H I J K L M N O P Q     E F G H I J K L M N O P Q     ",
"    E R S T U V W X Y Z `  ...    E R S T U V W X Y Z `  ...    ",
"    +.@.#.$.%.&.*.=.-.;.>.,.'.    +.@.#.$.%.&.*.=.-.;.>.,.'.    ",
"    ).!.~.{.].^./.(._.:.<.[.}.    ).!.~.{.].^./.(._.:.<.[.}.    ",
"    |.1.2.3.4.5.6.7.8.9.0.a.b.    |.1.2.3.4.5.6.7.8.9.0.a.b.    ",
"                                                                ",
"                                                                ",
"                                                                ",
"                                                                ",
"                                                                "};
