/* XPM */
static char * iconbutton_xpm[] = {
"32 32 12 1",
" 	c None",
".	c #000000",
"+	c #D2B48C",
"@	c #FFFACD",
"#	c #CD853F",
"$	c #A58D6D",
"%	c #4A3E2E",
"&	c #070400",
"*	c #BBA07C",
"=	c #8E795D",
"-	c #61523E",
";	c #78664D",
"................................",
".++++++++++++++++++++++++++++++.",
".++++++++++++++++++++++++++++++.",
".++++++++++++++++++++++++++++++.",
".++++++++++++++++++++++++++++++.",
".++++++++++++++++++++++++++++++.",
".++++++++++++++++++++++++++++++.",
".+++@@@@@@@@@@@@@@@@@@@@@@@.+++.",
".+++@++++++++++++++++++++++.+++.",
".+++@+++++++++++++++++++++#.+++.",
".+++@+++++++++++++++++++++#.+++.",
".+++@+++++++++++++++++++++#.+++.",
".+++@+++++++++++++++++++++#.+++.",
".+++@+$%&&++++++++++++++++#.+++.",
".+++@+++&++*&&=+=&-+$-&=++#.+++.",
".+++@+++&++&**&$;+*-+&+&++#.+++.",
".+++@+++&++&++*==++&+&+&++#.+++.",
".+++@+$&&&+=&&=+-&%*=&+&$+#.+++.",
".+++@+++++++++++++++++++++#.+++.",
".+++@+++++++++++++++++++++#.+++.",
".+++@+++++++++++++++++++++#.+++.",
".+++@+++++++++++++++++++++#.+++.",
".+++@+#####################.+++.",
".+++@.......................+++.",
".++++++++++++++++++++++++++++++.",
".++++++++++++++++++++++++++++++.",
".++++++++++++++++++++++++++++++.",
".++++++++++++++++++++++++++++++.",
".++++++++++++++++++++++++++++++.",
".++++++++++++++++++++++++++++++.",
".++++++++++++++++++++++++++++++.",
"................................"};
