/* XPM */
static char *magick[] = {
/* columns rows colors chars-per-pixel */
"32 32 9 1",
"  c Gray0",
". c #d2b48c",
"X c peru",
"o c #a0522d",
"O c Red",
"+ c Gray100",
"@ c Yellow",
"# c LemonChiffon",
"$ c Blue",
/* pixels */
"...  @@@@@@@@@@@@@@@@@@ ####.#.o",
"...  @@@@@@@@@@@@@@@@@@ ###.#.oX",
"...  @@@@@@@@@@@@@@@@@ ###.#.oX ",
"...                  . ##.#.oX o",
"...                 . ##.#.oX o ",
"...  ++++++++++++++++ #.#.oX o  ",
"...  +++++++++++++++  .#.oX o  .",
"     ++++++++++++++ # #.oX o  ..",
"     O++++++++++++ ### oX o  ...",
"...  OO++++++++++ # ##o  o  . ..",
"...  OOO+++++++++ ## o.o   +  ..",
"...  OOOO+++++++ ###. o.o ++  ..",
"...  OOOOO+++++ ###.#  o +++  ..",
"...  OOOOO++++ ###.#o#  ++++  ..",
"...  OOOOOO+++ ##.#o#o# ++++  ..",
"...  OOOOOO++ O#.#o#o#o ++++  ..",
"...  OOOOOOO+ OO#o#o#o +++++  ..",
"...  OOOO OO OOOO#o#o# +++++  ..",
"...  OOO O  OOOOOO#o# ++++++  ..",
"...  OOO OOOOOOOOOOO +++++++  ..",
"...  OOOO OOOOOOOO  ++++++++  ..",
"...  OOOOO        OOOOOO++++  ..",
"...  OOOOOOOOOOOOOOOOOOOOO++  ..",
"...  OOOOOOOOOOOOOOOOOOOOOOO  ..",
"                                ",
"                                ",
"...  ...............  $$$$$$$$$$",
"...  ...............  $$$$$$$$$$",
"...  ...............  $$$$$$$$$$",
"...  ...............  $$$$$$$$$$",
"...  ...............  $$$$$$$$$$",
"...  ...............  $$$$$$$$$$"
};
