/* XPM */
static char * multilist_xpm[] = {
"32 32 329 2",
"  	c None",
". 	c #000000",
"+ 	c #7B6952",
"@ 	c #C8AC86",
"# 	c #4B4131",
"$ 	c #060604",
"% 	c #040404",
"& 	c #C4C4C4",
"* 	c #FFFFFF",
"= 	c #D0B28A",
"- 	c #D2B48C",
"; 	c #EBDECD",
"> 	c #E2CFB5",
", 	c #D3B790",
"' 	c #8D5D2D",
") 	c #C7813D",
"! 	c #DAA572",
"~ 	c #77624B",
"{ 	c #744F2B",
"] 	c #B97838",
"^ 	c #CD8742",
"/ 	c #F2E2D2",
"( 	c #D1B38B",
"_ 	c #8E5E2F",
": 	c #E0C0A1",
"< 	c #E1CBAF",
"[ 	c #D4B893",
"} 	c #AC9473",
"| 	c #4B3924",
"1 	c #A86E36",
"2 	c #CFB18A",
"3 	c #B29977",
"4 	c #CAAD86",
"5 	c #BAA07C",
"6 	c #CFB28A",
"7 	c #AEADAB",
"8 	c #C2B099",
"9 	c #B09674",
"0 	c #2D271F",
"a 	c #C5C4C4",
"b 	c #C3A782",
"c 	c #191510",
"d 	c #CBAE87",
"e 	c #B79D7A",
"f 	c #8C785D",
"g 	c #CDAF88",
"h 	c #D0B28B",
"i 	c #CEB089",
"j 	c #9D8668",
"k 	c #988265",
"l 	c #C7AB85",
"m 	c #9C8267",
"n 	c #8D6742",
"o 	c #714A24",
"p 	c #6F4821",
"q 	c #714B25",
"r 	c #DED4CC",
"s 	c #AC9372",
"t 	c #1C1712",
"u 	c #43392C",
"v 	c #C6AA84",
"w 	c #917C61",
"x 	c #1F1A14",
"y 	c #5B4E3D",
"z 	c #786750",
"A 	c #15120E",
"B 	c #0A0906",
"C 	c #14110D",
"D 	c #77654F",
"E 	c #C8AB85",
"F 	c #8D5E2E",
"G 	c #C7823E",
"H 	c #CD8540",
"I 	c #CE8843",
"J 	c #F2E2D3",
"K 	c #A18A6B",
"L 	c #40372A",
"M 	c #8B775C",
"N 	c #4F4334",
"O 	c #C2A681",
"P 	c #998366",
"Q 	c #857258",
"R 	c #6E5E49",
"S 	c #6C5C48",
"T 	c #C6A984",
"U 	c #987756",
"V 	c #D6A577",
"W 	c #DCAA7A",
"X 	c #D9A87A",
"Y 	c #F5EADF",
"Z 	c #B49A78",
"` 	c #7C6A52",
" .	c #4A4031",
"..	c #75644E",
"+.	c #AEAEAC",
"@.	c #E2D3C0",
"#.	c #E0CBB0",
"$.	c #DFCAAE",
"%.	c #706C66",
"&.	c #D5D5D5",
"*.	c #181510",
"=.	c #CDB089",
"-.	c #9E8769",
";.	c #3F3529",
">.	c #BFA47F",
",.	c #C4A882",
"'.	c #CCAF88",
").	c #806E55",
"!.	c #635441",
"~.	c #6C5C47",
"{.	c #C6A983",
"].	c #C9AD86",
"^.	c #EADDCC",
"/.	c #ABAAA9",
"(.	c #D4C0A5",
"_.	c #CEB28B",
":.	c #322B23",
"<.	c #16140F",
"[.	c #72614C",
"}.	c #74644D",
"|.	c #5B4E3C",
"1.	c #29231B",
"2.	c #6A5B47",
"3.	c #6A5B46",
"4.	c #74634D",
"5.	c #917D60",
"6.	c #9B8567",
"7.	c #72614B",
"8.	c #6C5D48",
"9.	c #A0896A",
"0.	c #E6D9C9",
"a.	c #63605D",
"b.	c #786B59",
"c.	c #75634C",
"d.	c #74624A",
"e.	c #241E16",
"f.	c #C6C5C5",
"g.	c #B19876",
"h.	c #B09776",
"i.	c #BA9F7C",
"j.	c #C5A983",
"k.	c #BDA27E",
"l.	c #C1A581",
"m.	c #784F26",
"n.	c #A76C33",
"o.	c #AC7034",
"p.	c #AE7238",
"q.	c #EBDED0",
"r.	c #8E6032",
"s.	c #C88543",
"t.	c #CE8945",
"u.	c #C88442",
"v.	c #F1E1D2",
"w.	c #A2907D",
"x.	c #E3C7AD",
"y.	c #E9CCB0",
"z.	c #72573D",
"A.	c #D6D0C9",
"B.	c #D1B38C",
"C.	c #D3B58E",
"D.	c #EBDFCE",
"E.	c #ACA8A3",
"F.	c #D9C3A7",
"G.	c #D4B792",
"H.	c #D2B48D",
"I.	c #CDB08A",
"J.	c #C9AC85",
"K.	c #3B3225",
"L.	c #C7C6C5",
"M.	c #0B0907",
"N.	c #E0CDB4",
"O.	c #E1CEB4",
"P.	c #F0E7DA",
"Q.	c #D3B690",
"R.	c #DAB189",
"S.	c #E3CAAD",
"T.	c #CDB28F",
"U.	c #957E61",
"V.	c #604427",
"W.	c #B27539",
"X.	c #9F896A",
"Y.	c #D8C1A3",
"Z.	c #D8C2A3",
"`.	c #D3B894",
" +	c #CFB28B",
".+	c #4C4132",
"++	c #906337",
"@+	c #CA894A",
"#+	c #D7A06A",
"$+	c #6B5843",
"%+	c #8B633B",
"&+	c #C48548",
"*+	c #D18F4F",
"=+	c #F3E4D5",
"-+	c #A48D6D",
";+	c #AD9270",
">+	c #AE9371",
",+	c #AF9878",
"'+	c #AF9777",
")+	c #AD9370",
"!+	c #AE9472",
"~+	c #B09879",
"{+	c #AB9374",
"]+	c #A9906F",
"^+	c #AE9574",
"/+	c #AF9778",
"(+	c #AD9371",
"_+	c #AF9675",
":+	c #5B4F3E",
"<+	c #B4AEA5",
"[+	c #EFE8E0",
"}+	c #F4EEE5",
"|+	c #F4EEE6",
"1+	c #FCFAF9",
"2+	c #724A22",
"3+	c #734B24",
"4+	c #79593B",
"5+	c #898682",
"6+	c #7A736C",
"7+	c #734C26",
"8+	c #734A23",
"9+	c #7B5C40",
"0+	c #8D8B87",
"a+	c #8C8A86",
"b+	c #8C8986",
"c+	c #565553",
"d+	c #362615",
"e+	c #6D4621",
"f+	c #816C58",
"g+	c #8C8985",
"h+	c #816D59",
"i+	c #76512E",
"j+	c #857566",
"k+	c #B8A388",
"l+	c #D2B58E",
"m+	c #F4EDE4",
"n+	c #C57F3C",
"o+	c #D29457",
"p+	c #F2E6D8",
"q+	c #BCA485",
"r+	c #392C20",
"s+	c #C5803D",
"t+	c #CD853F",
"u+	c #D9A471",
"v+	c #F0E4D6",
"w+	c #D7BD9A",
"x+	c #D5B995",
"y+	c #84725C",
"z+	c #5E3F21",
"A+	c #C17D3B",
"B+	c #E5C09C",
"C+	c #E6D4BE",
"D+	c #E9D9C5",
"E+	c #DFB48A",
"F+	c #CC8A4A",
"G+	c #E9CEB4",
"H+	c #E0CAAD",
"I+	c #D3B68F",
"J+	c #926031",
"K+	c #DED2C4",
"L+	c #D1B48C",
"M+	c #B59B78",
"N+	c #281B0E",
"O+	c #EEE2D3",
"P+	c #D3B791",
"Q+	c #816F56",
"R+	c #E4D1B9",
"S+	c #D4B791",
"T+	c #D9C7AF",
"U+	c #AF8D6A",
"V+	c #D7C5B4",
"W+	c #DEC8AD",
"X+	c #8D5C2C",
"Y+	c #5A4834",
"Z+	c #BCA17C",
"`+	c #B39977",
" @	c #D2B690",
".@	c #816E56",
"+@	c #E4BF9B",
"@@	c #E3CFB8",
"#@	c #C8AD89",
"$@	c #816C51",
"%@	c #7C5631",
"&@	c #D2BFAD",
"*@	c #CD8947",
"=@	c #C38344",
"-@	c #362B1F",
";@	c #9F8A6E",
">@	c #32251A",
",@	c #C78546",
"'@	c #CF8A48",
")@	c #DBA978",
"!@	c #E8DDD1",
"~@	c #BEA787",
"{@	c #BBA281",
"]@	c #786954",
"^@	c #64482B",
"/@	c #C48344",
"(@	c #D8B593",
"_@	c #CDBCA7",
":@	c #6B5C4A",
"<@	c #8C6036",
"[@	c #C78545",
"}@	c #ECD2B8",
"|@	c #E1CCB1",
"1@	c #F5EDE5",
"2@	c #E4C09E",
"3@	c #E6C2A0",
"4@	c #DBBC9D",
"5@	c #838282",
"6@	c #928C86",
"7@	c #E2C09E",
"8@	c #ECD2B9",
"9@	c #D8D7D5",
"0@	c #878787",
"a@	c #818181",
"b@	c #AA9C8D",
"c@	c #E0BF9E",
"d@	c #B4A290",
"e@	c #868482",
"f@	c #B7A491",
"g@	c #E1BF9E",
"h@	c #F5E7DA",
"i@	c #EFE4D6",
"j@	c #E8DBC7",
"k@	c #E7D9C5",
"l@	c #E8DAC6",
"m@	c #F9F5F1",
"n@	c #FDFDFD",
". . . . . . . . . . . . . . . . . . . . + @ # $ . . . . . % & * ",
". = - - - - - - - - - - - - - - - - - ; > , # ' ) ! ~ { ] ^ / * ",
". = ( ( ( - - ( ( ( - - - - - - - - - ; > , # _ : < [ } | 1 / * ",
". = 2 3 ( - - 4 5 6 - - - - ( ( ( - - ; > , # 7 8 3 9 9 9 0 a * ",
". = b c d - ( e f g h i 2 = j k l = ( ; > , # m n o p p p q r * ",
". = b c d - s t u v w x y z A B C D E ; > , # F G H H H H I J * ",
". = b c d - - K L M N O P Q R S T - - ; > , # U V W W W W X Y * ",
". = b c d - - K L Z `  .z T ..S T ( ( ; > , # +.@.#.$.$.$.%.&.* ",
". = b *.E =.=.-.;.>.,.'.).!.~.S O {.].^.> , # /.(._.=.=.=.:.& * ",
". = ,.<.[.}.}.|.1.2.3.4.R 5.6.7.4.8.9.0.> , # a.b.c.d.d.d.e.f.* ",
". = 6 g.h.h.h.h.h.i.j.3 k.6 - O 3 l.= ; > , # m.n.o.o.o.o.p.q.* ",
". = - - - - - - - - - - - - - - - - - ; > , # r.s.t.t.t.t.u.v.* ",
". = - - - - - - - - - - - - - - - - - ; > , # w.x.y.y.y.y.z.A.* ",
". B.C.C.C.C.C.C.C.C.C.C.C.C.C.C.C.C.C.D.> , # E.F.G.H.I.J.K.L.* ",
"M.N.O.O.O.O.O.O.O.O.O.O.O.O.O.O.O.O.O.P.O.Q.# ' R.S.T.U.V.W./ * ",
"X.Y.Z.Z.Z.Z.Z.Z.Z.Z.Z.Z.Z.Z.Z.Z.Z.Z.Z.Z.`. +.+++@+#+$+%+&+*+=+* ",
"-+;+;+>+,+'+)+;+!+,+~+~+{+]+;+;+^+/+^+(+;+_+:+<+[+}+}+}+}+|+1+* ",
". 2+3+4+5+6+7+8+9+0+a+b+c+d+e+8+f+g+h+i+3+j+k+ +- - - - - l+m+* ",
". n+o+p+q+r+s+t+u+v+w+x+y+z+A+t+B+C+D+E+F+G+H+I+- - - - - l+m+* ",
". J+K+L+M+N+n+t+u+O+P+- Q+z+A+t+B+R+S+T+U+V+W+I+- - - - - l+m+* ",
". X+Y+Z+`+N+n+t+u+O+ @h .@z+A+t++@@@#@$@%@&@W+I+- - - - - l+m+* ",
". *@=@-@;@>@,@'@)@!@~@{@]@^@/@'@(@_@:@<@[@}@|@x+S+S+S+S+S+[ 1@* ",
". 2@3@4@5@6@7@3@8@9@0@a@a@b@c@3@d@e@f@g@3@h@i@j@k@k@k@k@k@l@m@* ",
". n@* * * * * * * * * * * * * * * * * * * * * * * * * * * * * * ",
"- - - - - - - - - - - - - - - - - - - - - - - - - - - * - - - - ",
"- - - * * * * * * * - . . . . . . . . . . . . . . . . . - - - - ",
"- - - * - - - - - . - . - - - - - - - - - - - - - - - * - - - - ",
"- - - * - - - - - . - . - - - - - - - - - - - - - - - * - - - - ",
"- - - * . . . . . . - . * * * * * * * * * * * * * * * * - - - - ",
"- - - - - - - - - - - - - - - - - - - - - - - - - - - - - - - - ",
"- - - - - - - - - - - - - - - - - - - - - - - - - - - - - - - - ",
"- - - - - - - - - - - - - - - - - - - - - - - - - - - - - - - - "};
