/* XPM */
static char *magick[] = {
/* columns rows colors chars-per-pixel */
"32 32 4 1",
"  c Gray0",
". c #d2b48c",
"X c peru",
"o c LemonChiffon",
/* pixels */
"................................",
"................................",
"................................",
"................................",
"..                           o..",
".. XXXXXXXXXXXXXXXXXXXXXXXXXoo..",
".. X........................oo..",
".. X........................oo..",
".. X.............     ......oo..",
".. X............. ... ......oo..",
".. X. ... ....... ... ......oo..",
".. X. ... . ... . ... ......oo..",
".. X. . . .. . .. ... ......oo..",
".. X. . . ... ... ... ......oo..",
".. X. . . ... ... ... ......oo..",
".. X. . . .. . .. ... ......oo..",
".. X.. . .. ... . ... ......oo..",
".. X............. ... ......oo..",
".. X.............     ......oo..",
".. X........................oo..",
".. X........................oo..",
".. X........................oo..",
".. X........................oo..",
".. X........................oo..",
".. X........................oo..",
".. X........................oo..",
".. X........................oo..",
".. Xoooooooooooooooooooooooooo..",
".. ooooooooooooooooooooooooooo..",
"................................",
"................................",
"................................"
};
