/* XPM */
static char *magick[] = {
/* columns rows colors chars-per-pixel */
"50 30 6 1",
"  c Gray0",
". c #ffd700",
"X c Gray80",
"o c Gray50",
"O c Gray60",
"+ c seashell",
/* pixels */
"++++++++++++++++++++++++++++++++++++++++++++++++++",
"++++++++++++++++++++                     +++++++++",
"+++++++++++++++++++ OOOOOOOOOOOOOOOOOOO  +++++++++",
"++++++++++++++++++                     O +++++++++",
"++++++++++++++++++ XXXXXXXXXXXXXXXXXXX O +++++++++",
"++++++++++++++++++ XXXXXXXXXXXXXXXXXXX O +++++++++",
"++++++                              XX O +++++++++",
"+++++  OOOOOOOOOOOOOO ooo o o o o o XX O +++++++++",
"+++++  OOOOOOOOOOOOOO ooo  o o o o  XX O +++++++++",
"+++++  OOOOOOOOOOOOOO ooo o o o o o XX O +++++++++",
"+++++  OOOOOOOOOOOOOO ooo  o o o o  XX O +++++++++",
"+++++  OOOOOOOOOOOOOO ooo o o o o o XX O +++++++++",
"+++++  OOOOOOOOOOOOOO ooo  o o o o  XX O +++++++++",
"+++++  OOOOOOOOOOOOOO ooo o o o o o XX O +++++++++",
"+++++  OOOOOOOOOOOOOO ooo  o o o o  XX O +++++++++",
"++ ++  OOOOOOOOOOOOOO ooo o o o o o XX O +++ +++++",
"++     OOOOOOOOOOOOOO ooo  o o o o  XX O +++     +",
"++ ... OOOOOOOOOOOOOO ooo o o o o o XX O +++ ... +",
"+++    OOO OOOOOOOOOO ooo  o o o o  XX O ++++   ++",
"+++ .  OOO     OOOOOO ooo           XX O ++++ . ++",
"++ ... OOO ... OOOOOO oo o ... oooo XX O  ++ ... +",
"+ ..... OOO   OOOOOOO o ooo   ooooo XX O      ... ",
"+ .....     .               .       XX O  ... ... ",
"+ .....    ...       XXXXX ... XXXXXXX O +   .... ",
"+ ..... + ..... ++ XXXXXX ..... XXXXXX   + . .... ",
"++     ++ ..... ++        .....        ++ ...    +",
"+++++++++ ..... ++++++  + ..... +  +++++ ..... +++",
"+++++++++ ..... +++++++++ ..... ++++++++ ..... +++",
"++++++++++     +++++++++++     +++++++++ ..... +++",
"++++++++++++++++++++++++++++++++++++++++ ..... +++"
};
