/* XPM */
static char *OFF[]={
"30 30 20 1",
"a c #000000",
"# c #a0a0a0",
". c #c3c3c3",
"r c #c6c6c6",
"q c #c9c9c9",
"p c #cdcdcd",
"o c #d0d0d0",
"n c #d4d4d4",
"m c #d7d7d7",
"k c #dbdbdb",
"b c #dcdcdc",
"j c #dfdfdf",
"i c #e2e2e2",
"h c #e6e6e6",
"f c #e9e9e9",
"e c #ededed",
"d c #f0f0f0",
"c c #f4f4f4",
"g c #f7f7f7",
"l c #f8fcf8",
"..........##########..........",
"..........##########..........",
"......####aaaaaaaaaaaa##......",
"......####aaaaaaaaaaaa##......",
"....##aaaa..........##bb##....",
"....##aaaa..........##bb##....",
"..##aa##....ccddeeffbbbbbbbb..",
"..##aa##....ccddeeffbbbbbbbb..",
"..##aa..ggccddeeffhhiijjbbbb..",
"..##aa..ggccddeeffhhiijjbbbb..",
"##aa....ccddeeffhhiijjkkbbbbll",
"##aa....ccddeeffhhiijjkkbbbbll",
"##aa..ccddeeffhhiijjkkmmnnbbll",
"##aa..ccddeeffhhiijjkkmmnnbbll",
"##aa..ddeeffhhiijjkkmmnnoobbll",
"##aa..ddeeffhhiijjkkmmnnoobbll",
"##aa..eeffhhiijjkkmmnnooppbbll",
"##aa..eeffhhiijjkkmmnnooppbbll",
"##aa..ffhhiijjkkmmnnooppbbbbll",
"##aa..ffhhiijjkkmmnnooppbbbbll",
"..##aa..iijjkkmmnnooppqqbbll..",
"..##aa..iijjkkmmnnooppqqbbll..",
"..##....jjkkmmnnooppqqrrbbll..",
"..##....jjkkmmnnooppqqrrbbll..",
"....##......nnooppqq....ll....",
"....##......nnooppqq....ll....",
"........llll........llll......",
"........llll........llll......",
"..........llllllllll..........",
"..........llllllllll.........."};
