/* XPM */
static char *ON[]={
"30 30 19 1",
"a c #000000",
"f c #616161",
"b c #676767",
"c c #6d6d6d",
"d c #737373",
"e c #797979",
"g c #808080",
"h c #868686",
"i c #8c8c8c",
"j c #929292",
"l c #989898",
"m c #9e9e9e",
"# c #a0a0a0",
"n c #a4a4a4",
"o c #ababab",
"p c #b1b1b1",
"q c #b7b7b7",
". c #c3c3c3",
"k c #f8fcf8",
"..........##########..........",
"..........##########..........",
"......####aaaaaaaaaaaa##......",
"......####aaaaaaaaaaaa##......",
"....##aaaa..........##..##....",
"....##aaaa..........##..##....",
"..##aa##....bbccddee..........",
"..##aa##....bbccddee..........",
"..##aa..ffbbccddeegghhii......",
"..##aa..ffbbccddeegghhii......",
"##aa....bbccddeegghhiijj....kk",
"##aa....bbccddeegghhiijj....kk",
"##aa..bbccddeegghhiijjllmm..kk",
"##aa..bbccddeegghhiijjllmm..kk",
"##aa..ccddeegghhiijjllmmnn..kk",
"##aa..ccddeegghhiijjllmmnn..kk",
"##aa..ddeegghhiijjllmmnnoo..kk",
"##aa..ddeegghhiijjllmmnnoo..kk",
"##aa..eegghhiijjllmmnnoopp..kk",
"##aa..eegghhiijjllmmnnoopp..kk",
"..##aa..hhiijjllmmnnoopp..kk..",
"..##aa..hhiijjllmmnnoopp..kk..",
"..##....iijjllmmnnooppqq..kk..",
"..##....iijjllmmnnooppqq..kk..",
"....##......mmnnoopp....kk....",
"....##......mmnnoopp....kk....",
"........kkkk........kkkk......",
"........kkkk........kkkk......",
"............kkkkkkkk..........",
"............kkkkkkkk.........."};
