/* XPM */
static char *magick[] = {
/* columns rows colors chars-per-pixel */
"50 24 10 1",
"  c Gray0",
". c Yellow",
"X c Green",
"o c Gray80",
"O c peru",
"+ c Blue",
"@ c #d2b48c",
"# c Gray60",
"$ c seashell",
"% c Red",
/* pixels */
"$$                                              $$",
"$$ $$$$$$$$$$$$$$$$$$ OO $$$$$$$$$$$$$$$$$$$$$$ $$",
"$$ $$$$$$$$       $$$$ OO $$$                $$ $$",
"$$ $$$$$$  @@@@@@@  $$$ OO $$ ++++++++++++++ $$ $$",
"$$ $$$$$ @@@@@@@@@@@ $$$ OO $                $$ $$",
"$$ $$$$ @@@@   @@@@@@ $$$ OO  oooooooooooooo $$ $$",
"$$ $$$$ @@@ $$$ @XXX@@ $$$ OO oo    oooooooo $$ $$",
"$$ $$$$$ @@ $$$ XXXXX@@ $$$ OO o@@@ oooooooo $$ $$",
"$$ $$$$$$ @ $$$ @XXXX@@ $$$$ OO @@@ oo     o $$ $$",
"$$ $$$$$$ @@   @@@@@@@@ $$$$$  O  @ oo @@@ o $$ $$",
"$$ $$$$  @@@@@@@@@@@@@@ $$$$$ o %%  oo @@@ o $$ $$",
"$$ $$$ @@@@@@@@@@@...O@ $$$$$ o %%  oo @@@ o $$ $$",
"$$ $$$ @@@@@@@@@@@....O $$$$$ oo    oo @@@ o $$ $$",
"$$ $$ @@@@@@@@@@@@...O@ $$$$$ oooooooo     o $$ $$",
"$$ $$ @@@@@@@@@@@@@..O@ $$$$$ oooooooooooooo $$ $$",
"$$ $$ @++++@@@@@%@@@@@@ $$$$$  o o o o o o o $$ $$",
"$$ $$ @@+++@@@%%%%@@@@@ $$$$$ oooooooooooooo $$ $$",
"$$ $$$ @+++++@@%%%%@@@ $$$$$$ o    oooo    o $$ $$",
"$$ $$$ @@++@@@@%%%%@@ $$$$$$$ o ## oooo ## o $$ $$",
"$$ $$$$ @@@@@@@@@@@@ $$$$$$$$ o    oooo    o $$ $$",
"$$ $$$$$  @@@@@@@@  $$$$$$$$$ oooooooooooooo $$ $$",
"$$ $$$$$$$        $$$$$$$$$$$                $$ $$",
"$$ $$$$$$$$$$$$$$$$$$$$$$$$$$$$$$$$$$$$$$$$$$$$ $$",
"$$                                              $$"
};
