/* XPM */
static char *magick[] = {
/* columns rows colors chars-per-pixel */
"32 32 4 1",
"  c Gray0",
". c #d2b48c",
"X c SkyBlue",
"o c LemonChiffon",
/* pixels */
"ooooooooooooooooo XXXXXXXXXXXXXX",
"o...............  XXXXXXXXXXXXXX",
"o...............  XXXXXXXXXXXXXX",
"o......  .......  XXXXXXXXXXXXXX",
"o..... .. ......  XXXXXXXXXXXXXX",
"o..... .. ......  XXXXXXXXXXXXXX",
"o.....    ......  XXXXXXXXXXXXXX",
"o..... .. ......  XXXXXXXXXXXXXX",
"o..... .. ......  XXXXXXXXXXXXXX",
"o...............  XXXXXXXXXXXXXX",
"o...............  XXXXXXXXXXXXXX",
"oooooooooooooooo  ooooooooooooo ",
"oo.............   ............. ",
"oo.............   ...ooooooo .. ",
"oo....   ......   ...oooooo  .. ",
"oo.... .. .....   ...oo....  .. ",
"oo....   ......   ...oo....  .. ",
"oo.... .. .....   ...oo....  .. ",
"oo.... .. .....   ...o       .. ",
"oo....   ......   ...        .. ",
"oo.............   ............. ",
"oo                              ",
"o...............  XXXXXXXXXXXXXX",
"o......  .......  XXXXXXXXXXXXXX",
"o..... .. ......  XXXXXXXXXXXXXX",
"o..... .........  XXXXXXXXXXXXXX",
"o..... .........  XXXXXXXXXXXXXX",
"o..... .. ......  XXXXXXXXXXXXXX",
"o......  .......  XXXXXXXXXXXXXX",
"o...............  XXXXXXXXXXXXXX",
"o                 XXXXXXXXXXXXXX",
"                  XXXXXXXXXXXXXX"
};
