/* XPM */
static char *outline[]={
"32 32 4 1",
"# c #000000",
"a c #2a241c",
"b c #c9ac86",
". c #d2b48c",
"................................",
".####..#########................",
".#..#..#.......#................",
".#..#..#.......#................",
".####..#########................",
"................................",
"..#.....####..##########........",
"..#.....#..#..#........#........",
"..####..#..#..#........#........",
"..#.....####..##########........",
"..#.............................",
"..#.....a.......####..#########.",
"..#.....#.......#..#..#.......#.",
"..#.....######..#..#..#.......#.",
"..#.....#.......####..#########.",
"..#.....#.......................",
"..#.....#.......####..#########.",
"..#.....#.......#..#..#.......#.",
"..#.....######..#..#..#.......#.",
"..#.............####..#########.",
"..#........b....................",
"..#.....####..#########.........",
"..#.....#..#..#.......#.........",
"..####..#..#..#.......#.........",
"........####..#########.........",
"................................",
"........#.......####..#########.",
"........#.......#..#..#.......#.",
"........######..#..#..#.......#.",
"................####..#########.",
"................................",
"................................"};
