/* XPM */
static char *magick[] = {
/* columns rows colors chars-per-pixel */
"20 20 3 1",
"  c Gray0",
". c #d2b48c",
"X c LemonChiffon",
/* pixels */
"....................",
"....................",
"............ XXXXX..",
"........... XXXXXX..",
".......... XXXXXX ..",
"......... XXXXXX X..",
"........ XXXXXX XX..",
"........ XXXXX XX ..",
"........  XXX XX ...",
"........   X XX ....",
"....... XX  XX .....",
"...... XXX    ......",
"..... XXX ..........",
"..... XX ...........",
"....    ............",
"... XX .............",
"... XXX ............",
"....        ........",
"....................",
"...................."
};
