/* XPM */
static char *magick[] = {
/* columns rows colors chars-per-pixel */
"32 32 5 1",
"  c Gray0",
". c #d2b48c",
"X c SkyBlue",
"o c #a0522d",
"O c LemonChiffon",
/* pixels */
"OOOOOOOOOOOOOOOOOOOOOOOOOOOOOOOO",
"O.............................. ",
"O.OOOOOOOOOOOOOOOOOOOO......... ",
"O.O..................o......... ",
"O.O.    . ..  .......o......... ",
"O.O.  ....... ...  ..o......... ",
"O.O.    . ... .. .. .o......... ",
"O.O.  ... ... ..    .o......... ",
"O.O.  ... ... .. ....o......... ",
"O.O.  ..   .   ..   .o......... ",
"O.O..................o......... ",
"O.Oooooooooooooooooooo......... ",
"O.OOOOOOOOOOOOOOOOOOOOOOOO .... ",
"O.OOOOOOOOOOOOOOOOOOOOOOO  .... ",
"  OO.....................       ",
"XXOO  ............... ...  XXXXX",
"XXOO  ...  ...  ..... ...  XXXXX",
"XXOO  .. .. .... ..   ...  XXXXX",
"XXOO  .. .. ..   . .. ...  XXXXX",
"XXOO  .. .. . .. . .. ...  XXXXX",
"XXOO    .  ...   ..   ...  XXXXX",
"XXOO.....................  XXXXX",
"XXOO                       XXXXX",
"XXO....................... XXXXX",
"XXO.    ....... ... ...... XXXXX",
"XXO.  ............   ..... XXXXX",
"XXO.    . .. .. ... ...... XXXXX",
"XXO.  ....  ... ... ...... XXXXX",
"XXO.  ....  ... ... ...... XXXXX",
"XXO.    . .. .    . ...... XXXXX",
"XXO....................... XXXXX",
"XXO                        XXXXX"
};
