/* XPM */
static char *_xpm[]={
"32 32 4 1",
"  c none",
". c DarkSlateGrey",
"o c Cyan4",
"O c cyan2",
"                                ",
"   .                            ",
"   .                            ",
"  ..                            ",
"   .                            ",
"   .              o             ",
"  ..          oo    O           ",
"   .      o   o         o       ",
"   .      o                     ",
"  ..         OO        Ooo      ",
"   .                            ",
"   .     O       o              ",
"  ..        oo   oo       O     ",
"   .       o    O  oo oo        ",
"   .     O    o             O   ",
"  ..            O       o       ",
"   .          o        o        ",
"   .                   o      O ",
"  ..      o       O             ",
"   .            o      o       O",
"   .      O      o o   o        ",
"  ..      O     O O  O       O O",
"   .                            ",
"   .  o                         ",
"  ..                            ",
"   .                            ",
"   .                            ",
"  ..                            ",
"   ...........................  ",
"    .  .  .  .  .  .  .  .  .   ",
"                                ",
"                                "
};
