/* XPM */
static char *_xpm[]={
"32 32 3 1",
"  c none",
"O c Cyan4",
"b c DarkSlateGrey",
"                O               ",
"  b       O  O        O         ",
"  b     O       O               ",
"  b  O     O  O    O O     O    ",
"  b      O      O               ",
"  b    O    O     O O    O  O   ",
"  b O           O               ",
"  b   O  O   O     O   O  O     ",
"  b             O            O  ",
"  b  O     O  O   O  O     O    ",
"  b    O        O        O      ",
"  b      O   O O O O   O     O  ",
"  b O O    O  O O O  O   O O    ",
"  b          O O O O            ",
"  b O O O O O O O O O O O O O   ",
"  b          O O O O            ",
"  b   O    O  O O O  O   O O O  ",
"  b O    O   O O O O   O        ",
"  b    O        O        O      ",
"  b  O     O  O   O  O     O    ",
"  b             O            O  ",
"  b   O  O   O     O   O  O     ",
"  b O           O               ",
"  b    O    O       O    O  O   ",
"  b      O    O O O    O        ",
"  b  O     O         O     O    ",
"  b    O     O  O O     O       ",
"  b                             ",
"bbbbbbbbbbbbbbbbbbbbbbbbbbbbbbb ",
"  b                             ",
"  b                             ",
"                                "
};
