/* XPM */
static char *_xpm[]={
"32 32 6 1",
"  c none",
". c Grey100",
"O c SteelBlue4",
"a c Cyan4",
"b c Cyan2",
"c c DarkSlateGrey",
"                                ",
"                                ",
"                                ",
"            OOOOOOOOOOOOOOOOOOOO",
"        c  OO                 OO",
"       c  O O                O O",
"      c  O  O     .       b  O O",
"     c  O   O  a      .     O  O",
"       O    O     a        O   O",
"      O  a  O a           O    O",
"     O      O             O    O",
"    OOOOOOOOOOOOOOOOOOOOOO     O",
"    O       O            O   a O",
"    O       O            O     O",
"    O       O    a b     O     O",
"    O    a  O          a O a   O",
"    O       O      a     O     O",
"    O a     O   a        O     O",
"    O       O        .   O     O",
"ccc O    a  O          a O   a O",
"    O       O            O     O",
"    O       OOOOOOOOOOOOOOOOOOOO",
"    O      O   b         O    O ",
"    O     O              O   O  ",
"    O    O   b   a       O  O   ",
"    O  OO                O  O   ",
"    O O    b             O O    ",
"    OO                   OO     ",
"    OOOOOOOOOOOOOOOOOOOOOO      ",
"                                ",
"             ccccc              ",
"                                "
};
