/* XPM */
static char *_xpm[]={
"32 32 3 1",
"  c none",
". c DarkSlateGrey",
"O c Cyan4",
"                                ",
"   .                            ",
"   .                            ",
"  ..           OOOOO            ",
"   .           O   O            ",
"   .           O   O            ",
"  ..           O   O            ",
"   .           O   O            ",
"   .           O   O            ",
"  ..           O   O            ",
"   .        OOOO   OOOOO        ",
"   .        O          O        ",
"  ..        O          O        ",
"   .        O          O        ",
"   .        O          O        ",
"  ..     OOOO          OOOO     ",
"   .     O                O     ",
"   .     O                O     ",
"  ..     O                O     ",
"   .     O                O     ",
"   .     O                O     ",
"  ..  OOOO                OOOO  ",
"   .  O                      O  ",
"   .  O                      O  ",
"  ..  O                      O  ",
"   .  O                      O  ",
"   .  O                      O  ",
"  ..  O                      O  ",
"   ............................ ",
"    .  .  .  .  .  .  .  .  .   ",
"                                ",
"                                "
};
