/* XPM */
static char *_xpm[]={
"32 32 4 1",
"  c none",
"O c DarkSlateGrey",
"a c SteelBlue4",
"b c Cyan4",
"                                ",
"   O                            ",
"   O                            ",
"  OO                            ",
"   O                            ",
"   O                            ",
"  OO                         a  ",
"   O                         b  ",
"   O          a              b  ",
"  OO          b              b  ",
"   O          bb             b  ",
"   O a        b b            b  ",
"  OO b       b   b           b  ",
"   O b       b   a           b  ",
"   O b       b   b          b   ",
"  OO  b     a    b          b   ",
"   O  b     b    b          b   ",
"   O  b    b      b         b   ",
"  OO  b   b       b         b   ",
"   O   b b        b         b   ",
"   O   bb         b         b   ",
"  OO   b           b       a    ",
"   O   a           a       b    ",
"   O                bb    b     ",
"  OO                  bb b      ",
"   O                    a       ",
"   O                            ",
"  OO                            ",
"   OOOOOOOOOOOOOOOOOOOOOOOOOOO  ",
"    O  O  O  O  O  O  O  O  O   ",
"                                ",
"                                "
};
