/* XPM */
static char *_xpm[]={
"32 32 4 1",
"  c none",
". c DarkSlateGrey",
"O c Cyan4",
"a c cyan2",
"                                ",
"   .                            ",
"   .                            ",
"  ..                            ",
"   .                      O     ",
"   .                            ",
"  ..                        O   ",
"   .                      O     ",
"   .                         O  ",
"  ..O                     O     ",
"   .                          O ",
"   .  O                   O     ",
"  ..                            ",
"   .    O                 O     ",
"   .                            ",
"  ..      O   O O O O           ",
"   .                      O     ",
"   .aa     O  O       O   a     ",
"  ..  a     a            a a    ",
"   .   a   a aO         O Oa    ",
"   .    a  O  a         a  a    ",
"  ..     aa O O        a    a   ",
"   .          a        a O  a   ",
"   .          a      aa      a  ",
"  ..          aaaaaaa         a ",
"   .                            ",
"   .                            ",
"  ..                            ",
"   ...........................  ",
"    .  .  .  .  .  .  .  .  .   ",
"                                ",
"         O O    aaa             "
};
