/* XPM */
static char *_xpm[]={
"32 32 4 1",
"  c none",
"O c Cyan4",
"a c Cyan2",
"b c DarkSlateGrey",
"                                ",
"                                ",
"                                ",
"          b                     ",
"        bb    bbbb              ",
"       b    bb    bb            ",
"          bb        bbb         ",
"        bb             bb       ",
"      bb      aaaa       bb     ",
"    bb      OOaOOOO        bb   ",
"   b       aaaaaaaaaa       b   ",
"   b      OOOaaOOaaOO       b   ",
"   b      OOOaaOOaaOOa      b   ",
"   b      OOOaaOOaaOOa      b   ",
"   b      OOOaaOOaaOOa      b   ",
"   b      OOOaaOOaaOOa      b   ",
"   b    bbOOOaaOOaaOOabb    b   ",
"   b  bb  OOOaaOOaaOOa  bb  b   ",
"bb bbb    OOOaaOOaaOOa    bbb   ",
"   b      OOOaaOOaaOOa      b   ",
"   b      OOOaaOOaaOOa      b   ",
"   b      OOOaaOOaaOOa      b   ",
"   b      OOOaaOOaaOOa      b   ",
"   b      OOOaaOOaaOOa      b   ",
"   b     bOOOaaOOaaOOa      b   ",
"   b   bb OOOaaOOaaOOabb    b   ",
"   b bb   OOOaaOOaaOOa  bbb b   ",
"   bb      OOaaOOaaOO      bb   ",
"    b          OO          b    ",
"  b  bb                  bb b   ",
"   b   b               bb  b    ",
"    b   b             b   b     "
};
