/* XPM */
static char *magick[] = {
/* columns rows colors chars-per-pixel */
"32 32 3 1",
"  c Gray0",
". c #d2b48c",
"X c LemonChiffon",
/* pixels */
"XXXXXXXXXXXXXXXXXXXXXXXXXXXXXXX ",
"X.............................  ",
"X.............................  ",
"X... .... ....................  ",
"X... .......   ...  ..........  ",
"X... .... .. .. . .. .........  ",
"X... .... .. .. .   ..........  ",
"X... .... .. .. . ............  ",
"X...   .   . .. ..   .........  ",
"X.............................  ",
"X.............................  ",
"XXXXXXXXXXXXXXXXXXXXXXXXXXXXXX  ",
"XX............................  ",
"XX............................  ",
"XX...  ... ..........  .......  ",
"XX.. .. ..... . ..  .. ...  ..  ",
"XX.. ..... ..  .. .... .. .. .  ",
"XX.. ..... .. ... .... ..   ..  ",
"XX.. .. .. .. ... .... .. ....  ",
"XX...  ..   . ....  .   ..  ..  ",
"XX............................  ",
"XX                              ",
"X.............................  ",
"X....  ........ .. ...........  ",
"X... .. . .. ....   ..........  ",
"X... .. . .. .. .. ...........  ",
"X... .. . .. .. .. ...........  ",
"X... .. . .. .. .. . .........  ",
"X....  ...   .   .. ..........  ",
"X...... ......................  ",
"X                               ",
"                                "
};
