/* XPM */
static char *magick[] = {
/* columns rows colors chars-per-pixel */
"20 20 3 1",
"  c Gray0",
". c #d2b48c",
"X c LemonChiffon",
/* pixels */
"....................",
"       ....   ......",
"  X X  .....   .....",
" X X X ......   ....",
"  X       ....  ....",
" X   X X  .....  ...",
"  X X X X .....  ...",
" X   X       ...  ..",
"  X X  XXXXX .      ",
" X   X XXXXX ..    .",
"  X X  XXXXX ...  ..",
"     X XXXXX ...  ..",
"... X  XXXXX .......",
"...  X XXXXX .......",
"...    XXXXX .......",
"...... XXXXX .......",
"...... XXXXX .......",
"......       .......",
"....................",
"...................."
};
