/* XPM */
static char *magick[] = {
/* columns rows colors chars-per-pixel */
"40 30 6 1",
"  c Gray0",
". c cornsilk",
"X c Green",
"o c Gray80",
"O c peru",
"+ c Blue",
/* pixels */
"   ..................................   ",
" OO   ............................   OO ",
" OOOOO   .                    .   OOOOO ",
" OOOOOOOO   OOOOOOOOOOOOOOOO   OOOOOOOO ",
" O   OOOOOO OOOOOOOOOOOOOOOO OOOOOO   O ",
" O ..   OOO                  OOO   .. O ",
" O .....  O ++++++++++++++++ O  ..... O ",
" O ...... O ++++++++++   +++ O ...... O ",
" O ...... O +++++++++  X  ++ O ...... O ",
" O ...... O +      +  X X  + O ...... O ",
" O ...... O + oooo + X X X + O ...... O ",
" O ...... O + oooo +  X X  + O ...... O ",
" O ...... O + oooo ++     ++ O ...... O ",
" O        O + oooo +++ O +++ O        O ",
" OOOOOOOOOO + oooo +++ O +++ OOOOOOOOOO ",
" OOOOOOOOOO + oooo ++     ++ OOOOOOOOOO ",
" O        O X oooo XXXXXXXXX O        O ",
" O ...... O X oooo XXXXXXXXX O ...... O ",
" O ...... O X      X       X O ...... O ",
" O ...... O XXXXXXXX ooooo X O ...... O ",
" O ...... O XXXXXXXX ooooo X O ...... O ",
" O ...... O XXXXXXXX ooooo X O ...... O ",
" O ...... O XXXXXXXX       X O ...... O ",
" O .....  O X     XXXXXXXXXX O  ..... O ",
" O ..   OOO X ooo XXXXXXXXXX OOO   .. O ",
" O   OOOOOO X     XXXXXXXXXX OOOOOO   O ",
" OOOOOOOO   XXXXXXXXXXXXXXXX   OOOOOOOO ",
" OOOOO   .                    .   OOOOO ",
" OO   ............................   OO ",
"   ..................................   "
};
