/* XPM */
static char *magick[] = {
/* columns rows colors chars-per-pixel */
"40 30 6 1",
"  c Gray0",
". c cornsilk",
"X c Green",
"o c Gray80",
"O c peru",
"+ c Blue",
/* pixels */
"........................................",
"........................................",
"..........                    ..........",
".......... OOOOOOOO  OOOOOOOO ..........",
".......... OOOOOOOO  OOOOOOOO ..........",
".......... O      O  O      O ..........",
".......... O ++++ O  O ++++ O ..........",
".......... O ++++ O  O ++++ O ..........",
".......... O +    O  O +    O ..........",
".......... O + oo O  O   X  O ..........",
".......... O + oo O  O  X X O ..........",
".......... O + oo O  O X X  O ..........",
".......... O + oo O  O  X X O ..........",
".......... O      O  O      O ..........",
".......... OOOOOOOO  OOOOOOOO ..........",
".......... OOOOOOOO  OOOOOOOO ..........",
".......... O      O  O      O ..........",
".......... O X .. O  O X X  O ..........",
".......... O X    O  O      O ..........",
".......... O XXXX O  O oooo O ..........",
".......... O XXXX O  O oooo O ..........",
".......... O XXXX O  O      O ..........",
".......... O    X O  O XXXX O ..........",
".......... O oo X O  O XXXX O ..........",
".......... O      O  O      O ..........",
".......... OOOOOOOO  OOOOOOOO ..........",
".......... OOOOOOOO  OOOOOOOO ..........",
"..........                    ..........",
"........................................",
"........................................"
};
