/* XPM */
static char *magick[] = {
/* columns rows colors chars-per-pixel */
"50 30 4 1",
"  c Gray0",
". c Gray80",
"X c Gray60",
"o c seashell",
/* pixels */
"oooooooooooooooooooooooooooooooooooooooooooooooooo",
"oooooooooooooooooooo                     ooooooooo",
"ooooooooooooooooooo XXXXXXXXXXXXXXXXXXX  ooooooooo",
"oooooooooooooooooo                     X ooooooooo",
"oooooooooooooooooo ................... X ooooooooo",
"oooooooooooooooooo ................... X ooooooooo",
"oooooooooooooooooo ..               .. X ooooooooo",
"oooooooooooooooooo .. ............. .. X ooooooooo",
"oooooooooooooooooo .. ............. .. X ooooooooo",
"oooooooooooooooooo .  ............. .. X ooooooooo",
"oooooooooooooooooo .  ............. .. X ooooooooo",
"oooooooooooooooooo .  ..   ........ .. X ooooooooo",
"oooooooooooooooooo .. . ... ....... .. X ooooooooo",
"oooooooooooooooooo .. . ... ...  .. .. X ooooooooo",
"oooooooooooooooooo .. . ... ...  .. .. X ooooooooo",
"oooooooooooooooooo .. ..   ..... .. .. X ooooooooo",
"oooooooooooooooooo .. .......... .. .. X ooooooooo",
"oooooooooooooooooo .  .......... .. .. X ooooooooo",
"oooooooooooooooooo .  .......... .. .. X ooooooooo",
"oooooooooooooooooo .  ............. .. X ooooooooo",
"oooooooooooooooooo .. ............. .. X ooooooooo",
"oooooooooooooooooo .. ............. .. X ooooooooo",
"oooooooooooooooooo ..               .. X ooooooooo",
"oooooooooooooooooo ................... X ooooooooo",
"oooooooooooooooooo ...................  oooooooooo",
"oooooooooooooooooo                     ooooooooooo",
"oooooooooooooooooooooo  ooooooooo  ooooooooooooooo",
"oooooooooooooooooooooooooooooooooooooooooooooooooo",
"oooooooooooooooooooooooooooooooooooooooooooooooooo",
"oooooooooooooooooooooooooooooooooooooooooooooooooo"
};
