/* XPM */
static char *tabstack[]={
"32 32 4 1",
". c #000000",
"b c #808080",
"# c #d2b48c",
"a c #ffffff",
"................................",
".##############################.",
".##############################.",
".##############################.",
".##aaaaaaaaaaaaaaaaaaaaaaaaa###.",
".##a######.a#######.a######.###.",
".##a######.a#######.a######.###.",
".##a######.a#######.a######.###.",
".##a######.a#######.a######.###.",
".##a######.a#######.a######.###.",
".##a######.a#######.a######.###.",
".#aa######baaaaaaaaaaaaaaaaaaa#.",
".#a##########################.#.",
".#a##########################.#.",
".#a##########################.#.",
".#a##########################.#.",
".#a##########################.#.",
".#a##########################.#.",
".#a##########################.#.",
".#a##########################.#.",
".#a##########################.#.",
".#a##########################.#.",
".#a##########################.#.",
".#a##########################.#.",
".#a##########################.#.",
".#a##########################.#.",
".#a##########################.#.",
".#a##########################.#.",
".#a...........................#.",
".##############################.",
".##############################.",
"................................"};
