/* XPM */
static char * Tree_bm_xpm[] = {
"24 24 3 1",
" 	c #A5A52A2A2A2A",
".	c #D2D2B4B48C8C",
"X	c #000000000000",
"                        ",
" ...................... ",
" ...................... ",
" ..XXXXX.......XXXXXX.. ",
" ..XXXXX....X..XXXXXX.. ",
" ..........X........... ",
" .........X............ ",
" ..XXXXX.XXXX..XXXXXX.. ",
" ..XXXXX..X....XXXXXX.. ",
" ..........X........... ",
" ...........X.......... ",
" ..............XXXXXX.. ",
" ..............XXXXXX.. ",
" ..XXXXX............... ",
" ..XXXXX............... ",
" ..............XXXXXX.. ",
" ...........X..XXXXXX.. ",
" ..........X........... ",
" ..XXXXX.XX............ ",
" ..XXXXX...X...XXXXXX.. ",
" ...........X..XXXXXX.. ",
" ...................... ",
" ...................... ",
"                        "};
