/* XPM */
static char *_xpm[]={
"32 32 4 1",
"  c grey60",
". c none",
"o c grey100",
"O c lightsteelblue",
"................................",
".oooooooooooooooooooooooooooooo.",
".o................o........... .",
".o.oooooooooooooo. ........... .",
".o.oOOOOOOOOOOOO .o........... .",
".o.oOOOOOOOOOOOO . ........... .",
".o.oOOOOOOOOOOOO .o........... .",
".o.oOOOOOOOOOOOO . ........... .",
".o.oOOOOOOOOOOOO .o........... .",
".o.oOOOOOOOOOOOO . ........... .",
".o.oOOOOOOOOOOOO .o........... .",
".o.oOOOOOOOOOOOO . ........... .",
".o.oOOOOOOOOOOOO .o........... .",
".o.oOOOOOOOOOOOO . ........... .",
".o.oOOOOOOOOOOOO .o........... .",
".o.              . ........... .",
".o................o........... .",
".o o o o o o o o o o o o o o o .",
".o................o........... .",
".o................ ........... .",
".o................o........... .",
".o................ ........... .",
".o................o........... .",
".o................ ........... .",
".o................o........... .",
".o................ ........... .",
".o................o........... .",
".o................ ........... .",
".o................o........... .",
".o................ ........... .",
".o                             .",
"................................"
};
