/* XPM */
static char *_xpm[]={
"32 32 4 1",
"  c none",
". c grey100",
"o c grey60",
"O c DarkSlateGray4",
"                                ",
" .............................. ",
" .   O   O   O    O   O   O   o ",
" .   O   O   O    O   O   O   o ",
" .   O   O   O    O   O   O   o ",
" .OOOOOOOOOOOOOOOOOOOOOOOOOOOOo ",
" .   O   O   O    O   O   O   o ",
" .   O   O   O    O   O   O   o ",
" .   O   O   O    O   O   O   o ",
" .OOOOOOOOOOOOOOOOOOOOOOOOOOOOo ",
" .   O   O   O    O   O   O   o ",
" .   O   O   O    O   O   O   o ",
" .   O   O   O    O   O   O   o ",
" .OOOOOOOOOOOOOOOOOOOOOOOOOOOOo ",
" .   O   O   O    O   O   O   o ",
" .   O   O   O    O   O   O   o ",
" .   O   O   O    O   O   O   o ",
" .   O   O   O    O   O   O   o ",
" .OOOOOOOOOOOOOOOOOOOOOOOOOOOOo ",
" .   O   O   O    O   O   O   o ",
" .   O   O   O    O   O   O   o ",
" .   O   O   O    O   O   O   o ",
" .OOOOOOOOOOOOOOOOOOOOOOOOOOOOo ",
" .   O   O   O    O   O   O   o ",
" .   O   O   O    O   O   O   o ",
" .   O   O   O    O   O   O   o ",
" .OOOOOOOOOOOOOOOOOOOOOOOOOOOOo ",
" .   O   O   O    O   O   O   o ",
" .   O   O   O    O   O   O   o ",
" .   O   O   O    O   O   O   o ",
" .ooooooooooooooooooooooooooooo ",
"                                "
};
