/* XPM */
static char *_xpm[]={
"32 32 5 1",
"  c grey100",
". c none",
"o c grey60",
"O c red",
"a c lightsteelblue",
"................................",
".                              .",
". ............................o.",
". .......................    .o.",
". ....................... aao.o.",
". ....................... aao.o.",
". ....................... aao.o.",
". ....................... aao.o.",
". ....................... aao.o.",
". ....................... aao.o.",
". ....................... aao.o.",
". ....................... OOo.o.",
". ....................... OOo.o.",
". ....................... OOo.o.",
". ....................... OOo.o.",
". ....................... OOo.o.",
". ....................... OOo.o.",
". ....................... OOo.o.",
". ....................... OOo.o.",
". ....................... OOo.o.",
". ....................... OOo.o.",
". ....................... OOo.o.",
". ....................... OOo.o.",
". ....................... aao.o.",
". ....................... aao.o.",
". .                       aao.o.",
". . aaaaaaaaaaaOOOOOOOOOaaaao.o.",
". . aaaaaaaaaaaOOOOOOOOOaaaao.o.",
". . ooooooooooooooooooooooooo.o.",
". ............................o.",
". ooooooooooooooooooooooooooooo.",
"................................"
};
