/* XPM */
static char *_xpm[]={
"32 32 4 1",
"  c none",
". c grey100",
"o c grey60",
"a c RoyalBlue3",
"                                ",
"                                ",
"                                ",
"                                ",
"                                ",
"                                ",
"                                ",
"                                ",
"................................",
".                              o",
".    a    aaaa aaa  aaaa a     o",
".    a    a  a a  a a    a     o",
".    a    a  a a  a a    a     o",
".    a    a  a a  a a    a     o",
".    a    a  a a  a a    a     o",
".    a    aaaa aaa  aaaa a     o",
".    a    a  a a  a a    a     o",
".    a    a  a a  a a    a     o",
".    a    a  a a  a a    a     o",
".    a    a  a a  a a    a     o",
".    a    a  a a  a a    a     o",
".    aaaa a  a aaa  aaaa aaaa  o",
".                              o",
".ooooooooooooooooooooooooooooooo",
"                                ",
"                                ",
"                                ",
"                                ",
"                                ",
"                                ",
"                                ",
"                                "
};
