/* XPM */
static char *_xpm[]={
"32 32 4 1",
"  c none",
". c Grey100",
"o c Grey60",
"O c yellow",
"                                ",
"                                ",
"                                ",
"                                ",
"                                ",
"                                ",
"      ....................      ",
"      .                  o      ",
"      .                  o      ",
"      .  ..............  o      ",
"      .  .OOOOOOOOOOOOOo o      ",
"      .  .OOOOOOOOOOOOOo o      ",
"      .   .OOOOOOOOOOOo  o      ",
"      .   .OOOOOOOOOOOo  o      ",
"      .    .OOOOOOOOOo   o      ",
"      .    .OOOOOOOOOo   o      ",
"      .     .OOOOOOOo    o      ",
"      .     .OOOOOOOo    o      ",
"      .      .OOOOOo     o      ",
"      .      .OOOOOo     o      ",
"      .       .OOOo      o      ",
"      .       .OOOo      o      ",
"      .        .Oo       o      ",
"      .         o        o      ",
"      .                  o      ",
"      .ooooooooooooooooooo      ",
"                                ",
"                                ",
"                                ",
"                                ",
"                                ",
"                                "
};
