/* XPM */
static char *_xpm[]={
"32 32 7 1",
"  c none",
". c Grey100",
"o c Grey60",
"O c DarkSlateGrey",
"a c yellow",
"b c #dededededede",
"c c SteelBlue",
"                                ",
"                                ",
"  ............................  ",
"  .aaaaaaaaaaaaaaaaaaaaaaaaaao  ",
"  .aaaaaaaaabbbaaaaaaaaaaaaaao  ",
"  .aaaaaaabbaaabbaabbbbbbbbaao  ",
"  .aaaaaaabaaaaabaabbbbbbbbaao  ",
"  .aaOOOabaaaaaaababbbcbbbbaao  ",
"  .aOaaaObaaaaaaababbbcbbbbaao  ",
"  .aOaacObbbbbbaababbbcbbbbaao  ",
"  .aOaacOabbbbbabOObcccbbbbaao  ",
"  .aaOOcaabbbbbbbcccbbbcbbbaao  ",
"  .aaaaacabbbbcccaabbbbcbbbaao  ",
"  .aaaaacabcccbaOaaaOaacaaaaao  ",
"  .aaaaacccOOOaaaOOOaaacaaaaao  ",
"  .aaaaacaaaaaOaaaaaaaacaaaaao  ",
"  .aaaaOcaaaaaaOaaaaaaacaaaaao  ",
"  .aaaOaacaaaaaaOaaaaaOcOaaaao  ",
"  .aaOaaacaaabbbbbaaaOacaOaaao  ",
"  .aaOaaacaaabbbbbaaaOaaccccao  ",
"  .aaOaaacaaabbbbbaccccccOaaao  ",
"  .aaOaaacaaabbccccaaaOOcaaaao  ",
"  .aaOaaaacaabbbbbaaaaaacaaaao  ",
"  .aaaOaaacaabbbbccaaaaaaaaaao  ",
"  .aaaaOaacaabbbbbaccaaaaaaaao  ",
"  .aaaaaOaaaabbbbbaaacccaaaaao  ",
"  .aaaaaaOOOObbbbbaaaaaaccaaao  ",
"  .aaaaaaaaaaaaaaaaaaaaaaaaaao  ",
"  .aaaaaaaaaaaaaaaaaaaaaaaaaao  ",
"  .ooooooooooooooooooooooooooo  ",
"                                ",
"                                "
};
