/* XPM */
static char *_xpm[]={
"32 32 5 1",
"  c none",
". c Grey100",
"o c DarkSlateGrey",
"O c Grey60",
"a c yellow",
"                                ",
"                                ",
"                                ",
"                                ",
"                                ",
"                                ",
"                                ",
"                                ",
"  ............................  ",
"  .aaaaaaaaaaaaaaaaaaaaaaaaaaO  ",
"  .aaaaaaaaaaaaaaaaaaaaaaaaaaO  ",
"  .aaaaaaaaaaoaaaaaaaaaaaaaaaO  ",
"  .aaaaaaaaaaoaaaaaaaaaaaaaaaO  ",
"  .aaaaaaaaaaoaaaaaaaaaaaaaaaO  ",
"  .aaaaaoooaaooooaaaoooaaaaaaO  ",
"  .aaaaaaaaoaoaaaoaoaaaoaaaaaO  ",
"  .aaaaaooooaoaaaoaoaaaaaaaaaO  ",
"  .aaaaoaaaoaoaaaoaoaaaoaaaaaO  ",
"  .aaaaaooooaooooaaaoooaaaaaaO  ",
"  .aaaaaaaaaaaaaaaaaaaaaaaaaaO  ",
"  .aaaaaaaaaaaaaaaaaaaaaaaaaaO  ",
"  .aaaaaaaaaaaaaaaaaaaaaaaaaaO  ",
"  .OOOOOOOOOOOOOOOOOOOOOOOOOOO  ",
"                                ",
"                                ",
"                                ",
"                                ",
"                                ",
"                                ",
"                                ",
"                                ",
"                                "
};
