/* XPM */
static char *_xpm[]={
"32 32 5 1",
"  c none",
". c Grey100",
"o c Grey60",
"O c DarkSlateGrey",
"a c yellow",
"                                ",
"                                ",
"  ............................  ",
"  .    o             o   o   o  ",
"  .    o             o   o   o  ",
"  . OO o  ooooooooo  o o o o o  ",
"  .    o             o   o   o  ",
"  .    o             o   o   o  ",
"  .ooooooooooooooooooooooooooo  ",
"  . o....................... o  ",
"  . o. OOO OOO         OOO O o  ",
"  . o.                     O o  ",
"  . o.OOOOOOOOOOOOOOOOOOOOOO o  ",
"  . oaaaaaaaaaaaaaaaaaaaaaa. o  ",
"  . oaaaaaaaaaaaaaaaaaaaaaa. o  ",
"  . oaaaaaaaaaaaaaaaaaaaaaa. o  ",
"  . oaaaaaaaaaaaaaaaaaaaaaa. o  ",
"  . oaaaaaaaaaaaaaaaaaaaaaa. o  ",
"  . oaaaaaaaaaaaaaaaaaaaaaa. o  ",
"  . oaaaaaaaaaaaaaaaaaaaaaa. o  ",
"  . oaaaaaaaaaaaaaaaaaaaaaa. o  ",
"  . oaaaaaaaaaaaaaaaaaaaaaa. o  ",
"  . oaaaaaaaaaaaaaaaaaaaaaa. o  ",
"  . oaaaaaaaaaaaaaaaaaaaaaa. o  ",
"  . oaaaaaaaaaaaaaaaaaaaaaa. o  ",
"  .ooaaaaaaaaaaaaaaaaaaaaaa.oo  ",
"  . oaaaaaaaaaaaaaaaaaaaaaa. o  ",
"  . o....................... o  ",
"  .   o                  o   o  ",
"  .ooooooooooooooooooooooooooo  ",
"                                ",
"                                "
};
