/* XPM */
static char *_xpm[]={
"32 32 6 1",
"  c none",
". c Grey100",
"o c DarkSlateGrey",
"O c Grey60",
"a c yellow",
"b c SteelBlue",
"                                ",
"                                ",
"                                ",
"                                ",
"                                ",
"                                ",
"                                ",
"                                ",
" .............................. ",
" .aaaaaaaaaaaaaaaaaaaaaaaaaaaaO ",
" .a..................aaaaaaaaaO ",
" .a.aoooaaaaaaaaaaaaOaaaaaaaaaO ",
" .a.oaaaoaaOOaaabaaaOaaaaaaaaaO ",
" .a.oaaaoaaaaOaaaaooOaooaaaaaaO ",
" .a.oaaabaaaaaaoooaaOaobooaaaaO ",
" .a.aoooaaabaooaaaaaOaobbboaaaO ",
" .a.aaaaaaoooaaaaaaaOaobbboaaaO ",
" .a.aaabooaaOabaabOaOaobooaaaaO ",
" .a.aabaaaaaaaaabaaaOaooaaaaaaO ",
" .a.aaaaaaabaaaaaaaaOaaaaaaaaaO ",
" .a.OOOOOOOOOOOOOOOOOaaaaaaaaaO ",
" .aaaaaaaaaaaaaaaaaaaaaaaaaaaaO ",
" .OOOOOOOOOOOOOOOOOOOOOOOOOOOOO ",
"                                ",
"                                ",
"                                ",
"                                ",
"                                ",
"                                ",
"                                ",
"                                ",
"                                "
};
