/* XPM */
static char *_xpm[]={
"32 32 5 1",
"  c none",
". c #FFFFFFFFFFFF",
"o c #999999999999",
"O c #2F2F4F4F4F4F",
"a c #FFFFFFFF0000",
"                                ",
"                                ",
"  ............................  ",
"  .aaaaaaaaaaaaaaaaaaaaaaaaaao  ",
"  .aOOOaOOOOaOOOaOOOOaaOOaaaao  ",
"  .aaaaaaaaaaaaaaaaaaaaaaaaaao  ",
"  ...........................o  ",
"  .aaaaaaaaaaaaaaaaaaaaaaaaaao  ",
"  .aOOOaaOOaaOOaOOOaaOOOaaaaao  ",
"  .aaaaaaaaaaaaaaaaaaaaaaaaaao  ",
"  ...........................o  ",
"  .aaaaaaaaaaaaaaaaaaaaaaaaaao  ",
"  .aaaaaaaaaaaaaaaaaaaaaaaaaao  ",
"  .OOOOOOOOOOOOOOOOOOOOOOOOOOo  ",
"  .aaOaaaaaaaaaaaaaaaaaaaaOaao  ",
"  .aaOaaaaaaaaaaaaaaaaaaaaOaao  ",
"  .aaOaaaaaaaaaaaaaaaaaaaaOaao  ",
"  .aaOaaaaaaaaaaaaaaaaaaaaOaao  ",
"  .aaOaaaaaaaaaaaaaaaaaaaaOaao  ",
"  .aaOaaaaaaaaaaaaaaaaaaaaOaao  ",
"  .aaOaaaaaaaaaaaaaaaaaaaaOaao  ",
"  .aaOaaaaaaaaaaaaaaaaaaaaOaao  ",
"  .aaOaaaaaaaaaaaaaaaaaaaaOaao  ",
"  .aaOaaaaaaaaaaaaaaaaaaaaOaao  ",
"  .aaOaaaaaaaaaaaaaaaaaaaaOaao  ",
"  .OOOOOOOOOOOOOOOOOOOOOOOOOOo  ",
"  .aaaaaaaaaaaaaaaaaaaaaaaaaao  ",
"  .aaaaaaaaaaaaaaaaaaaaaaaaaao  ",
"  ...........................o  ",
"  .ooooooooooooooooooooooooooo  ",
"                                ",
"                                "
};
