/* XPM */
static char *_xpm[]={
"32 32 4 1",
"  c none",
"o c Yellow",
"O c Grey100",
"a c Grey60",
"                                ",
"                                ",
"   OOOOOOOOOOOOOOOOOOOOOOOOOO   ",
"   Ooooooooooooooooooooooooaa   ",
"   OooooooooooooooOOoooooooaa   ",
"   OooooooooooooooOOOOoooooaa   ",
"   OooooooooooooooOOoOOooooaa   ",
"   OooooooooooooooOOooOOoooaa   ",
"   OooooooooooooooOOooaaoooaa   ",
"   OooooooooooooooOOoaaooooaa   ",
"   OooooooooooooooOaaooooooaa   ",
"   Ooooooooooooooooooooooooaa   ",
"   Oaaaaaaaaaaaaaaaaaaaaaaaaa   ",
"   aaaaaaaaaaaaaaaaaaaaaaaaaa   ",
"                                ",
"                                ",
"                                ",
"   OOOOOOOOOOOOOOOOOOOOOOOOOa   ",
"   Ooooooooooooooooooooooooaa   ",
"   OoOOOOOOOoooooooooooooooaa   ",
"   OoOOOOOOaoooooooooooooooaa   ",
"   OoOoooooaoooooooooooooooaa   ",
"   OooOoooaooooooooooooooooaa   ",
"   OooOooaaooooooooooooooooaa   ",
"   OoooOaaoooooooooooooooooaa   ",
"   OoooOaooooooooooooooooooaa   ",
"   Ooooooooooooooooooooooooaa   ",
"   Oaaaaaaaaaaaaaaaaaaaaaaaaa   ",
"   aaaaaaaaaaaaaaaaaaaaaaaaaa   ",
"                                ",
"                                ",
"                                "
};
