/* XPM */
static char *_xpm[]={
"36 36 5 1",
"  c none",
". c DarkSlateGrey",
"o c yellow",
"O c Grey60",
"a c Grey100",
"                                    ",
"                                    ",
"                                    ",
"                                    ",
"                                    ",
"                                    ",
"                                    ",
"                                    ",
"                                    ",
"                                    ",
"....................................",
".oooooooooooooooooooooooooooooooooo.",
".o................................o.",
".o.OOOOOOOOOOOOOOOOOOOOOa         o.",
".o.OOOOOOOOOOOOOOOOO...Oa         o.",
".o.OOOOOOOOOOOOOOOOOO.OOa ....... o.",
".o.OOOOOOOOOOOOOOOOOO.OOa  .....  o.",
".o.OOOOOOOOOOOOOOOOOO.OOa   ...   o.",
".o.OOOOOOOOOOOOOOOOOO.OOa   ...   o.",
".o.OOOOOOOOOOOOOOOOOO.OOa    .    o.",
".o.OOOOOOOOOOOOOOOOOO.OOa    .    o.",
".o.OOOOOOOOOOOOOOOOO...Oa         o.",
".o.OOOOOOOOOOOOOOOOOOOOOa         o.",
".o.aaaaaaaaaaaaaaaaaaaaaa         o.",
".oooooooooooooooooooooooooooooooooo.",
"....................................",
"                                    ",
"                                    ",
"                                    ",
"                                    ",
"                                    ",
"                                    ",
"                                    ",
"                                    ",
"                                    ",
"                                    "
};
