/* XPM */
static char *_xpm[]={
"32 32 5 1",
"  c none",
". c Grey60",
"O c SteelBlue",
"a c red",
"b c yellow",
"                                ",
"          a  a a a  a           ",
"        a             a         ",
"            OOOOOOO             ",
"      a   OObbbbbbbOO   a       ",
"         ObbbbbbbbbbbO          ",
"    a  OObbbbbbbbbbbbbOO  a     ",
"       ObbaaabbbbbbbbbbO        ",
"   a  ObbbaabbbbbbbbbbbbO  a    ",
"     ObbbbababbbbbbbbbbbbO      ",
"  a  ObbbbbbbabbbbbbbbbbbO  a   ",
"    ObbbbbbbbabbbbbbbbbbbbO     ",
"  a ObbbbbbbbbabbbbbbbbbbbO a   ",
"    ObbbbbbbbbbabbbbbbbbbbO     ",
"  a O.....................O a   ",
"                                ",
"    OOO   OO   OO  O  O         ",
"    O  O O  O O  O O  O         ",
"    O  O O  O O    O  O         ",
"    O  O OOOO  OO  OOOO         ",
"    O  O O  O    O O  O         ",
"    O  O O  O O  O O  O         ",
"    OOO  O  O  OO  O  O         ",
"                                ",
"    OO   OO   OO  OOO  OOO      ",
"    O O O  O O  O O  O O  O     ",
"    O O O  O O  O O  O O  O     ",
"    OO  O  O OOOO OOO  O  O     ",
"    O O O  O O  O O  O O  O     ",
"    O O O  O O  O O  O O  O     ",
"    OO   OO  O  O O  O OOO      ",
"                                "
};
