/* XPM */
static char *_xpm[]={
"32 32 6 1",
"  c none",
". c Grey100",
"o c Grey60",
"O c red",
"a c SteelBlue",
"b c yellow",
"                                ",
"                                ",
"      ....................      ",
"      .bbbbbbbbbbbbbbbbbbo      ",
"      .bbbbbbabbbbbbbbbbbo      ",
"      .bbaabbabbbbbbbbbbbo      ",
"      .bbbbababbbbbbbbbbbo      ",
"      .bbaabbaaabbbaabbbbo      ",
"      .babbababbababbbbbbo      ",
"      .babbababbababbbbbbo      ",
"      .bbaabbaaabbbaabbbbo      ",
"      .bbbbbbbbbbbbbbbbbbo      ",
"      .bbbbbbbbbbbbbbbbbbo      ",
"      .bbbbbbbbbbbbbbbbbbo      ",
"      .bbaabbaaabbbaabbbbo      ",
"      .babbababbababbabbbo      ",
"      .babbababbababbbbbbo      ",
"      .baaaabaaabbabbbbbbo      ",
"      .babbababbababbbbbbo      ",
"      .babbababbababbabbbo      ",
"      .babbabaaabbbaabbbbo      ",
"      .bbbbbbbbbbbbbbbbbbo      ",
"      .bbbbbbObbbbbbbbbbbo      ",
"      .bbOObbObbbbbbbbbbbo      ",
"      .bbbbObObbbbbbbbbbbo      ",
"      .bbOObbOOObbbOObbbbo      ",
"      .bObbObObbObObbbbbbo      ",
"      .bObbObObbObObbbbbbo      ",
"      .bbOObbOOObbbOObbbbo      ",
"      .ooooooooooooooooooo      ",
"                                ",
"                                "
};
