/* XPM */
static char *_xpm[]={
"32 32 5 1",
"  c none",
". c DarkSlateGrey",
"o c Grey100",
"O c Grey60",
"a c Yellow",
"                                ",
" oooooooooooooooooooooooooooooo ",
" oooooooooooooooooooooooooooooO ",
" oo                          OO ",
" oo .... ..................  OO ",
" oo .   .                 .  OO ",
" oo .   . .............   .  OO ",
" oo .   . .............   .  OO ",
" oo .   .                 .  OO ",
" oo  .....................   OO ",
" oo . .aaaaaaaaaaaaaaaaa. .  OO ",
" oo . .aaaaaaaaaaaaaaaaa. .  OO ",
" oo . .aaaaaaaaaaaaaaaaa. .  OO ",
" oo . .aaaaaaaaaaaaaaaaa. .  OO ",
" oo . .aaaaaaaaaaaaaaaaa. .  OO ",
" oo . .aaaaaaaaaaaaaaaaa. .  OO ",
" oo . .aaaaaaaaaaaaaaaaa. .  OO ",
" oo . .aaaaaaaaaaaaaaaaa. .  OO ",
" oo . .aaaaaaaaaaaaaaaaa. .  OO ",
" oo . .aaaaaaaaaaaaaaaaa. .  OO ",
" oo . .aaaaaaaaaaaaaaaaa. .  OO ",
" oo . .aaaaaaaaaaaaaaaaa. .  OO ",
" oo . .aaaaaaaaaaaaaaaaa. .  OO ",
" oo ...aaaaaaaaaaaaaaaaa...  OO ",
" oo . ................... .  OO ",
" oo .  .               .  .  OO ",
" oo .......................  OO ",
" oo                          OO ",
" oo                          OO ",
" ooOOOOOOOOOOOOOOOOOOOOOOOOOOOO ",
" oOOOOOOOOOOOOOOOOOOOOOOOOOOOOO ",
"                                "
};
