/* XPM */
static char *_xpm[]={
"32 32 7 1",
"  c none",
". c #008080",
"o c DarkSlateGrey",
"O c Grey100",
"a c yellow",
"b c black",
"c c SteelBlue",
"                                ",
"                                ",
"       ...         ..bbb        ",
"      .aaa..      .aaaaab       ",
"     .aaaaaa.    .aaaaaaab      ",
"     .aab.bba.  .aabbbbbabb     ",
"     .abbOOOba..aabbOOObabb     ",
"     .ab.....a.aa.b.....ab.oooo ",
"     .baaaaaaaaaaaaaaaaabbaaaao ",
"    .aabbbbaabbaaabbbbaabbccabo ",
"   .aabbaaaabbOaaabaaabbcccaobo ",
"  .aabaaaabbbOaaabbcccccccaoobo ",
"  .aabaaaabbOaaaabaaaaaaaaooobo ",
"  .accaaaabcOaaabccccccccaooobo ",
"  .accabbabcOaaabccccccccaooobo ",
"  .accbccbbcOaaabccccccccaooobo ",
"  .accccccccOaaabccccccccaoobbo ",
"  .accccccccOaaabccccccccaobbbo ",
"  .accccccccOaaabccccccccabbbbo ",
"  .aaaaaaaaaOaaabaaaaaaaaabbobo ",
"  .aaaaaaaaaOaaabaaaaaaaaaboobo ",
"  .aaaaaaaaaOaaabaaaaaaaaaooobo ",
"  .accccccccOaaabccccccccaooobo ",
"  .accccccccOaaabccccccccaooobo ",
"  .accccccccOaaabccccccccaooobo ",
"  .accccccccOaaabccccccccaooobo ",
"  .accccccccOaaabccccccccaoobo  ",
"  .accccccccOaaabccccccccaobo   ",
"  .accccccccOaaabccccccccabo    ",
"  .aaaaaaaaaOaaabaaaaaaaaao     ",
"  .oooooooooabbbbooooooooo      ",
"                                "
};
