/* XPM */
static char *_xpm[]={
"32 32 4 1",
"  c none",
". c Grey100",
"o c Grey60",
"O c yellow",
"........                      .O",
" .OOOOOO.                     .O",
"  .OOOOOO.                   .Oo",
"   .OOOOOO.                 .Oo ",
"   .OOOOOO.                .Oo  ",
"    .OOOOOO.              .Oo   ",
"     .OOOOOO.            .Oo    ",
"      .OOOOOO.           .Oo    ",
"      .OOOOOO.          .Oo     ",
"       .OOOOOO.        .Oo      ",
"        .OOOOOO.      .Oo       ",
"         .OOOOOO.    .Oo        ",
"         .OOOOOO.   .Oo         ",
"          .OOOOOO.  .Oo         ",
"           .OOOOO. .Oo          ",
"            .OOOO Ooo           ",
"            .OOO OOo            ",
"             .O OOOOo           ",
"            .OooOOOOOo          ",
"           .Oo oOOOOOOo         ",
"           .Oo oOOOOOOo         ",
"          .Oo   oOOOOOOo        ",
"         .Oo     oOOOOOOo       ",
"        .Oo       oOOOOOOo      ",
"       .Oo        oOOOOOOO      ",
"      .Oo          oOOOOOOo     ",
"      .Oo           oOOOOOOo    ",
"     .Oo             oOOOOOOo   ",
"    .Oo              oOOOOOOo   ",
"   .Oo                ooOOOOOo  ",
"  .Oo                  oOOOOOOo ",
" .Oo                    oooooooo"
};
