/* XPM */
static char *_xpm[]={
"32 32 6 1",
"  c none",
". c Grey100",
"o c Grey60",
"O c DarkSlateGrey",
"a c SteelBlue",
"b c yellow",
"                                ",
"                                ",
"                                ",
"                                ",
"                                ",
"  ......................        ",
"  .bbbbbbbbbbbbbbbbbbbbb.       ",
"  .bbbbbbbbbbbbbbbbbbbbbb.      ",
"  .bObbbbbObbbOObbOOObObbb.     ",
"  .bObbbbbObbbObObObbbObbbaa    ",
"  .bObbbbObObbOObbOObbObbbba    ",
"  .bObbbbOOObbObObObbbObbbaa    ",
"  .bObbbObbbObObObObbbObbbooa   ",
"  .bOOObObbbObOOObOOObOOObooa   ",
"  .bbbbbbbbbbbbbbbbbbbbbboo a   ",
"  .bbbbbbbbbbbbbbbbbbbbboo  a   ",
"  .oooooooooooooooooooooo   a   ",
"                       a    a   ",
"                      a    a    ",
"                    aa     a    ",
"                   a       a    ",
"                 aa        a    ",
"           aaaaaa          a    ",
"         aa                a    ",
"        a                  a    ",
"       a                  a     ",
"       a                 a      ",
"       a                a       ",
"        a             aa        ",
"         aaaaaaaaaaaaa          ",
"                                ",
"                                "
};
