/* XPM */
static char *_xpm[]={
"32 32 5 1",
"  c none",
". c #000000000000",
"o c #FFFFFFFF0000",
"O c #FFFFFFFFFFFF",
"b c #C0C0C0C0C0C0",
"         O                      ",
"        O.O                     ",
"       O.o.O                    ",
"      O.ooo.O                   ",
"     O.ooooo.O                  ",
"    O.ooooooo.O                 ",
"   O.ooooooooo.O                ",
"  O.ooooooooooo.O               ",
" O....ooooooo....O              ",
"O.bbb.ooooooo.bbb.O             ",
"bbb b.ooooooo.b bbb             ",
"    b.ooooooo.b                 ",
"    b.ooooooo.b                 ",
"    b.ooooooo.b      OOO        ",
"    b.........b      O.O        ",
"    bbbbbbbbbbb      OO.O       ",
"                      O..O      ",
"                OOOOOOO.o.O     ",
"                b........o.O    ",
"                b.ooooooooo.O   ",
"                b.oooooooooo.O  ",
"                b.ooooooooooo.O ",
"                b.oooooooooooo.O",
"                b.ooooooooooo.b ",
"                b.oooooooooo.b  ",
"                b.ooooooooo.b   ",
"                b.......oo.b    ",
"                bbbbbbb...b     ",
"                      b..b      ",
"                      b.b       ",
"                     b.b        ",
"                     bbb        "
};
