/* XPM */
static char *_xpm[]={
"32 32 6 1",
"  c none",
". c Grey100",
"o c yellow",
"O c SteelBlue",
"a c DarkSlateGrey",
"b c Grey60",
"                                ",
"                                ",
"                                ",
"                                ",
"                                ",
"                                ",
"                                ",
"                                ",
"                                ",
"                                ",
"................................",
".oooooooooooooooooooooooooooooob",
".oOOOOOOOOOOOooooaaoooaaooaaooob",
".oOOOOOOOOOOOoooaooaoaooaoaaoaob",
".oOOOOOOOOOOOooooooaooooaoooaoob",
".oOOOOOOOOOOOoooooaooooaoooaooob",
".oOOOOOOOOOOOooooooaooooaoaoooob",
".oOOOOOOOOOOOoooaooaoaooaoooaaob",
".oOOOOOOOOOOOooooaaoooaaooooaaob",
".oooooooooooooooooooooooooooooob",
".bbbbbbbbbbbbbbbbbbbbbbbbbbbbbbb",
"                                ",
"                                ",
"                                ",
"                                ",
"                                ",
"                                ",
"                                ",
"                                ",
"                                ",
"                                ",
"                                "
};
