/* XPM */
static char *_xpm[]={
"32 32 5 1",
"  c none",
". c Grey60",
"o c yellow",
"O c Grey100",
"a c DarkSlateGrey",
"                                ",
"                                ",
"  ............................  ",
"  .ooooooooooooooooooooooooooO  ",
"  .ooooooooooooooooooooooooooO  ",
"  .ooooooooooooooooooooooooooO  ",
"  .ooooooooooooooooooooooooooO  ",
"  .ooooooooooooooooooooooooooO  ",
"  .ooooooooooooooooooooooooooO  ",
"  .ooooooooooooooooooooooooooO  ",
"  .ooooooooooooooooooooooooooO  ",
"  .ooooooooooooooooooooooooooO  ",
"  .oooooooooooooaooooooooooooO  ",
"  .ooooooooooooaaaoooooooooooO  ",
"  .oooooooooooaoaoaooooooooooO  ",
"  .oooooooooooooaooooooooooooO  ",
"  .oooooooooooooaooooooOOOoooO  ",
"  .OOOOOOOOOOOOOOOOOOOOO OOOOO  ",
"  .                          O  ",
"  .....................  ....O  ",
"  .oooooooooooooaoooooo...oooO  ",
"  .oooooooooooooaooooooooooooO  ",
"  .oooooooooooaoaoaooooooooooO  ",
"  .ooooooooooooaaaoooooooooooO  ",
"  .oooooooooooooaooooooooooooO  ",
"  .ooooooooooooooooooooooooooO  ",
"  .ooooooooooooooooooooooooooO  ",
"  .ooooooooooooooooooooooooooO  ",
"  .ooooooooooooooooooooooooooO  ",
"  .OOOOOOOOOOOOOOOOOOOOOOOOOOO  ",
"                                ",
"                                "
};
