/* XPM */
static char *_xpm[]={
"36 36 5 1",
"  c none",
". c Grey100",
"o c yellow",
"O c grey60",
"a c SteelBlue",
"                                    ",
"                                    ",
"                                    ",
"                                    ",
"       .............                ",
"     ..oooooooooooooOO              ",
"    .oooooooooooooooooO             ",
"   .oooooooooooooooooooO            ",
"  .O.O.OoOOOOOOoooooOoooO           ",
"  ..OaO.ooooOoooooooOoooO           ",
" .oOaaaOooooOooOOOooOOOooO          ",
" .o.OaO.ooooOoOooOooOooOoO          ",
" .oO.O.OooooOoOooOooOooOoO          ",
"..ooooooooooOooOOOOoOOOooo.........O",
"..oooooooooooooooooooooooo........OO",
"..ooooooooooooooooooooooooooooooooOO",
"..ooooooooooooooooooooooooooooooooOO",
"..ooooooooooooooooooooooooooooooooOO",
"..ooooooooooooooooooooooooooooooooOO",
"..ooooooooooooooooooooooooooooooooOO",
"..ooooooooooooooooooooooooooooooooOO",
"..ooooooooooooooooooooooooooooooooOO",
"..ooooooooooooooooooooooooooooooooOO",
"..ooooooooooooooooooooooooooooooooOO",
"..ooooooooooooooooooooooooooooooooOO",
"..ooooooooooooooooooooooooooooooooOO",
"..ooooooooooooooooooooooooooooooooOO",
"..ooooooooooooooooooooooooooooooooOO",
"..ooooooooooooooooooooooooooooooooOO",
".OOOOOOOOOOOOOOOOOOOOOOOOOOOOOOOOOOO",
"OOOOOOOOOOOOOOOOOOOOOOOOOOOOOOOOOOOO",
"                                    ",
"                                    ",
"                                    ",
"                                    ",
"                                    "
};
