/* XPM */
static char *_xpm[]={
"32 32 9 1",
"  c none",
". c #000000",
"o c yellow",
"O c #c0c0c0",
"a c #008080",
"b c ivory4",
"c c #808080",
"d c #ffffff",
"e c #808000",
"                           OOOOO",
"                           O e c",
"                           Oeeec",
"                    b      O   c",
"       OOOO        bob     Oeeec",
"     ddO         booooo    Oeeec",
"    OOOO         ooodoob   Oeeec",
"   OdOOO         oooddoob  Oeeec",
"   OOcOaa       .ooooddoo  Oeeec",
"    O  Oaa     .Oeeooodoo  Oeeec",
"        aaa   .Odeeoooooo  Oeeec",
"         Oaa .ddddooeoooO  Oeeec",
"          OaaOdddddooooO   Oeeec",
"          Oaaaddddddooo    Oeeec",
"          .Oaa..dddO.O     Oeeec",
"         .OdOa...dO.c      Oeeec",
"        .OdddO.ddO.O       Oeeec",
"       .ddddddO..d.        Oeeec",
"      .Odddddd....d.       Oeeec",
"     .OddddddOOOO..d       O   c",
"    .dddddd..O   O..d.     O   c",
"   .OddddOOO     OO..d.    O   c",
"  .OddddO..       OO..d    O   c",
"   .OdO.O           O.     O   c",
"    .O.O            OO     Oeeec",
"     .O                    O e c",
"                           Occcc",
"OOOOOOOOOOOOOOOOOOOOOOOOOOO     ",
"O e    eeeeeeee         e c     ",
"Oee    eeeeeeee         eec     ",
"O e    eeeeeeee         e c     ",
"Occcccccccccccccccccccccccc     "
};
