/* XPM */
static char *_xpm[]={
"36 36 6 1",
"  c none",
". c Grey100",
"o c Grey60",
"O c DarkSlateGrey",
"a c yellow",
"b c SteelBlue",
"                                    ",
" ................................o  ",
" .OOOOOOOOOOOOOOOOOOOOOOOOOOOOOOOo  ",
" .O....oO....oO....oO....oO....oOo  ",
" .O.abaoO.OOaoO.aaboO.aaOoO.bbboOo  ",
" .O.baooO.aoboO.aaboO.oaboO.aoboOo  ",
" .O.baOoO.aaOoO.aaboO.OaOoO.bbboOo  ",
" .OoooooOoooooOoooooOoooooOoooooOo  ",
" .OOOOOOOOOOOOOOOOOOOOOOOOOOOOOOOo  ",
" ooooooooooooooooooooooooooooooooo  ",
"                                    ",
"                                    ",
"                                    ",
"                                    ",
"                   ooooooooo        ",
"                   oOOOOOOOo        ",
"                   oO....oOo        ",
"                   oO.aaaoOo        ",
"                   oO.aoboOo        ",
"                   oO.baaoOo        ",
"                   oOoooooOo        ",
"                   oOOOOOOOo        ",
"                   oO....oOo        ",
"                   oO.abaoOo        ",
"                   oO.abOoOo        ",
"                   oO.aoOoOo        ",
"                   oOoooooOo        ",
"                   oOOOOOOOo        ",
"                   oO....oOo        ",
"                   oO.OaboOo        ",
"                   oO.aoOoOo        ",
"                   oO.ObOoOo        ",
"                   oOoooooOo        ",
"                   oOOOOOOOo        ",
"                   ooooooooo        ",
"                                    "
};
