/* XPM */
static char *_xpm[]={
"32 32 11 1",
"  c none",
". c #000000",
"o c #800000",
"O c #00ffff",
"a c #c0c0c0",
"b c #ff0000",
"c c #808080",
"d c #ffffff",
"e c SteelBlue",
"f c #808000",
"g c yellow",
"                                ",
"    ........................    ",
"   .gggggggggggddcgggggggggg. a ",
"  .ggggggggggggc..ggggggggggg.a ",
" .............................. ",
" .   .                    .ccc. ",
" .   .     ccccccccccccccc.ccc. ",
" .  .......ccc....cccccc. .ccc. ",
"  . .ggggO. c. bb..cccc....  .  ",
"  . .gggO..  . bbo. cc.fff.  .  ",
"  . .ggOOO.  . bbo.  . ffff. .  ",
"   ..gOO...  . bbo.  . eeef..   ",
"   ..OOOOO.  . bbo.  . eeef..   ",
"   ..OOOO..... bbo.... eeef..   ",
"   c.OOOOO.. . bbo.. . eeef.c   ",
"   c.OO............... eeef.c   ",
"   c.OOOOO.  cc..  cc. eeef.c   ",
"   ..OOOO..  cc..  cc. eeef..   ",
"  . .OOOOO.  cc..  cc. eeef.c.  ",
" .............................. ",
" .gggggggggggggggggggggggggggg. ",
" .gggggggggggggddggggggggggggg. ",
" .gggggggggggggdc.gggggggggggg. ",
" .gggggggggggggdc.gggggggggggg. ",
" .gggggggggggggdc.gggggggggggg. ",
" .gggggggggggggdc.gggggggggggg. ",
" .gggggggggggggdc.gggggggggggg. ",
" .gggggggggggggg..gggggggggggg. ",
" .gggggggggggggggggggggggggggg. ",
" .gggggggggggggggggggggggggggg. ",
" .............................. ",
"                                "
};
