/* XPM */
static char *_xpm[]={
"36 36 6 1",
"  c none",
". c #FFFFFFFFFFFF",
"o c #999999999999",
"O c #4A4A4A4A4A4A",
"a c #FFFFFFFF0000",
"b c #42429A9AA7A7",
"                                    ",
" ................................o  ",
" .OOOOOOOOOOOOOOOOOOOOOOOOOOOOOOOo  ",
" .O....oO....oO....oO....oO....oOo  ",
" .O.abaoO.OOaoO.aaboO.aaOoO.bbboOo  ",
" .O.baooO.aoboO.aaboO.oaboO.aoboOo  ",
" .O.baOoO.aaOoO.aaboO.OaOoO.bbboOo  ",
" .OoooooOoooooOoooooOoooooOoooooOo  ",
" .OOOOOOOOOOOOOOOOOOOOOOOOOOOOOOOo  ",
" ooooooooooooooooooooooooooooooooo  ",
"                                    ",
"                                    ",
"                                    ",
"   OOOOO  OO   OO  O   O            ",
"     O   O  O O  O O  O             ",
"     O   O  O OO   O O              ",
"     O   OOOO   O  OO               ",
"     O   O  O O  O O O              ",
"     O   O  O O  O O  O             ",
"     O   O  O  OO  O   O            ",
"                                    ",
"                                    ",
"                                    ",
"    OOO   OO  OOO                   ",
"    O  O O  O O  O                  ",
"    O  O O  O O  O                  ",
"    OOO  OOOO OOO                   ",
"    O  O O  O O  O                  ",
"    O  O O  O O  O                  ",
"    OOO  O  O O  O                  ",
"                                    ",
"                                    ",
"                                    ",
"                                    ",
"                                    ",
"                                    "
};
