/* XPM */
static char *_xpm[]={
"32 32 9 1",
"  c none",
". c #000000",
"o c yellow",
"O c #c0c0c0",
"a c #008080",
"b c ivory4",
"c c #808080",
"d c #ffffff",
"e c #808000",
"                                ",
"                       bb       ",
"      OOOOO           boob      ",
"    OOOOccc          boooob     ",
"   OddOc            boooooob    ",
"  OdOOO            boooddooob   ",
" OdOOOOO           booodddooob  ",
"OdOOOOOa           boooodddoob  ",
" OOOcOaaa         .oooooodddoo  ",
"  Oc  Oaaa       .Ooeeooooddoo  ",
"       Oaaa     .Odoeeooooodoo  ",
"        Oaaa   .Odddoooeeooooo  ",
"         Oaaa .OdddddooeeooooO  ",
"          OaaaOdddddddooooooO   ",
"          OaaaadddddddddoooO    ",
"           .aaaaddddddddO.O     ",
"          .OOaaa..ddddOO.O      ",
"         .OddOa....ddO..c       ",
"        .OddddO..dd.O.OO        ",
"       .Oddddddd...d.O          ",
"      .OddddddddO...d.          ",
"     .OddddddddO.....d.         ",
"    .OddddddddO.OOO...d.        ",
"   .OdddddddOO.O  OO...d.       ",
"  .OdddddddO..O    OO...d.      ",
" .OddddddOO.O       OO...d.     ",
".OddddddO..O         OO...d.    ",
".OddddOO.OO           OO...     ",
" .OddO..O              OO.      ",
"  .OO.OO                OO      ",
"   ..O                          ",
"                                "
};
