/* XPM */
static char *magick[] = {
/* columns rows colors chars-per-pixel */
"90 50 2 1",
"  c Gray0",
". c Gray100",
/* pixels */
" . . . . . . . . . . . . . . . . . . . . . . . . . . . . . . . . . . . . . . . . . . . . .",
". . . . . . . . . . . . . . . . . . . . . . . . . . . . . . . . . . . . . . . . . . . . . ",
" . . . . . . . . . . . . . . . . . . . . . . . . . . . . . . . . . . . . . . . . . . . . .",
". . . . . . . . . . . . . . . . . . . . . . . . . . . . . . . . . . . . . . . . . . . . . ",
" . . . . . . . . . . . . . . . . . . . . . . . . . . . . . . . . . . . . . . . . . . . . .",
". . . . . .         .         .                 .           . . .           . . . . . . . ",
" . . . . . . .....   . .....   . .............    .......  . . .  .......  . . . . . . . .",
". . . . . .  .....  .  .....  .  .............  . .......   . . . .......   . . . . . . . ",
" . . . . . . .....   . .....   . .............    .......  . . .  .......  . . . . . . . .",
". . . . . .  .....     ....   .  .............  . .......   . . . .......   . . . . . . . ",
" . . . . . . ......    ....    . .............    .......    . .  .......  . . . . . . . .",
". . . . . .   .....   .....   .  .....          . ........  . .   .......   . . . . . . . ",
" . . . . . .  .....   .....  . . .....            ........   . . ........  . . . . . . . .",
". . . . . . . .....   ....    .  .....  . . . . . ........  . .  ........   . . . . . . . ",
" . . . . . .   ..... .....   . . .....   . . . .  ........   . . ........  . . . . . . . .",
". . . . . . .  ..... .....  . .  .....  . . . . . ........  . .  ........   . . . . . . . ",
" . . . . . . . ..... .....   . . .....   . . . .  ........   .   ........  . . . . . . . .",
". . . . . . .   .........   . .  .....  . . . . . ........    .  ........   . . . . . . . ",
" . . . . . . .  .........    . . .....   . . . .  ........   .  .........  . . . . . . . .",
". . . . . . . . .........   . .  .....  . . . . . .........   . .........   . . . . . . . ",
" . . . . . . .   .......   . . . .....         .  .........  .  .........  . . . . . . . .",
". . . . . . . .  .......    . .  ............   . .........     .........   . . . . . . . ",
" . . . . . . . . .......   . . . ............  .  ..........   ..........  . . . . . . . .",
". . . . . . . .  ........   . .  ............   . ..........   ..........   . . . . . . . ",
" . . . . . . .   ........  . . . ............  .  ..........   ..........  . . . . . . . .",
". . . . . . . . .........   . .  ............   . ..........   ..........   . . . . . . . ",
" . . . . . . .  ..........   . . .....         .  ..... ....   .... .....  . . . . . . . .",
". . . . . . .  ...........  . .  .....          . ..... ..... ..... .....   . . . . . . . ",
" . . . . . . . ...........   . . .....   . . . .  ..... ..... ..... .....  . . . . . . . .",
". . . . . . .  ..... .....    .  .....  . . . . . ..... ..... ..... .....   . . . . . . . ",
" . . . . . . . ..... .....   . . .....   . . . .  ..... ..... ..... .....  . . . . . . . .",
". . . . . . .  ..... ......   .  .....  . . . . . .....  .... ....  .....   . . . . . . . ",
" . . . . . .  ...... ......  . . .....   . . . .  .....  .... ....  .....  . . . . . . . .",
". . . . . . . .....   .....   .  .....  . . . . . .....  .........  .....   . . . . . . . ",
" . . . . . .  .....   .....  . . .....   . . . .  .....  .........  .....  . . . . . . . .",
". . . . . .   .....   .....   .  .....  . . . . . .....   .......   .....   . . . . . . . ",
" . . . . . . ......   ......   . .....   . . . .  .....   .......   .....  . . . . . . . .",
". . . . . .  .....  .  .....  .  .....  . . . . . .....   .......   .....   . . . . . . . ",
" . . . . . . .....     .....   . .....   . . . .  .....   .......   .....  . . . . . . . .",
". . . . . .  .....  .  .....     .....  . . . . . .....    .....    .....   . . . . . . . ",
" . . . . .  .....    .  .....  . .....   . . . .  .....    .....    .....  . . . . . . . .",
". . . . . . .....   .   .....    .....  . . . . . .....    .....  . .....   . . . . . . . ",
" . . . . .  .....  . .  .....  . .....   . . . .  .....  . .....    .....  . . . . . . . .",
". . . . . .         . .                 . . . . .                 .         . . . . . . . ",
" . . . . .         . .         .         . . . .         .                 . . . . . . . .",
". . . . . . . . . . . . . . . . . . . . . . . . . . . . . . . . . . . . . . . . . . . . . ",
" . . . . . . . . . . . . . . . . . . . . . . . . . . . . . . . . . . . . . . . . . . . . .",
". . . . . . . . . . . . . . . . . . . . . . . . . . . . . . . . . . . . . . . . . . . . . ",
" . . . . . . . . . . . . . . . . . . . . . . . . . . . . . . . . . . . . . . . . . . . . .",
". . . . . . . . . . . . . . . . . . . . . . . . . . . . . . . . . . . . . . . . . . . . . "
};
