/* XPM */
static char *magick[] = {
/* columns rows colors chars-per-pixel */
"32 32 6 1",
"  c Gray0",
". c Gray40",
"X c #e8e400",
"o c OrangeRed",
"O c #5151fb",
"+ c #00db0a",
/* pixels */
"                                ",
"                                ",
"  oooooooooooo  ++++++++++++++  ",
"  oooooooooooo  ++++++++++++++  ",
"  oo  oooo  oo  ++++        ++  ",
"  oo  oooo  oo  ++++        ++  ",
"  oo    oo  oo  ++++  ++++++++  ",
"  oo    oo  oo  ++++  ++++++++  ",
"  oooo    oooo  ++++      ++++  ",
"  oooo    oooo  ++++      ++++  ",
"  oo  oo    oo  ++++  ++++++++  ",
"  oo  oo    oo  ++++  ++++++++  ",
"  oo  oooo  oo  ++++  ++++++++  ",
"  oo  oooo  oo  ++++  ++++++++  ",
"  oooooooooooo  ++++++++++++++  ",
"  oooooooooooo  ++++++++++++++  ",
"                                ",
"                                ",
"  OOOOOOOOOOOO  XX..XXXXXX..XX  ",
"  OOOOOOOOOOOO  XX..XXXXXX..XX  ",
"  OOOOOOOOOOOO  XX  ..XX..  XX  ",
"  OOOOOOOOOOOO  XX  ..XX..  XX  ",
"  OOOOOOOOOOOO  XX    ..    XX  ",
"  OOOOOOOOOOOO  XX    ..    XX  ",
"  OOOOOOOOOOOO  XX  XX  XX  XX  ",
"  OOOOOOOOOOOO  XX  XX  XX  XX  ",
"  OOOOOOOOOOOO  XX  XXXXXX  XX  ",
"  OOOOOOOOOOOO  XX  XXXXXX  XX  ",
"  OOOOOOOOOOOO  XXXXXXXXXXXXXX  ",
"  OOOOOOOOOOOO  XXXXXXXXXXXXXX  ",
"                                ",
"                                "
};
