/* XPM */
static char *magick[] = {
/* columns rows colors chars-per-pixel */
"32 32 3 1",
"  c Gray0",
". c #d2b48c",
"X c Gray100",
/* pixels */
"                                ",
" .............................. ",
" ..............X .............. ",
" ..............X .............. ",
" .............X.. ............. ",
" .............X.. ............. ",
" ............X.... ............ ",
" ............X.... ............ ",
" ...........X...... ........... ",
" ...........X...... ........... ",
" ...........        ........... ",
" .............................. ",
" .......XX ..........XXX....... ",
" .....XX.. ..........X..XX..... ",
" ...XX.... ..........X....XX... ",
" .XX...... ..........X......XX. ",
" .  ...... ..........X......  . ",
" ...  .... ..........X....  ... ",
" .....  .. ..........X..  ..... ",
" .......   ..........   ....... ",
" .............................. ",
" ...........XXXXXXX ........... ",
" ...........X...... ........... ",
" ...........X...... ........... ",
" ............X.... ............ ",
" ............X.... ............ ",
" .............X.. ............. ",
" .............X.. ............. ",
" ..............X .............. ",
" ..............X .............. ",
" .............................. ",
"                                "
};
