/* XPM */
static char *magick[] = {
/* columns rows colors chars-per-pixel */
"32 32 5 1",
"  c Gray0",
". c #d2b48c",
"X c peru",
"o c Gray100",
"O c LemonChiffon",
/* pixels */
"                               O",
" OOOOOOOOOOOOOOOOOOOOOOOOOOOOO O",
" O............................ O",
" O.               ............ O",
" O. XXXXXXXXXXXXXO............ O",
" O. X............O............ O",
" O. X............O...ooooooooo O",
" O. X............O...o........ O",
" O. X............O...o........ O",
" O. X.....              O..... O",
" O. X..... OOOOOOOOOOOO O..... O",
" O. X..... O........... O..... O",
" O. OOOOOO O........... O..... O",
" O........ O........... O..... O",
" O........ O........... O..... O",
" O........ O........... O..... O",
" O........ O........... O..... O",
" O........ O........... O..... O",
" O........              O..... O",
" O........OOOOOOOOOOOOOOO..... O",
" O...................o........ O",
" O...................o........ O",
" O...OOOOOO..........o........ O",
" O...O.... ..........o........ O",
" O...O.... .OOOOOO...o........ O",
" O...O     .O.... ...o........ O",
" O..........O.... ...oXXXXXXXX O",
" O..........O     ...          O",
" O............................ O",
" O............................ O",
"                               O",
"OOOOOOOOOOOOOOOOOOOOOOOOOOOOOOOO"
};
