/* XPM */
static char *magick[] = {
/* columns rows colors chars-per-pixel */
"32 32 5 1",
"  c Gray0",
". c #d2b48c",
"X c SkyBlue",
"o c peru",
"O c LemonChiffon",
/* pixels */
"OOOOOOOOOOOOOOOOO XXXXXXXXXXXXXX",
"O................ XXXXXXXXXXXXXX",
"O................ XXXXXXXXXXXXXX",
"O...  ........... XXXXXXXXXXXXXX",
"O.. .. .......... XXXXXXXXXXXXXX",
"O.. .. .......... XXXXXXXXXXXXXX",
"O..    .......... XXXXXXXXXXXXXX",
"O.. .. ........OOOOOOOOOOOOOOO X",
"O.. .. ........OOOOOOOOOOOOOO  X",
"O..............OO............  X",
"O..............OO............  X",
"OOOOOOOOOOOOOOOOO......  ....  X",
"OO.............OO.....   ....  X",
"OO.......  ....OO......  ....  X",
"OO.   ... o ...OO......  ....  X",
"OO. .. .. oo ..OO......  ....  X",
"OO.   ... ooo .OO......  ....  X",
"OO. .. .. ooO..OO....     ...  X",
"OO. .. .. oO...OO............  X",
"OO.   ...OO....OO.....   ....  X",
"OO.............OO.... ..  ...  X",
"OO             OO.......  ...  X",
"O..............OO......  ....  X",
"O...  ...OO....OO.....  .....  X",
"O.. .. ..O.O...OO....  ......  X",
"O.. .....O..O..OO....     ...  X",
"O.. .....O... .OO............  X",
"O.. .. ..O.. ..OO............  X",
"O...  ...O. ...OO              X",
"O........O ....O               X",
"O................ XXXXXXXXXXXXXX",
"                  XXXXXXXXXXXXXX"
};
