/* XPM */
static char */tmp/tmp[] = {
/* width height ncolors chars_per_pixel */
"32 32 5 1",
/* colors */
"  c #000000",
". c #D2B48C",
"X c #CD853F",
"o c #FF0000",
"O c #808080",
/* pixels */
"                                ",
" .............................. ",
" .OOOOOOOOOOOOOOOOOOOOOOOOOOO . ",
" .O........... .............. . ",
" .O. .......................X . ",
" .O.    ...... .............X . ",
" .O. .. ......... . . ..   .X . ",
" .O. .. ...... ... ..  .. ..X . ",
" .O. .. ......... . .. .. ..X . ",
" .O. ..   o... .............X . ",
" .O. .. ....................X . ",
" .O. .. ...... .. ... ... ..X . ",
" .O. ..   o...... .. . . . .X . ",
" .O. .. ...... ..  . . .. ..X . ",
" .O. .. ....................X . ",
" .O. ..   .... .............X . ",
" .O. .... .......   .   .. .X . ",
" .O. .... .... ... ..... . .X . ",
" .O. ....   o.... . ..  .. .X . ",
" .O. .... .... .............X . ",
" .O. .... ..................X . ",
" .O. ....   o. .............X . ",
" .O. .... ..................X . ",
" .O. .... .... .............X . ",
" .O. ....   o...............X . ",
" .O. ......... .............X . ",
" .O. .......................X . ",
" .O........... .............X . ",
" .O.XXXXXXXXXXXXXXXXXXXXXXXXX . ",
" .O                           . ",
" .............................. ",
"                                "
};
