/* XPM */
static char *magick[] = {
/* columns rows colors chars-per-pixel */
"32 32 6 1",
"  c Gray0",
". c #d2b48c",
"X c Red",
"o c Gray100",
"O c Yellow",
"+ c Blue",
/* pixels */
"                                ",
" ........................ OOO   ",
" .++++++++.............. OOO    ",
" .+......+............. OOO   O ",
" .+......+............ OOO   OO ",
" .+......+........... OOO   OO  ",
" .+......+.......... OOO   OO   ",
" .+......+......... OOO   OO  . ",
" .+......+........ OOO   OO  .. ",
" .+......+....... OOO   OO  ... ",
" .+...X..+...... OOO   OO  .... ",
" .+... X.+...... OO   OO  ..... ",
" .+.... X+..... oo   OO  ...... ",
" .+..... +..... oo  OO  ....... ",
" .+......+X... oooooO  ........ ",
" .+......+ X.. ooooo  ......... ",
" .+......+. X.  oo  ........... ",
" .+......+.. X    ............. ",
" .+......+... ....... X X ..... ",
" .+......+..... ...X X . X X... ",
" .+......+...  . .. ....... ... ",
" .+......+.. ....  X.......X .. ",
" .+......+  ......X ....... X.. ",
" .+......+........ . ....... .. ",
" .+....  +........X .  .... X.. ",
" .+...   +         X    ...X .. ",
" .+......+......... ....... ... ",
" .++++++++.........X X . X X... ",
" .................... X X ..... ",
" .............................. ",
" .............................. ",
"                                "
};
