/* XPM */
static char *magick[] = {
/* columns rows colors chars-per-pixel */
"32 32 6 1",
"  c Gray0",
". c #d2b48c",
"X c peru",
"o c Red",
"O c Gray100",
"+ c Yellow",
/* pixels */
"                               X",
" XXXXXXXXXXXXXXXXXXXXXXXXXXXXX X",
" X.......              ....... X",
" X.......              ....... X",
" X......                ...... X",
" X......                ...... X",
" X......                ...... X",
" X......                ...... X",
" X....  oooooooooooooooo  .... X",
" X   . oooooooooooooooooo .    X",
" X                             X",
" X.                          . X",
" X..   OOOOOOOOOOOOOOOOOO   .. X",
" X... OO      OOOO      OO ... X",
" X..                        .. X",
" X..    OO        OO        .. X",
" X.. O  O      OO O       O .. X",
" X.. O         O          O .. X",
" X.. O O      OO O      O O .. X",
" X...  OO    OOOO O    O O ... X",
" X... O OOOOOOOOO OOOOOO O ... X",
" X... O OOOOO OOOO OOOOO O ... X",
" X....  OOO   OOOO  OOOO  .... X",
" X...... O OOO    OO OO ...... X",
" X...... O  OOOOOOOO  O ...... X",
" X...... OO          OO ...... X",
" X....... OO  ++++  OO ....... X",
" X........ OO      OO ........ X",
" X......... OOOOOOOO ......... X",
" X.......... OOOOOO .......... X",
"                               X",
"XXXXXXXXXXXXXXXXXXXXXXXXXXXXXXXX"
};
