/* XPM */
static char *magick[] = {
/* columns rows colors chars-per-pixel */
"32 32 4 1",
"  c Gray0",
". c #d2b48c",
"X c #a0522d",
"o c LemonChiffon",
/* pixels */
"                                ",
" .............................. ",
" ........  .................... ",
" .......    ................... ",
" ........  .................... ",
" ........  .................... ",
" .......    ................... ",
" ........  .................... ",
" .............................. ",
" ...             ...       .... ",
" ... XXXXXXXXXX.o... XXXX.o.... ",
" ... X..........o... X....o.... ",
" ... X..........o... X....o.... ",
" ... X..........o... X....o.... ",
" ... X..........o... X....o.... ",
" ... X..........o... X....o.... ",
" ... X..........o... X....o.... ",
" ... X..........o... X....o.... ",
" ... ...........o... .....o.... ",
" ...ooooooooooooo...ooooooo.... ",
" .............................. ",
" ........  ...........  ....... ",
" .......    .........    ...... ",
" ......      ........    ...... ",
" ........  ...........  ....... ",
" ........  ...........  ....... ",
" ........  ...........  ....... ",
" ......      ........    ...... ",
" .......    .........    ...... ",
" ........  ...........  ....... ",
" .............................. ",
"                                "
};
