/* XPM */
static char * XmIconGadget_xpm[] = {
"32 32 3 1",
" 	c None",
".	c #D2B48C",
"+	c #000000",
"................................",
"................................",
"................................",
"......++........................",
"......++........................",
"......++..+++...+++..+++++......",
"......++.+++++.+++++.++++++.....",
"......++.++.++.++.++.++..++.....",
"......++.++....++.++.++..++.....",
"......++.++.++.++.++.++..++.....",
"......++.+++++.+++++.++..++.....",
"......++..+++...+++..++..++.....",
"................................",
"................................",
".++++.......................++..",
"++++++.........++...........++..",
"++..++.........++...........++..",
"++......+++....++..++...++..+++.",
"++.....+++++..+++.++++.++++.+++.",
"++.+++....++.++++.++++.++.+.++..",
"++.+++..++++.+.++.+.++.++++.++..",
"++..++.++.++.+.++.+.++.++...++..",
"++++++.+++++.++++.++++.++++.++++",
".++++...+++...+++.++++..++...+++",
"....................++..........",
"....................++..........",
"....................++..........",
"..................++++..........",
"................................",
"................................",
"................................",
"................................"};
