/* XPM */
static char *magick[] = {
/* columns rows colors chars-per-pixel */
"32 32 2 1",
"  c Gray0",
". c #d2b48c",
/* pixels */
"                                ",
" .............................. ",
" .............................. ",
" .............................. ",
" .............................. ",
" .............................. ",
" .............................. ",
" .............................. ",
" .............................. ",
" .  .........  ............  .. ",
" .  .........  ............  .. ",
" .  ...    ..  ......    ..  .. ",
" .  ......  .     ..  ..  .  .. ",
" .  ...     .  ..  .      .  .. ",
" .  ..  ..  .  ..  .  .....  .. ",
" .  ..  ..  .  ..  .  ..  .  .. ",
" .    .     .     ...    ..  .. ",
" .............................. ",
" .............................. ",
" .............................. ",
" .............................. ",
" .............................. ",
" .............................. ",
" .............................. ",
" .............................. ",
" .............................. ",
" .............................. ",
" .............................. ",
" .............................. ",
" .............................. ",
" .............................. ",
"                                "
};
