/* XPM */
static char *magick[] = {
/* columns rows colors chars-per-pixel */
"32 32 5 1",
"  c Gray0",
". c #d2b48c",
"X c peru",
"o c Gray100",
"O c LemonChiffon",
/* pixels */
"OOOOOOOOOOOOOOOOOOOOOOOOOOOOOOOO",
"OOOOOOOOOOOOOOOOOOOOOOOOOOOOOOOX",
"OO............................XX",
"OO............................XX",
"OO....                    ....XX",
"OO....                  . ....XX",
"OO....  ................. ....XX",
"OO....  .   .   .   . ... ....XX",
"OO....  .. ..  ... .. ... ....XX",
"OO....  .. .... .. .. ... ....XX",
"OO....  .   .   .. ..   . ....XX",
"OO....  ooooooooooooooooo ....XX",
"OO....  o ooo   o   o   o ....XX",
"OO....  o oooo oo  ooo oo ....XX",
"OO....  o oooo oooo oo oo ....XX",
"OO....  o   o   o   oo oo ....XX",
"OO....  ooooooooooooooooo ....XX",
"OO....  .   .   . ...   . ....XX",
"OO....  .  ... .. .... .. ....XX",
"OO....  ... .. .. .... .. ....XX",
"OO....  .   .. ..   .   . ....XX",
"OO....  ................. ....XX",
"OO....  .   . ...   .   . ....XX",
"OO....  .. .. .... ..  .. ....XX",
"OO....  .. .. .... .... . ....XX",
"OO....  .. ..   .   .   . ....XX",
"OO.... .................. ....XX",
"OO....                    ....XX",
"OO............................XX",
"OO............................XX",
"OOXXXXXXXXXXXXXXXXXXXXXXXXXXXXXX",
"OXXXXXXXXXXXXXXXXXXXXXXXXXXXXXXX"
};
