/* XPM */
static char *magick[] = {
/* columns rows colors chars-per-pixel */
"32 32 6 1",
"  c Gray0",
". c #d2b48c",
"X c peru",
"o c #a0522d",
"O c Gray100",
"+ c LemonChiffon",
/* pixels */
"+++++++++++++++++++++++++++++++ ",
"+..........+.....o............. ",
"+.   ..   .+.   .o.   .....   . ",
"+..........+.....o............. ",
"+          +oooooo+             ",
"...........+OOOOOOO ............",
"...........+O.....o ............",
"...        +O.   .o     .      O",
"... .......+O.....o ...+. XX XXO",
"... .......+O.   .o ...+. XO. XO",
"... .......+O.....o ...+. O... O",
"... .......+O.   .o ...+. O    O",
"... .......+O.....o ...+. XXXXXO",
"... .......+O.   .o ...+. XXXXXO",
"... .......+O.....o ...+. OOOOOO",
"... .......+Ooooooo ...+. O... O",
"... .......+        ...+. O... O",
"... ...................+. O... O",
"... ...................+.      O",
"... ...................+. XXXXXO",
"... ...................+. OOOO O",
"... ...................+. O... O",
"... ...................+. XO. XO",
"... ++++++++++++++++++++. XX XXO",
"......................... OOOOOO",
"...                     ........",
"... XXXOOXXXOOOO XOOXXXO........",
"... XXO. XXXO... XO.OXXO........",
"... X .. XXXO... XO.. XO........",
"... XX . XXXO... XO. XXO........",
"... XXX  XXXO    X  XXXO........",
"... OOOOOOOOOOOOOOOOOOOO........"
};
