/* XPM */
static char *magick[] = {
/* columns rows colors chars-per-pixel */
"32 32 4 1",
"  c Gray0",
". c #d2b48c",
"X c peru",
"o c LemonChiffon",
/* pixels */
"                                ",
" .............................. ",
" .............................. ",
" ....  ..  .................... ",
" ...    .  ....     ....    ... ",
" ....  ..  ...       ..  ..  .. ",
" ........  ..   ...   .  ..  .. ",
" ...   ..  ..  . ...  .  ..  .. ",
" ....  ..  ..  .. ..  ....  ... ",
" ....  ..  ..  ... .  ...  .... ",
" ....  ......   ...   ......... ",
" ....  ..  ...       ....  .... ",
" ...    .  .....   ......  .... ",
" .............................. ",
" .............................. ",
" .............................. ",
" .                            . ",
" .oooooooooooooooooooooooooooo. ",
" .............................. ",
" .............................. ",
" .............................. ",
" .............................. ",
" .ooooooo ..ooooooo ..ooooooo . ",
" .o...... ..o...... ..o...... . ",
" .o.....X ..o.....X ..o.....X . ",
" .o.XXXXX ..o.XXXXX ..o.XXXXX . ",
" .o       ..o       ..o       . ",
" .............................. ",
" .............................. ",
" .............................. ",
" .............................. ",
"                                "
};
