/* XPM */
static char *magick[] = {
/* columns rows colors chars-per-pixel */
"32 32 4 1",
"  c Gray0",
". c #d2b48c",
"X c #a0522d",
"o c LemonChiffon",
/* pixels */
"XXXXXXXXXXXXXXXXXXXXXXXXXXXXXXXX",
"X..............................o",
"X..............................o",
"X..                         ...o",
"X.. .......................o...o",
"X.. .......................o...o",
"X.. .......................o...o",
"X.. .......................o...o",
"X.. .......................o...o",
"X.. .......................o...o",
"X.. .......................o...o",
"X.. oooooooooooooooooooooooo...o",
"X..................oooooo .....o",
"X.XXXXXXXXXXXXXXXXXoo...X XXXX.o",
"X.XXXXXXXXXXXXXXXXXoo...X XXXX.o",
"X.oooooooooooooooo.oo...X .ooo.o",
"X..................oo...X .....o",
"X..                oXXXXX   ...o",
"X.. ...............       .o...o",
"X.. .......................o...o",
"X.. .......................o...o",
"X.. .......................o...o",
"X.. .......................o...o",
"X.. .......................o...o",
"X.. .......................o...o",
"X.. .......................o...o",
"X.. .......................o...o",
"X.. oooooooooooooooooooooooo...o",
"X..............................o",
"X..............................o",
"X..............................o",
"Xooooooooooooooooooooooooooooooo"
};
