/* XPM */
static char * XmPaned_xpm[] = {
"32 32 5 1",
" 	c None",
".	c #A0522D",
"+	c #D2B48C",
"@	c #FFFACD",
"#	c #000000",
"................................",
".++++++++++++++++++++++++++++++@",
".++++++++++++++++++++++++++++++@",
".++#########################+++@",
".++#+++++++++++++++++++++++@+++@",
".++#+++++++++++++++++++++++@+++@",
".++#+++++++++++++++++++++++@+++@",
".++#@@@@@@@@@@@@@@@@@@@@@@@@+++@",
".++++++++++++++++++@@@@@@#+++++@",
".+.................@@+++.#....+@",
".+.................@@+++.#....+@",
".+@@@@@@@@@@@@@@@@+@@+++.#+@@@+@",
".++++++++++++++++++@@+++.#+++++@",
".++################@.....###+++@",
".++#+++++++++++++++#######+@+++@",
".++#+++++++++++++++++++++++@+++@",
".++#+++++++++++++++++++++++@+++@",
".++#+++++++++++++++++++++++@+++@",
".++#@@@@@@@@@@@@@@@@@@@@@@@@+++@",
".++++++++++++++++++++++++++++++@",
".+............................+@",
".+............................+@",
".+@@@@@@@@@@@@@@@@@@@@@@@@@@@@+@",
".++++++++++++++++++++++++++++++@",
".++#########################+++@",
".++#+++++++++++++++++++++++@+++@",
".++#+++++++++++++++++++++++@+++@",
".++#@@@@@@@@@@@@@@@@@@@@@@@@+++@",
".++++++++++++++++++++++++++++++@",
".++++++++++++++++++++++++++++++@",
".++++++++++++++++++++++++++++++@",
".@@@@@@@@@@@@@@@@@@@@@@@@@@@@@@@"};
