/* XPM */
static char *magick[] = {
/* columns rows colors chars-per-pixel */
"32 32 4 1",
"  c Gray0",
". c #d2b48c",
"X c peru",
"o c LemonChiffon",
/* pixels */
"                                ",
" .............................. ",
" .............................. ",
" .............................. ",
" .............................. ",
" .............................. ",
" .............................. ",
" ...ooooooooooooooooooooooo ... ",
" ...o...................... ... ",
" ...o.....................X ... ",
" ...o.....................X ... ",
" ...o....    ...  ..  ....X ... ",
" ...o...  ..  ..  .  .....X ... ",
" ...o...  ..  ..    ......X ... ",
" ...o...  ..  ..   .......X ... ",
" ...o...  ..  ..    ......X ... ",
" ...o...  ..  ..  .  .....X ... ",
" ...o...  ..  ..  ..  ....X ... ",
" ...o....    ...  ...  ...X ... ",
" ...o.....................X ... ",
" ...o.....................X ... ",
" ...o.....................X ... ",
" ...o.XXXXXXXXXXXXXXXXXXXXX ... ",
" ...o                       ... ",
" .............................. ",
" .............................. ",
" .............................. ",
" .............................. ",
" .............................. ",
" .............................. ",
" .............................. ",
"                                "
};
