/* XPM */
static char *magick[] = {
/* columns rows colors chars-per-pixel */
"32 32 3 1",
"  c Gray0",
". c #d2b48c",
"X c Gray100",
/* pixels */
"                                ",
" .............................. ",
" .............................. ",
" .............................. ",
" ...XXXXXX ..XXXXXX ..XXXXXX .. ",
" ...X..... ..X..... ..X..... .. ",
" ...X..... ..X..... ..X..... .. ",
" ...       ..       ..       .. ",
" .............................. ",
" .............................. ",
" ...XXXXXX ..XXXXXX ..XXXXXX .. ",
" ...X..... ..X..... ..X..... .. ",
" ...X..... ..X..... ..X..... .. ",
" ...       ..       ..       .. ",
" .............................. ",
" .............................. ",
" ...XXXXXX ..XXXXXX ..XXXXXX .. ",
" ...X..... ..X..... ..X..... .. ",
" ...X..... ..X..... ..X..... .. ",
" ...       ..       ..       .. ",
" .............................. ",
" .............................. ",
" ...XXXXXX ..XXXXXX ..XXXXXX .. ",
" ...X..... ..X..... ..X..... .. ",
" ...X..... ..X..... ..X..... .. ",
" ...       ..       ..       .. ",
" .............................. ",
" .............................. ",
" .............................. ",
" .............................. ",
" .............................. ",
"                                "
};
