/* XPM */
static char *magick[] = {
/* columns rows colors chars-per-pixel */
"32 32 4 1",
"  c Gray0",
". c #d2b48c",
"X c peru",
"o c Gray100",
/* pixels */
"                     ..        o",
" ...................o.. XXX XXXo",
" ...................o.. XXo. XXo",
" ...................o.. Xo... Xo",
" ...................o.. o..... o",
" ...................o.. o      o",
" ...................o.. XXXXXXXo",
" ...................o.. XXXXXXXo",
" ...................o.. XXXXXXXo",
" ...................o.. oooooooo",
" ...................o.. o..... o",
" ...................o.. o..... o",
" ...................o.. o..... o",
" ...................o..        o",
" ...................o.. XXXXXXXo",
" ...................o.. XXXXXXXo",
" ...................o.. XXXXXXXo",
" ...................o.. oooooo o",
" ...................o.. o..... o",
" ...................o.. Xo... Xo",
" oooooooooooooooooooo.. XXo. XXo",
"....................... XXX XXXo",
"....................... oooooooo",
"                       ........o",
" XXXooXXXoooo XXXooXXXo........o",
" XXo. XXXo... XXXo.oXXo........o",
" Xo.. XXXo... XXXo..oXo........o",
"  ... XXXo... XXXo... o........o",
" X .. XXXo... XXXo.. Xo........o",
" XX . XXXo... XXXo. XXo........o",
" XXX  XXXo    XXX  XXXo........o",
" ooooooooooooooooooooooooooooooo"
};
