/* XPM */
static char *magick[] = {
/* columns rows colors chars-per-pixel */
"32 32 4 1",
"  c Gray0",
". c #d2b48c",
"X c peru",
"o c Gray100",
/* pixels */
"                                ",
" ..........         o.......... ",
" .......... XXXo XXXo.......... ",
" .......... XXXo XXXo.......... ",
" .......... XXo.. XXo.......... ",
" .......... XXo.. XXo.......... ",
" .......... Xo.... Xo.......... ",
" .......... o...... o.......... ",
" ..........         o.......... ",
" .......... XXXXXXXXo.......... ",
" .......... XXXXXXXXo.......... ",
" .......... XXXXXXXXo.......... ",
" .......... XXXXXXXXo.......... ",
" .......... ooooooooo.......... ",
" .......... o...... o.......... ",
" .......... o...... o.......... ",
" .......... o...... o.......... ",
" .......... o       o.......... ",
" .......... XXXXXXXXo.......... ",
" .......... XXXXXXXXo.......... ",
" .......... XXXXXXXXo.......... ",
" .......... XXXXXXXXo.......... ",
" .......... XXXXXXXXo.......... ",
" .......... ooooooooo.......... ",
" .......... o...... o.......... ",
" .......... Xo.... Xo.......... ",
" .......... XXo.. XXo.......... ",
" .......... XXo.. XXo.......... ",
" .......... XXXo XXXo.......... ",
" .......... XXXo XXXo.......... ",
" ..........oooooooooo.......... ",
"                                "
};
