/* XPM */
static char *magick[] = {
/* columns rows colors chars-per-pixel */
"32 32 5 1",
"  c Gray0",
". c #d2b48c",
"X c peru",
"o c #a0522d",
"O c LemonChiffon",
/* pixels */
"OOOOOOOOOOOOOOOOOOOOOOOOOOOOOOOO",
"OOOOOOOOOOOOOOOOOOOOOOOOOOOOOOOX",
"OO............................XX",
"OO............................XX",
"OO............................XX",
"OO............................XX",
"OO.....oooooooooooooooooo.....XX",
"OO....o..................o....XX",
"OO...o..oooooooooooooooo..o...XX",
"OO..o..o................o..o..XX",
"OO..o.o..................o.o..XX",
"OO..o.o.......    .......o.o..XX",
"OO..o.o......  ..  ......o.o..XX",
"OO..o.o......  ..........o.o..XX",
"OO..o.o......  ..........o.o..XX",
"OO..o.o.......    .......o.o..XX",
"OO..o.o..........  ......o.o..XX",
"OO..o.o..........  ......o.o..XX",
"OO..o.o..........  ......o.o..XX",
"OO..o.o......  ..  ......o.o..XX",
"OO..o.o.......    .......o.o..XX",
"OO..o.o..................o.o..XX",
"OO..o..o................o..o..XX",
"OO...o..oooooooooooooooo..o...XX",
"OO....o..................o....XX",
"OO.....oooooooooooooooooo.....XX",
"OO............................XX",
"OO............................XX",
"OO............................XX",
"OO............................XX",
"OOXXXXXXXXXXXXXXXXXXXXXXXXXXXXXX",
"OXXXXXXXXXXXXXXXXXXXXXXXXXXXXXXX"
};
