/* XPM */
static char * spin_bm_xpm[] = {
"32 32 6 1",
" 	c None",
".	c #D2B48C",
"+	c #A0522D",
"@	c #FFFACD",
"#	c #FFFFFF",
"$	c #000000",
"................................",
"........++++++++++++++++........",
"........+++++++++++++++@........",
"........++............@@........",
"........++........####@@........",
"........++.$$$$....#..@@........",
"........++$...$$....#.@@........",
"........++..$$$$...#..@@........",
"........++$$..$$....#.@@........",
".....$..++$$..$$...#..@@..$.....",
"....$$..++.$$$$.$$..#.@@..$$....",
"...$$$..++........####@@..$$$...",
"..$$$$..++............@@..$$$$..",
".$$$$$..++@@@@@@@@@@@@@@..$$$$$.",
"$$$$$$..+@@@@@@@@@@@@@@@..$$$$$$",
"$$$$$$....................$$$$$$",
".$$$$$....................$$$$$.",
"..$$$$..++++++++++++++++..$$$$..",
"...$$$..+++++++++++++++@..$$$...",
"....$$..++............@@..$$....",
".....$..++.$$.....####@@..$.....",
"........++.$$......#..@@........",
"........++.$$.......#.@@........",
"........++.$$$$$...#..@@........",
"........++.$$..$$...#.@@........",
"........++.$$..$$..#..@@........",
"........++.$$$$$$...#.@@........",
"........++.$$$$$..####@@........",
"........++............@@........",
"........++@@@@@@@@@@@@@@........",
"........+@@@@@@@@@@@@@@@........",
"................................"};
