/* XPM */
static char *magick[] = {
/* columns rows colors chars-per-pixel */
"32 32 5 1",
"  c Gray0",
". c #d2b48c",
"X c peru",
"o c Gray100",
"O c LemonChiffon",
/* pixels */
"                                ",
" .............................. ",
" .............................. ",
" .............................. ",
" ..............oo.............. ",
" .............oooo............. ",
" ............ooO.oo............ ",
" ...........ooO.O.oo........... ",
" ..........ooO.O.O.oo.......... ",
" ..........  .O.O.O  .......... ",
" ...........  .O.O  ........... ",
" ............  .O  ............ ",
" .............    ............. ",
" ..............  .............. ",
" .............................. ",
" .............................. ",
" .............................. ",
" ..............  .............. ",
" .............    ............. ",
" ............  XX  ............ ",
" ...........  XXXX  ........... ",
" ..........  XXXXXX  .......... ",
" ..........ooXXXXXXoo.......... ",
" ...........ooXXXXoo........... ",
" ............ooXXoo............ ",
" .............oooo............. ",
" ..............oo.............. ",
" .............................. ",
" .............................. ",
" .............................. ",
" .............................. ",
"                                "
};
