/* XPM */
static char *magick[] = {
/* columns rows colors chars-per-pixel */
"32 32 5 1",
"  c Gray0",
". c #d2b48c",
"X c #a0522d",
"o c Gray100",
"O c LemonChiffon",
/* pixels */
"                                ",
" .............................. ",
" .............................. ",
" ..XXXXXXXXXXXXXXXXXXXXXXXXX... ",
" ..XXXXXXXXXXXXXXXXXXXXXXXOO... ",
" ..XX.....................OO... ",
" ..XX.....................OO... ",
" ..XX....    .............OO... ",
" ..XX... ...  ............OO... ",
" ..XX.....    ............OO... ",
" ..XX...  ..  ............OO... ",
" ..XX...  ..  ............OO... ",
" ..XX....    . ...........OO... ",
" ..XX............oooo.....OO... ",
" ..XX..............o......OO... ",
" ..XX.............o.......OO... ",
" ..XX....    ......o......OO... ",
" ..XX... ...  ....o.......OO... ",
" ..XX.....    .....o......OO... ",
" ..XX...  ..  ....o.......OO... ",
" ..XX...  ..  .....o......OO... ",
" ..XX....    . ...o.......OO... ",
" ..XX............oooo.....OO... ",
" ..XX.....................OO... ",
" ..XX.....................OO... ",
" ..XX.....................OO... ",
" ..XOOOOOOOOOOOOOOOOOOOOOOOO... ",
" ..OOOOOOOOOOOOOOOOOOOOOOOOO... ",
" .............................. ",
" .............................. ",
" .............................. ",
"                                "
};
