/* XPM */
static char *xmtree[]={
"32 32 8 1",
"# c #000000",
"f c #171410",
"a c #463c2f",
"c c #74644e",
"e c #8c785d",
"b c #a38c6d",
"d c #baa07c",
". c #d2b48c",
"................................",
"................................",
"................................",
"................................",
"....######a.........########....",
"....######a.....ab..########....",
"....aaaaaac...deab..aaaaaaaa....",
"..............e#................",
".............aa.................",
"....aaaaaac.affaab..aaaaaaaa....",
"....######a.affaab..########....",
"....######a..aa.....########....",
"..............e#................",
"..............deab..............",
"................ab..eeeeeeee....",
"....................########....",
"....................########....",
"....aaaaaac.........eeeeeeee....",
"....######a.....................",
"....######a.....................",
"....................########....",
"................ab..########....",
"..............deab..aaaaaaaa....",
"..............e#................",
"....######a.##a.................",
"....######a.eeca....aaaaaaaa....",
"....aaaaaac...baed..########....",
"................#e..########....",
"................................",
"................................",
"................................",
"................................"};
