/* XPM */
static char *magick[] = {
/* columns rows colors chars-per-pixel */
"32 32 3 1",
"  c Gray0",
". c #d2b48c",
"X c LemonChiffon",
/* pixels */
"................................",
".                             X.",
". ........................... X.",
". .      X.        X.      X. X.",
". . .... X. ...... X. .... X. X.",
". . .  . X. ...... X. .  . X. X.",
". . .... X.        X. .... X. X.",
". . .  . X.XXXXXXXXX. .  . X. X.",
". . .... X.        X. .... X. X.",
". . .  . X. ...... X. .  . X. X.",
". . .... X. ...... X. .... X. X.",
". . .  . X. ...... X. .  . X. X.",
". . .... X.        X. .... X. X.",
". . .  . X.XXXXXXXXX. .  . X. X.",
". . .... X.        X. .... X. X.",
". . .... X. ...... X. .... X. X.",
". .      X. ...... X.      X. X.",
". .XXXXXXX.        X.XXXXXXX. X.",
". .........XXXXXXXXX......... X.",
". ........................... X.",
". ........................... X.",
". .                         X X.",
". . ....................... X X.",
". . .   . . .  ... .. . . . X X.",
". . .. ..   . ... . . . . . X X.",
". . .. .. . .  ...  .. .. . X X.",
". . ....................... X X.",
". .                         X X.",
". .XXXXXXXXXXXXXXXXXXXXXXXXXX X.",
".                             X.",
".XXXXXXXXXXXXXXXXXXXXXXXXXXXXXX.",
"................................"
};
