/* XPM */
static char *magick[] = {
/* columns rows colors chars-per-pixel */
"32 32 7 1",
"  c Gray0",
". c #d2b48c",
"X c Cyan",
"o c Green",
"O c Red",
"+ c LemonChiffon",
"@ c Blue",
/* pixels */
"................................",
".                             +.",
". +++++++++++++++++++++++++++ +.",
". +.                       .. +.",
". + OOOO  OOOOOOOOOOOOOOOOO . +.",
". + OOOO  OOOOOOOOOOOOOOOOO . +.",
". +.                       +. +.",
". +.+++++++++++++++++++++++.. +.",
". +.                       .. +.",
". + oooooooooo  ooooooooooo . +.",
". + oooooooooo  ooooooooooo . +.",
". +.                       +. +.",
". +.+++++++++++++++++++++++.. +.",
". +.                       .. +.",
". + @@@@@@@@@@@@@@@  @@@@@@ . +.",
". + @@@@@@@@@@@@@@@  @@@@@@ . +.",
". +.                       +. +.",
". +.+++++++++++++++++++++++.. +.",
". +                         . +.",
". + XXXXXXXXXXXXXXXXXXXXXXX + +.",
". + XXXXXXXXXXXXXXXXXXXXXXX + +.",
". + XXXXXXXXXXXXXXXXXXXXXXX + +.",
". + XXXXXXXXXXXXXXXXXXXXXXX + +.",
". + XXXXXXXXXXXXXXXXXXXXXXX + +.",
". + XXXXXXXXXXXXXXXXXXXXXXX + +.",
". + XXXXXXXXXXXXXXXXXXXXXXX + +.",
". + XXXXXXXXXXXXXXXXXXXXXXX + +.",
". +                         + +.",
". +.+++++++++++++++++++++++++ +.",
".                             +.",
".++++++++++++++++++++++++++++++.",
"................................"
};
