/* XPM */
static char *magick[] = {
/* columns rows colors chars-per-pixel */
"32 32 7 1",
"  c Gray0",
". c #d2b48c",
"X c Green",
"o c Red",
"O c Yellow",
"+ c LemonChiffon",
"@ c Blue",
/* pixels */
"..+ ............................",
"..+ ............................",
"..+ ............................",
"..+ ............................",
"..+ ............................",
"+++ .......      ...............",
"    ....... oooo ...............",
"..+ ....... oooo ...............",
"..+ ....... oooo .......     ...",
"..+         oooo ....... XXX ...",
"..+ @@@@@@@ oooo ....... XXX ...",
"..+ @@@@@@@ oooo ....... XXX ...",
"..+ @@@@@@@ oooo ....... XXX ...",
"..+ @@@@@@@ oooo ....... XXX ...",
"..+ @@@@@@@ oooo ....... XXX ...",
".++ @@@@@@@ oooo         XXX ...",
".   @@@@@@@ oooo OOOOOOO XXX ...",
"..+ @@@@@@@ oooo OOOOOOO XXX ...",
"..+ @@@@@@@ oooo OOOOOOO XXX ...",
"..+ @@@@@@@ oooo OOOOOOO XXX ...",
"..+ @@@@@@@ oooo OOOOOOO XXX ...",
"..+ @@@@@@@ oooo OOOOOOO XXX ...",
"..+ @@@@@@@ oooo OOOOOOO XXX ...",
"..+ @@@@@@@ oooo OOOOOOO XXX ...",
"..+ @@@@@@@ oooo OOOOOOO XXX ...",
"..+ @@@@@@@ oooo OOOOOOO XXX ...",
"                                ",
"+++ ++++ ++++ ++++ ++++ ++++ +++",
"..+ ...+ ...+ ...+ ...+ ...+ ...",
"..+ ........+ ........+ ........",
"..+ ............................",
"..+ ............................"
};
