/* XPM */
static char *magick[] = {
/* columns rows colors chars-per-pixel */
"32 32 7 1",
"  c Gray0",
". c #d2b48c",
"X c peru",
"o c #a0522d",
"O c Gray100",
"+ c Yellow",
"@ c LemonChiffon",
/* pixels */
"@@@@@@@@@@@@@@@@@@@@@@@@@@@@@@@ ",
"@.............................o ",
"@............      ...........o ",
"@..........  OOOOOO  .........o ",
"@........  OOOOOOOOOO  .......o ",
"@....... OOOOOOOOOOOOOO ......o ",
"@....... OOO@+@+@+@+OOO ......o ",
"@...... OOO@+X+X+X+X+@OO .....o ",
"@...... OO@+X+X+X+X+X+@O .....o ",
"@..... OO@+X+X+@+@+X+X+@O ....o ",
"@..... O@+X+X+@+@+@+X+@OO ....o ",
"@..... OO@+X+@@@@@+@+@O@O ....o ",
"@..... OO@O@ @@@@@@ @@O@O ....o ",
"@...... OO@@ @@@@@@ @O@O .....o ",
"@...... O@O@@ @@@@ @O@OO .....o ",
"@....... O@O@@ @@ @O@OO ......o ",
"@....... OO@O@ @@ O@OOO ......o ",
"@........ OO@  @@  @OO .......o ",
"@......... OO      OO ........o ",
"@.......... OO    OO .........o ",
"@........... O    O ..........o ",
"@...........        ..........o ",
"@.......... +..@@.++ .........o ",
"@...........        ..........o ",
"@.......... +..@@.++ .........o ",
"@...........        ..........o ",
"@.......... +..@@.++ .........o ",
"@...........  .@@.  ..........o ",
"@.............    ............o ",
"@.............................o ",
"@oooooooooooooooooooooooooooooo ",
"                                "
};
