/* XPM */
static char *magick[] = {
/* columns rows colors chars-per-pixel */
"32 32 10 1",
"  c Gray0",
". c #d2b48c",
"X c Cyan",
"o c Green",
"O c Magenta",
"+ c Red",
"@ c Gray100",
"# c Yellow",
"$ c LemonChiffon",
"% c Blue",
/* pixels */
"................................",
".                             $.",
". ........................... $.",
". .                         $ $.",
". .       @@@@@@++++++ooooo $ $.",
". .       @@@@@@++++++ooooo $ $.",
". .       @@@@@@++++++ooooo $ $.",
". .       @@@@@@++++++ooooo $ $.",
". .       @@@@@@++++++ooooo $ $.",
". .       @@@@@@++++++ooooo $ $.",
". . %%%%%%OOOOOO######XXXXX $ $.",
". . %%%%%%OOOOOO######XXXXX $ $.",
". . %%%%%%OOOOOO######XXXXX $ $.",
". . %%%%%%OOOOOO######XXXXX $ $.",
". . %%%%%%OOOOOO######XXXXX $ $.",
". . %%%%%%OOOOOO######XXXXX $ $.",
". .                         $ $.",
". .$$$$$$$$$$$$$$$$$$$$$$$$$$ $.",
". .                         $ $.",
". . ....................... $ $.",
". . ....................... $ $.",
". .                         $ $.",
". .$$$$$$$$$$$$$$$$$$$$$$$$$$ $.",
". .                         . $.",
". .$$$$$$$$$$$$$$$$$$$$$$$$$. $.",
". .      $............      $ $.",
". . .... $............ .... $ $.",
". .      $............      $ $.",
". .$$$$$$$............$$$$$$$ $.",
".                             $.",
".$$$$$$$$$$$$$$$$$$$$$$$$$$$$$$.",
"................................"
};
