/* XPM */
static char *magick[] = {
/* columns rows colors chars-per-pixel */
"32 32 5 1",
"  c Gray0",
". c #d2b48c",
"X c #a0522d",
"o c Red",
"O c LemonChiffon",
/* pixels */
"OOOOOOOOOOOOOOOOOOOOOOOOOOOOOOOO",
"OOOOOOOOOOOOOOOOOOOOOOOOOOOOOOO ",
"OO............................X ",
"OO............................X ",
"OO........ ... .... ..........X ",
"OO........ O.. O... O...  ....X ",
"OO... ....          O.. O ....X ",
"OO.... O.  OOOOOOOO  O O .....X ",
"OO.....  OO.......... O ......X ",
"OO..... O........... O O......X ",
"OO. .. O........... O . o. ...X ",
"OO.. O O.......... O .o O O...X ",
"OO... O.......... O ...o o O..X ",
"OO... O......... O ....o o O..X ",
"OO... O........ O .....o o O..X ",
"OO.   O......  O ......o o O..X ",
"OO... O...... O .......o o O..X ",
"OO... O......   .......o o O..X ",
"OO... O................o o O..X ",
"OO.  . ................ .  ...X ",
"OO...................... .....X ",
"OO............................X ",
"OO...  O............. O..  O..X ",
"OO.. O. O...........  O. O. O.X ",
"OO.. O. O............ O. O. O.X ",
"OO.. O. O............ O. O. O.X ",
"OO.. O. O............ O. O. O.X ",
"OO...  O............   O.  O..X ",
"OO............................X ",
"OO............................X ",
"OXXXXXXXXXXXXXXXXXXXXXXXXXXXXXX ",
"O                               "
};
