/* XPM */
static char *magick[] = {
/* columns rows colors chars-per-pixel */
"32 32 4 1",
"  c Gray0",
". c #d2b48c",
"X c peru",
"o c LemonChiffon",
/* pixels */
"                                ",
" ..................      o..... ",
" .... ............. XX XXo..... ",
" ...  o............ Xo. Xo..... ",
" .... o............ Xo. Xo..... ",
" .... o............ o... o..... ",
" ...   ...     ....      o..... ",
" ....ooo.. oooo.... XXXXXo..... ",
" ......... ........ XXXXXo..... ",
" ......... ........ XXXXXo..... ",
" .........   ...... XXXXXo..... ",
" ......... oo...... XXXXXo..... ",
" ......... ........ XXXXXo..... ",
" .........   ...... oooooo..... ",
" ......... oo...... o... o..... ",
" ......... ........ o... o..... ",
" .........    ..... o... o..... ",
" ......... ooo.....      o..... ",
" ......... ........ oooooo..... ",
" .........   ...... o... o..... ",
" ......... oo...... o... o..... ",
" ...  o... ........ o... o..... ",
" .. o. o..   ......      o..... ",
" .. o. o.. oo...... XXXXXo..... ",
" .. o. o.. ........ XXXXXo..... ",
" ...  o...     .... oooooo..... ",
" .........ooooo.... o... o..... ",
" .................. Xo. Xo..... ",
" .................. Xo. Xo..... ",
" .................. XX XXo..... ",
" ..................ooooooo..... ",
"                                "
};
