/* XPM */
static char *magick[] = {
/* columns rows colors chars-per-pixel */
"32 32 6 1",
"  c Gray0",
". c #d2b48c",
"X c peru",
"o c Red",
"O c Gray100",
"+ c LemonChiffon",
/* pixels */
"++++++++++++++++++++++++++++++++",
"+++++++++++++++++++++++++++++++ ",
"++............................X ",
"++............................X ",
"++...O .......  ........ O....X ",
"++..O ..O ..     .... O.. O...X ",
"++..O .O ...      .... O. O...X ",
"++..O .O ....   O  ... O. O...X ",
"++..O .O ...     O ... O. O...X ",
"++..O .O ....    O ... O. O...X ",
"++..O .O ...     O ... O. O...X ",
"++..O ..O ...    O .. O.. O...X ",
"++...O .....     O ..... O....X ",
"++...........   O  ...........X ",
"++..........      ............X ",
"++..........      ............X ",
"++............  ..............X ",
"++............  ..............X ",
"++.........        ...........X ",
"++.....                .......X ",
"++.... oooooooooooooooo ......X ",
"++.... o        ooo   o ......X ",
"++.... o++++++++ooo + o ......X ",
"++.... o        ooo   o ......X ",
"++.... oooooooooooooooo ......X ",
"++.....                .......X ",
"++......  ..........  ........X ",
"++.....    ........    .......X ",
"++....      ......      ......X ",
"++............................X ",
"++XXXXXXXXXXXXXXXXXXXXXXXXXXXXX ",
"+                               "
};
