/* XPM */
static char *magick[] = {
/* columns rows colors chars-per-pixel */
"32 32 5 1",
"  c Gray0",
". c #d2b48c",
"X c #a0522d",
"o c Gray100",
"O c LemonChiffon",
/* pixels */
"................................",
"OOOOOOOOOOOOO .                o",
"OOOOOOOOOOOOX . XXXXXXXXXXXXXXOo",
"OO..........X . X.............Oo",
"OO....o ....X . X.............Oo",
"OO....o ....X . X.............Oo",
"OO...o.. ...X . X.............Oo",
"OO...o.. ...X . X.............Oo",
"OO..o.... ..X . X.............Oo",
"OO..o.... ..X . X.............Oo",
"OO.o...... .X . X.    ........Oo",
"OO.o       .X . X.. ....    ..Oo",
"OO.        .X . X... ..  ..  .Oo",
"OO..........X . X.. ...  ..  .Oo",
"OXXXXXXXXXXXX . X... ..  ..  .Oo",
"O             . X.. ...  ..  .Oo",
"OOOOOOOOOOOOO . X... ..  ..  .Oo",
"OOOOOOOOOOOOX . X.. ...  ..  .Oo",
"OO..........X . X... ...    ..Oo",
"OO.oooooooo.X . X.. ..........Oo",
"OO.ooooooo .X . X.    ........Oo",
"OO.o...... .X . X.............Oo",
"OO..o.... ..X . X.............Oo",
"OO..o.... ..X . X.............Oo",
"OO...o.. ...X . X.............Oo",
"OO...o.. ...X . X.............Oo",
"OO....o ....X . X.............Oo",
"OO....o ....X . X.............Oo",
"OO..........X . X.............Oo",
"OXXXXXXXXXXXX . XOOOOOOOOOOOOOOo",
"              . oooooooooooooooo",
"................................"
};
