/* XPM */
static char *xrt3dlndd[]={
"75 14 2 1",
". c None",
"# c #000000",
"...........................................................................",
"...........................................................................",
"...........................................................................",
"...........................................................................",
"...........................................................................",
"...........................................................................",
"###############....##....###############....##....###############....##....",
"###############....##....###############....##....###############....##....",
"...........................................................................",
"...........................................................................",
"...........................................................................",
"...........................................................................",
"...........................................................................",
"..........................................................................."};
