/* XPM */
static char *xrt3dsymbolcross[]={
"20 20 2 1",
". c None",
"# c #000000",
"....................",
"....................",
"....................",
"....................",
"....................",
"....................",
"........##..........",
"........##..........",
"........##..........",
".....########.......",
".....########.......",
"........##..........",
"........##..........",
"........##..........",
"....................",
"....................",
"....................",
"....................",
"....................",
"...................."};
