/* XPM */
static char * Xrt3d_bm_xpm[] = {
"32 32 8 1",
" 	c #FFFFFAFACDCD",
".	c #CDCD85853F3F",
"X	c #D2D2B4B48C8C",
"o	c #000000000000",
"O	c #00000000FFFF",
"+	c #FFFF00000000",
"@	c #0000FFFF0000",
"#	c #FFFFFFFF0000",
"                               .",
" XXXXXXXXXXXXXXXXXXXXXXXXXXXXXX.",
" XXXXXXXXXXXXXoooooXXXXXXXXXXXX.",
" XXXXXXXoooooo  o  ooooXXXXXXXX.",
" XXXoooo        o      ooooXXXX.",
" Xoo            o          oooX.",
" Xo           oooo           oX.",
" Xo          oOOOOoo         oX.",
" XXo      oooOOOoo++o       oXX.",
" XXo     oOOOOOo+++++o      oXX.",
" XXo    oOOOOOo+++oooo      oXX.",
" XXo   oOOOOOo+++oo@@o      oXX.",
" XXXo oOOOOOo+++oo@@@@o    oXXX.",
" XXXo oOOOoo+++oo@@@@ooo   oXXX.",
" XXXooXoOo++++oo@@@oo###o  oXXX.",
" XXXoo Xo++++oo@@@o###ooo  oXXX.",
" XXXXoX oo++oo@@@o###o X oooXXX.",
" XXXXo Xo o+o@@@o###o X X oXXXX.",
" XXXXoX oXoo@@@o###o X X XoXXXX.",
" XXXXo Xo o o@o####oX X X oXXXX.",
" XXXXoX oXoXoo####oX X X XoXXXX.",
" XoooXoXo o o####oX X X XooXXXX.",
" XXXXXXooXoXoo#ooX X X ooXoXXXX.",
" XXXoooXo o o o X X XooXXXXoXXX.",
" XXXXXXXXooXoXoX X ooXoXXXXXXXX.",
" XXXXXXXXXo o o XooXXXXoXXXXXXX.",
" XXXXXXoooXooXoXoXoXXXXXXXXXXXX.",
" XXXXXXXXXXXo ooXXXoXXXXXXXXXXX.",
" XXXXXXXXXXXXooXXXXXXXXXXXXXXXX.",
" XXXXXXXXXoooXXoXXXXXXXXXXXXXXX.",
" XXXXXXXXXXXXXXXXXXXXXXXXXXXXXX.",
"................................"};
