/* XPM */
static char */tmp/tmp[] = {
/* width height ncolors chars_per_pixel */
"32 32 4 1",
/* colors */
"  c #000000",
". c #D2B48C",
"X c #CD853F",
"o c #808080",
/* pixels */
"                                ",
" .............................. ",
" .............................. ",
" .oooooooooooooooooooooooooooo. ",
" .o.......................... . ",
" .o.. ....... ..............X . ",
" .o...........oooooooooooo..X . ",
" .o.. ooooo.. o.......... ..X . ",
" .o...o... ...o.........X ..X . ",
" .o.. o..X .. o.........X ..X . ",
" .o...o.XX ...o.XXXXXXXXX ..X . ",
" .o.. o    .. o           ..X . ",
" .o. . . . . . . . . . . . .X . ",
" .o.. ....... ..............X . ",
" .o.........................X . ",
" .o.. ....... ..............X . ",
" .o.........................X . ",
" .o.. ....... ..............X . ",
" .o...oooooo..ooooooooooo...X . ",
" .o.. o.... . o......... ...X . ",
" .o...o...X ..o........X ...X . ",
" .o.. o...X . o........X ...X . ",
" .o...o.XXX ..oXXXXXXXXX ...X . ",
" .o.. o     . o          ...X . ",
" .o. . . . . . . . . . . . .X . ",
" .o.. ....... ..............X . ",
" .o.........................X . ",
" .o.XXXXXXXXXXXXXXXXXXXXXXXXX . ",
" .                            . ",
" .............................. ",
" .............................. ",
"                                "
};
