/* XPM */
static char */tmp/tmp[] = {
/* width height ncolors chars_per_pixel */
"32 32 7 1",
/* colors */
"  c #000000",
". c #D2B48C",
"X c #CD853F",
"o c #FF0000",
"O c #808080",
"+ c #FFFF00",
"@ c #0000FF",
/* pixels */
"                                ",
" .............................. ",
" .............................. ",
" .............................. ",
" .............................. ",
" .............................. ",
" .............................. ",
" .OOOOOOOOOOOOOOOOOOOOOOOOOOO . ",
" .O.......................... . ",
" .O.........................X . ",
" .O.........................X . ",
" .O.        .       .       X . ",
" .O. ...... . ..... . ..... X . ",
" .O. .+..+. . .ooo. . ..@.. X . ",
" .O. ..++.. . .o.o. . .@.@. X . ",
" .O. ..++.. . .o.o. . .@.@. X . ",
" .O. .+..+. . .ooo. . @@@@@ X . ",
" .O. ...... . ..... . ..... X . ",
" .O.        .       .       X . ",
" .O.........................X . ",
" .O.........................X . ",
" .O.........................X . ",
" .O.XXXXXXXXXXXXXXXXXXXXXXXXX . ",
" .O                           . ",
" .............................. ",
" .............................. ",
" .............................. ",
" .............................. ",
" .............................. ",
" .............................. ",
" .............................. ",
"                                "
};
