/* XPM */
static char */tmp/tmp[] = {
/* width height ncolors chars_per_pixel */
"32 32 4 1",
/* colors */
"  c #7F7F7F",
". c #FFFFFF",
"X c #404040",
"o c #BFBFBF",
/* pixels */
"XXXXXXXXXXXXXXXXXXXXXXXXXXXXXXXX",
"XXXXXXXXXXXXXXXXXXXXXXXXXXXXXXXo",
"XXXXXXXXXXXXXXXXXXXXXXXXXXXXXXoo",
"XXX                          ooo",
"XXX                          ooo",
"XXX                          ooo",
"XXX                          ooo",
"XXX                          ooo",
"XXX                          ooo",
"XXX  .   .  ...   .....      ooo",
"XXX   . .   .  .    .        ooo",
"XXX    .    ...     .        ooo",
"XXX   . .   . .     .        ooo",
"XXX  .   .  .  .    .        ooo",
"XXX                          ooo",
"XXX                          ooo",
"XXX                          ooo",
"XXX .     ..  ...  .... .    ooo",
"XXX .    .  . .  . .    .    ooo",
"XXX .    .  . ...  ...  .    ooo",
"XXX .    .... .  . .    .    ooo",
"XXX .... .  . ...  .... .... ooo",
"XXX                          ooo",
"XXX                          ooo",
"XXX                          ooo",
"XXX                          ooo",
"XXX                          ooo",
"XXX                          ooo",
"XXX                          ooo",
"XXXooooooooooooooooooooooooooooo",
"XXoooooooooooooooooooooooooooooo",
"Xooooooooooooooooooooooooooooooo"
};
