/* XPM */
static char */tmp/tmp[] = {
/* width height ncolors chars_per_pixel */
"32 32 4 1",
/* colors */
"  c #000000",
". c #D2B48C",
"X c #FFFFFF",
"o c #FFFACD",
/* pixels */
"..o ............................",
"..o ............................",
"..o ............................",
"..o ............................",
"..o ............................",
"..o ............................",
"..o ............................",
"..o ......... .....   ..........",
".   ........ X .... X ..........",
".oo ....... XXX ...   ..........",
"..o .......     .... . .........",
"..o ........  . .... .. ........",
"..o ....... .... .. .... .......",
".   ...... ...... . ..... ..... ",
".oo ... . ........ ....... .   .",
"..o .. X .........  .......  X .",
"..o . XXX ....... .. .......   .",
"..o .     ....... ... ..........",
".   ............ ..... . .......",
".oo ............ ...... X ......",
"..o ........... ...... XXX .....",
"..o ........... ......          ",
"..o .   ...... .................",
".   . X  ..... .................",
".oo .   .  ..   ................",
"..o .......   X ................",
"..o .........   ................",
"..o ............................",
".                               ",
".oo ....o .....o .....o .....o .",
"..o ....o .....o .....o .....o .",
"..o ............................"
};
