/* XPM */
static char */tmp/tmp[] = {
/* width height ncolors chars_per_pixel */
"32 32 5 1",
/* colors */
"  c #000000",
". c #D2B48C",
"X c #CD853F",
"o c #FF0000",
"O c #808080",
/* pixels */
"                                ",
" .............................. ",
" .............................. ",
" .............................. ",
" .............................. ",
" .............................. ",
" .............................. ",
" ..OOOOOOOOOOOOOOOOOOOOOOOOOO . ",
" ..O......................... . ",
" ..O........................X . ",
" ..O........................X . ",
" ..O.oooooooooo.............X . ",
" ..O.ooooooo  o.. ..........X . ",
" ..O.ooooooo  o.  ..........X . ",
" ..O.oooooooooo  ...........X . ",
" ..O.ooooooooo  ............X . ",
" ..O.oooooooo  .............X . ",
" ..O.ooooooo  o.  ..........X . ",
" ..O.ooooooo oo.  ..........X . ",
" ..O.oooooooooo.............X . ",
" ..O........................X . ",
" ..O........................X . ",
" ..O.XXXXXXXXXXXXXXXXXXXXXXXX . ",
" ..O                          . ",
" .............................. ",
" .............................. ",
" .............................. ",
" .............................. ",
" .............................. ",
" .............................. ",
" .............................. ",
"                                "
};
