/* XPM */
static char */tmp/tmp[] = {
/* width height ncolors chars_per_pixel */
"32 32 4 1",
/* colors */
"  c #000000",
". c #D2B48C",
"X c #A0522D",
"o c #FFFACD",
/* pixels */
" XXXXXXXXXXXXXXXXXXXXXXXXXXXXXXX",
" o..............................",
" o...............oXX............",
" o...           .oXX.         ..",
" o...o......... .oXX.o....... ..",
" o...o......... .oXX.o....... ..",
" o...o......... .oXX.o....... ..",
" o...o......... .oXX.o....... ..",
" o...o......... .oXX.o....... ..",
" o...o......... .oXX.o....... ..",
" o...o......... .oXX.o....... ..",
" o...o......... .oXX.o....... ..",
" o...o......... .oXX.o....... ..",
" o...o......... .oXX.o....... ..",
" o...o......... .oXX.o....... ..",
" o...o......... .oXX.o....... ..",
" o...o......... .oXX.o....... ..",
" o...o......... .oXX.o....... ..",
" o...o......... ..XX.o....... ..",
" o...o........ ooooooo....... ..",
" o...o........ Xoooooo....... ..",
" o...o........ X....oo....... ..",
" o...o........ X....oo....... ..",
" o...o........ X....oo....... ..",
" o...o........ XXXXXoo....... ..",
" o...o........       o....... ..",
" o...o......... ..XX.o....... ..",
" o...oooooooooo .oXX.oooooooo ..",
" o...............oXX............",
" o...............oXX............",
" o..............................",
" ooooooooooooooooooooooooooooooo"
};
