/* XPM */
static char */tmp/tmp[] = {
/* width height ncolors chars_per_pixel */
"32 32 5 1",
/* colors */
"  c #000000",
". c #D2B48C",
"X c #CD853F",
"o c #808080",
"O c #FFFF00",
/* pixels */
"                                ",
" .............................. ",
" .............................. ",
" .............................. ",
" .............................. ",
" .............................. ",
" .............................. ",
" ..oooooooooooooooooooooooooo . ",
" ..o......................... . ",
" ..o........................X . ",
" ..o....   .................X . ",
" ..o... OOO ......  ... .. .X . ",
" ..o.. OOOOO .... .. .. . ..X . ",
" ..o. OO O OO .. .... .  ...X . ",
" ..o. OOOOOOO .. .... .  ...X . ",
" ..o. OOO OOO .. .... .  ...X . ",
" ..o. O OOO O .. ...  . . ..X . ",
" ..o.. O   O .... .. .. .. .X . ",
" ..o... OOO ......  ... .. .X . ",
" ..o....   .................X . ",
" ..o........................X . ",
" ..o........................X . ",
" ..o.XXXXXXXXXXXXXXXXXXXXXXXX . ",
" ..o                          . ",
" .............................. ",
" .............................. ",
" .............................. ",
" .............................. ",
" .............................. ",
" .............................. ",
" .............................. ",
"                                "
};
