/* XPM */
static char */tmp/tmp[] = {
/* width height ncolors chars_per_pixel */
"32 32 3 1",
/* colors */
"  c #000000",
". c #FFFFFF",
"X c #FFFACD",
/* pixels */
"...... .........................",
"...... ...  ... ..   ... ...  ..",
"...... .. .. ...... . ..... .. .",
"...... ..    .. ...  ... .. ....",
"...... .. .. ...... . ..... .. .",
"...... .. .. .. ..   ... ...  ..",
"...... .........................",
"                                ",
"...... XXXXXXXXXXXXXXXXXXXXXXXXX",
"..  .. XXXXXXXX XXXXXXXX XXXXXXX",
". .. . XXXXXXXXXXXXXXXXXXXXXXXXX",
". .. . XXXXXXXX XXXXXXXX XXXXXXX",
". .. . XXXXXXXXXXXXXXXXXXXXXXXXX",
"..  .. XXXXXXXX XXXXXXXX XXXXXXX",
"...... XXXXXXXXXXXXXXXXXXXXXXXXX",
". . .   X X X X X X X X X X X X ",
"...... XXXXXXXXXXXXXXXXXXXXXXXXX",
"... .. XXXXXXXX XXXXXXXX XXXXXXX",
"..  .. XXXXXXXXXXXXXXXXXXXXXXXXX",
"... .. XXXXXXXX XXXXXXXX XXXXXXX",
"... .. XXXXXXXXXXXXXXXXXXXXXXXXX",
"..   . XXXXXXXX XXXXXXXX XXXXXXX",
"...... XXXXXXXXXXXXXXXXXXXXXXXXX",
". . .   X X X X X X X X X X X X ",
"...... XXXXXXXXXXXXXXXXXXXXXXXXX",
"..  .. XXXXXXXX XXXXXXXX XXXXXXX",
". .. . XXXXXXXXXXXXXXXXXXXXXXXXX",
"... .. XXXXXXXX XXXXXXXX XXXXXXX",
".. ... XXXXXXXXXXXXXXXXXXXXXXXXX",
".    . XXXXXXXX XXXXXXXX XXXXXXX",
"...... XXXXXXXXXXXXXXXXXXXXXXXXX",
". . .   X X X X X X X X X X X X "
};
