/* XPM */
static char */tmp/tmp[] = {
/* width height ncolors chars_per_pixel */
"32 32 4 1",
/* colors */
"  c #000000",
". c #D2B48C",
"X c #CD853F",
"o c #808080",
/* pixels */
"                                ",
" .............................. ",
" .............................. ",
" .............................. ",
" .............................. ",
" .............................. ",
" .............................. ",
" .........ooooooooooooooooo ... ",
" .......oo................. ... ",
" ......o..................X ... ",
" .....o...................X ... ",
" ....o....................X ... ",
" ....o..     ... ...   ...X ... ",
" ...o..... .... . .. .. ..X ... ",
" ...o..... ... ... . .. ..X ... ",
" ...o..... ... ... .   ...X ... ",
" ...o..... ...     . .. ..X ... ",
" ...o..... ... ... . .. ..X ... ",
" ...o..... ... ... .   ...X ... ",
" ...o.....................X ... ",
" ...o.....................X ... ",
" ...o.....................X ... ",
" ...oXXXXXXXXXXXXXXXXXXXXXX ... ",
" ...o                       ... ",
" .............................. ",
" .............................. ",
" .............................. ",
" .............................. ",
" .............................. ",
" .............................. ",
" .............................. ",
"                                "
};
