/* XPM */
static char */tmp/tmp[] = {
/* width height ncolors chars_per_pixel */
"32 32 5 1",
/* colors */
"  c #000000",
". c #D2B48C",
"X c #CD853F",
"o c #808080",
"O c #FFFF00",
/* pixels */
"                                ",
" .............................. ",
" .............................. ",
" .............................. ",
" .............................. ",
" .............................. ",
" .............................. ",
" ..oooooooooooooooooooooooooo . ",
" ..o......................... . ",
" ..o........................X . ",
" ..o....   .................X . ",
" ..o... OOO ......ooooooo ..X . ",
" ..o.. OOOOO .....o.....X ..X . ",
" ..o. OO O OO ....o.....X ..X . ",
" ..o. OOOOOOO ....o.....X ..X . ",
" ..o. OOO OOO ....o.....X ..X . ",
" ..o. O OOO O ....o.....X ..X . ",
" ..o.. O   O .....oXXXXXX ..X . ",
" ..o... OOO ......        ..X . ",
" ..o....   .................X . ",
" ..o........................X . ",
" ..o........................X . ",
" ..o.XXXXXXXXXXXXXXXXXXXXXXXX . ",
" ..o                          . ",
" .............................. ",
" .............................. ",
" .............................. ",
" .............................. ",
" .............................. ",
" .............................. ",
" .............................. ",
"                                "
};
