/* XPM */
static char */tmp/tmp[] = {
/* width height ncolors chars_per_pixel */
"32 32 4 1",
/* colors */
"  c #000000",
". c #D2B48C",
"X c #CD853F",
"o c #808080",
/* pixels */
"                                ",
" .............................. ",
" .............................. ",
" .............................. ",
" ...oooooo..ooooooo..oooooo.... ",
" ..o...... o....... o...... ... ",
" ..o.....X o......X o.....X ... ",
" ..o.....X o......X o.....X ... ",
" ..o.....X o......X o.....X ... ",
" ..o.XXXXX o.XXXXXX o.XXXXX ... ",
" ..o       o        o       ... ",
" .ooooooooooooooooooooooooooo . ",
" .o.......................... . ",
" .o.........................X . ",
" .o.........................X . ",
" .o.........................X . ",
" .o.........................X . ",
" .o.........................X . ",
" .o.........................X . ",
" .o.........................X . ",
" .o.........................X . ",
" .o.........................X . ",
" .o.........................X . ",
" .o.........................X . ",
" .o.........................X . ",
" .o.........................X . ",
" .o.........................X . ",
" .o.XXXXXXXXXXXXXXXXXXXXXXXXX . ",
" .o                           . ",
" .............................. ",
" .............................. ",
"                                "
};
