/* XPM */
static char */tmp/tmp[] = {
/* width height ncolors chars_per_pixel */
"32 32 4 1",
/* colors */
"  c #000000",
". c #D2B48C",
"X c #FFFFFF",
"o c #0000FF",
/* pixels */
"................................",
".    ...............ooo.........",
". XX .o.o.o.o.o.o.o.oXo.........",
". XX      ..........ooo.........",
".    .....   ...................",
".............  .................",
"..X.....X...... ....X.....X.....",
"................  ..............",
".................. .............",
"................... .....ooo....",
".................... ....oXo....",
"..................... ...ooo....",
"..X.....X.....X...... ..........",
"...................... ...o.....",
"....................... ........",
"....................... ..o.....",
"........................ .......",
"........................ .o.....",
"..X.....X.....X.....X... .......",
"......................... o.....",
"......................... ......",
"......................... o.....",
"......................... ......",
"......................... o.....",
"..X.....X.....X.....X.... ......",
"......................... o.....",
"........................    ....",
"........................ XX ....",
"........................ XX ....",
"........................    ....",
"..X.....X.....X.....X.....X.....",
"................................"
};
