/* XPM */
static char */tmp/tmp[] = {
/* width height ncolors chars_per_pixel */
"32 32 9 1",
/* colors */
"  c #000000",
". c #D2B48C",
"X c #00FF00",
"o c #CD853F",
"O c #FF0000",
"+ c #FFFFFF",
"@ c #FFFF00",
"# c #FFFACD",
"$ c #0000FF",
/* pixels */
"############################### ",
"#       ......................o ",
"# ..... ..... ................o ",
"# .   . ..... ..........   ...o ",
"# . + . ...          .. XXX ..o ",
"# . + . ... OO OOOOO . XXXXX .o ",
"# . + . ... OOO OOOO . XXXXX .o ",
"# . + . ... OOO OOOO . XXXXX .o ",
"# .   . ... OOOO OOO .. XXX ..o ",
"# ..... ... OOOO OOO ...   ...o ",
"# ..... ... OOOOO OO .........o ",
"# .   . ...          .........o ",
"# . + . ......... ............o ",
"# . + . ..........        ....o ",
"# . + . .........  $$$ $$$  ..o ",
"# . + . ........ $$ $ @ $$$$ .o ",
"# .   . ....... $$$  @@@ $$$$ o ",
"# ..... ....... $$$  @@@@ $$$ o ",
"# ..... .....   $$ @ @@@@@ $$$o ",
"# .   . .... OOO  @@@ @@@@@ $$o ",
"# . + . ... OOOOO @@@ @@@@@@ $o ",
"# . + . ... OOOOO @@@@ @@@@@@ o ",
"# . + . ... OOOOO             o ",
"# . + . .... OOO $$$$$$ $$$$$$o ",
"# .   . .....   $$$$$$$ $$$$$$o ",
"# ..... ....... $$$$$$$$ $$$$ o ",
"# ..... ....... $$$$$$$$ $$$$ o ",
"# ..... ........ $$$$$$$$$$$ .o ",
"# ..... .........  $$$$$$$  ..o ",
"#       ...........       ....o ",
"#oooooooooooooooooooooooooooooo ",
"                                "
};
