/* XPM */
static char */tmp/tmp[] = {
/* width height ncolors chars_per_pixel */
"32 32 5 1",
/* colors */
"  c #000000",
". c #D2B48C",
"X c #CD853F",
"o c #FFFFFF",
"O c #FFFACD",
/* pixels */
"OOOOOOOOOOOOOOOOOOOOOOOOOOOOOOO ",
"O.............................X ",
"O..o...o...o...o...o...o...o..X ",
"O.    ..................    ..X ",
"O. oo .................. oo ..X ",
"O. oo .................. oo ..X ",
"O.    .o....      .....o    ..X ",
"O........   ......   .........X ",
"O......  ............  .......X ",
"O..... ................ ......X ",
"O..o. .....o...o...o.... ..o..X ",
"O.... .................. .....X ",
"O... .................... ....X ",
"O... ...................   ...X ",
"O..o ..o...o...o...o.... o ...X ",
"O... ...................   ...X ",
"O... .................... ....X ",
"O.... .................. .....X ",
"O..o. .....o...o...o.... ..o..X ",
"O..... ................ ......X ",
"O......  ............  .......X ",
"O........   ......   .........X ",
"O.    .o....      .....o    ..X ",
"O. oo .................. oo ..X ",
"O. oo .................. oo ..X ",
"O.    ..................    ..X ",
"O..o...o...o...o...o...o...o..X ",
"O.............................X ",
"O.............................X ",
"O.............................X ",
"OXXXXXXXXXXXXXXXXXXXXXXXXXXXXXX ",
"                                "
};
