/* XPM */
static char */tmp/tmp[] = {
/* width height ncolors chars_per_pixel */
"32 32 8 1",
/* colors */
"  c #000000",
". c #D2B48C",
"X c #CD853F",
"o c #FF0000",
"O c #FFFFFF",
"+ c #FFFF00",
"@ c #FFFACD",
"# c #0000FF",
/* pixels */
"@@@@@@@@@@@@@@@@@@@@@@@@@@@@@@@ ",
"@.............................X ",
"@.............................X ",
"@..    .................    ..X ",
"@.. OO  . . . . . . . .  OO ..X ",
"@.. OO ................. OO ..X ",
"@..    ......... .......    ..X ",
"@................ ........ ...X ",
"@... ............. .   .......X ",
"@......        .... +++ .. ...X ",
"@... .. oooooo ... + +++ .....X ",
"@...... oooooo ... ++ ++ . ...X ",
"@... .. oooooo ... +++ + .....X ",
"@...... oooooo .... +++ .. ...X ",
"@... ..        .....   . .....X ",
"@......................... ...X ",
"@... ......      .............X ",
"@.....     ###### ........ ...X ",
"@... . ########### ...........X ",
"@...... ########### ...... ...X ",
"@... .. ############ .........X ",
"@....... ########### ..... ...X ",
"@... ... ########## ..........X ",
"@........ ######## ....... ...X ",
"@..    ..        .......    ..X ",
"@.. OO ................. OO ..X ",
"@.. OO  . . . . . . . .  OO ..X ",
"@..    .................    ..X ",
"@.............................X ",
"@.............................X ",
"@XXXXXXXXXXXXXXXXXXXXXXXXXXXXXX ",
"                                "
};
