/* XPM */
static char */tmp/tmp[] = {
/* width height ncolors chars_per_pixel */
"32 32 5 1",
/* colors */
"  c #000000",
". c #D2B48C",
"X c #CD853F",
"o c #FFFFFF",
"O c #FFFACD",
/* pixels */
"                                ",
" X.X.X.X OXOXOXOXOXOXOXOXOXOXOX ",
" .X.X.X. XOXOXOXOXOXOXOXOXOXOXO ",
" X.X.X.X OXOXOXO    XOXOXOX.X.X ",
" .X.X.X. XOXOXO O..X XOXOX.     ",
" X.X.X.X OXOXOX XOX. OXOX  X.X. ",
" .X.X.X    XOXOX .. OXOX .X.X.X ",
" X.X.  XoXo   XO OX XOXO X X.X  ",
" .X  oXoXoXoXo   .. OXOX    X X ",
"   XoXoX   XoXoX OX   XO .O     ",
" oXoXoX .O. XoX O..X X   O.O X  ",
" XoXoX .O.O. X OXOX.X oXo O.X X ",
" oXoX .X.O.O. OXO..X . oX .O X  ",
" XoX   .X.O.O XOXOX X  Xo O.X X ",
" oX XOX .X.O. OXOX.X .  X .O X  ",
" X OOXOX .X.  XOXOX X  X X .X X ",
" o O.OXO X. X OXOX.X .  X  O X  ",
" X OOXOX   Xo XOXOX X  X X .X X ",
" oX OO. XoXoX OXOX.X .  X X  X  ",
" XoX   XoXoXo XOXOX X  X XoXo   ",
" oXoXoXoXoXoX OXOX.X .  XoXoXoX ",
" XoXoXoXoXoXo XOXOX X  XoXoXoXo ",
" oXoXoXoXoXoXo  OX.X  XoXoXoXoX ",
" XoXoXoXoXoXoXoX    oXoXoXoXoXo ",
" oXoXoXoXoXoXoXoXoXoXoXoXoXoXoX ",
"                                ",
" XXXXXXXXXXXXXXXXXXXXXXXXXXXXXX ",
"                                ",
" X.X.X.X.X.X.X.X.X.X.X.X.X.X.X. ",
" .X.X.X.X.X.X.X.X.X.X.X.X.X.X.X ",
" X.X.X.X.X.X.X.X.X.X.X.X.X.X.X. ",
"                                "
};
