/* XPM */
static char */tmp/tmp[] = {
/* width height ncolors chars_per_pixel */
"32 32 4 1",
/* colors */
"  c #000000",
". c #D2B48C",
"X c #FF0000",
"o c #FFFFFF",
/* pixels */
"................................",
"............. ..................",
"............  ..................",
"......   ..  X   ..   ..........",
"...    o .  XXXX .. o   ........",
".. ...   ..  X   ..   ..  ......",
". ..........  ............ .....",
". ........... ............ .....",
". ......................... ....",
". ......................... ....",
".. .......................   ...",
"...   .................... o ...",
"...... ...................   ...",
"...... .........................",
"...... .................... ....",
"....  ....................   ...",
"... .....................  X  ..",
".. .....................  XXX  .",
".. ....................... X ...",
".   ...................... X ...",
". o ......................   ...",
".   ............................",
"..... ..........................",
".... X ...................   ...",
"... XXX . ..............   o ...",
".... XXX  ............  ..   ...",
"..... XXX ..........  ..........",
"...... XX ...   ..  ............",
".....     ... o   ..............",
".............   ................",
"................................",
"................................"
};
