/* XPM */
static char */tmp/tmp[] = {
/* width height ncolors chars_per_pixel */
"32 32 4 1",
/* colors */
"  c #000000",
". c #D2B48C",
"X c #FFFFFF",
"o c #0000FF",
/* pixels */
"..X.....X.....X...........X.....",
".    .............ooo...........",
". XX     .o.o.o.o.oXo...........",
". XX      ........ooo...........",
".    ...   .....................",
"..........  .....ooo............",
"..X.....X..  ....oXo......X.....",
"...........  ....ooo............",
"............  ...o..............",
"............  ...o..............",
"............  ..o...............",
".............  .o...............",
"..X.....X....  o....X....ooo....",
".............  o.........oXo....",
".............   .........ooo....",
"..............  ..........o.....",
"..............   ...............",
"...............   ........o.....",
"..X.....X......o   .......X.....",
"...............o.     ....o.....",
"................o..     ........",
"................o.....   .o.....",
".................o......  ......",
".................o......   .....",
"..X.....X.....X...o.X....  .....",
"..................o......  .....",
"..................ooo...    ....",
"..................oXo... XX ....",
"..................ooo... XX ....",
"........................    ....",
"..X.....X.....X.....X.....X.....",
"................................"
};
