/* XPM */
static char */tmp/tmp[] = {
/* width height ncolors chars_per_pixel */
"32 32 4 1",
/* colors */
"  c #000000",
". c #D2B48C",
"X c #FFFFFF",
"o c #FFFACD",
/* pixels */
"ooooooooooooooooooooooooooooooo ",
"o.............................. ",
"o.............................. ",
"o.............................. ",
"o.    ..................... ... ",
"o. XX .                ...   .. ",
"o. XX ...................     . ",
"o.    ..................        ",
"o.............................. ",
"o.. ................    ... ... ",
"o..      ....... ....  .... ... ",
"o.. .. .. . ..    ...  .... ... ",
"o.. .. . . .  .. ....  .... ... ",
"o.. .. .   .  .. ....  .... ... ",
"o.. .. . ...  .. ....  .... ... ",
"o.. .. . . .  .. ....  .... ... ",
"o.. .. .. . .. .. ...  .... ... ",
"o.. ................    ... ... ",
"o.. ....................... ... ",
"o.. ....................... ... ",
"o.. ....................... ... ",
"o.. ....................... ... ",
"o.. ....................... ... ",
"o..... ............. .......... ",
"o....  .............  ..        ",
"o...   .............   ..     . ",
"o..    .           .    ..   .. ",
"o...   .............   .... ... ",
"o....  .............  ......... ",
"o..... ............. .......... ",
"o.............................. ",
"                                "
};
